ncols        200
nrows        200
xllcorner    530000.000000000000
yllcorner    170000.000000000000
cellsize     50.000000000000
2.7999999523162841797 2.9000000953674316406 3.2999999523162841797 3.7999999523162841797 4.3000001907348632812 4.9000000953674316406 4.6999998092651367188 -2.2999999523162841797 -2.2999999523162841797 -2.2999999523162841797 -2.2999999523162841797 -2.2999999523162841797 -2.2999999523162841797 5.0999999046325683594 4.9000000953674316406 3.9000000953674316406 3.7000000476837158203 3.7999999523162841797 3.9000000953674316406 4.5 4.0999999046325683594 3.9000000953674316406 3.5999999046325683594 3.2000000476837158203 2.7999999523162841797 2.4000000953674316406 2.7999999523162841797 2.2999999523162841797 2.2000000476837158203 2.5 3.0999999046325683594 3.7000000476837158203 3.9000000953674316406 4 4.5999999046325683594 4.5 4.3000001907348632812 3.7000000476837158203 3.2999999523162841797 3 2.7000000476837158203 3.0999999046325683594 3.0999999046325683594 3.2000000476837158203 3.2000000476837158203 3.5 4.0999999046325683594 4.3000001907348632812 4.4000000953674316406 4.6999998092651367188 4.4000000953674316406 4.0999999046325683594 3.9000000953674316406 3.7999999523162841797 4 4.3000001907348632812 4.5 4.8000001907348632812 4.5 4.1999998092651367188 4.5999999046325683594 7.9000000953674316406 5.4000000953674316406 5.0999999046325683594 6.8000001907348632812 4 3.7000000476837158203 4 4.3000001907348632812 4.6999998092651367188 5.1999998092651367188 6 4.6999998092651367188 4.3000001907348632812 4.3000001907348632812 4.0999999046325683594 4.9000000953674316406 4.4000000953674316406 3.4000000953674316406 -1.2999999523162841797 -2.2999999523162841797 -2.2999999523162841797 -2.2999999523162841797 -2.2999999523162841797 -2.2999999523162841797 -2.2999999523162841797 -2.2999999523162841797 -2.2999999523162841797 -2.2999999523162841797 -2.2999999523162841797 -2.2999999523162841797 -2.2999999523162841797 -2.2999999523162841797 -2.2999999523162841797 -2.2999999523162841797 -2.2999999523162841797 -2.2999999523162841797 -2.2999999523162841797 -2.2999999523162841797 -2.2999999523162841797 -2.2999999523162841797 -2.2999999523162841797 -2.2999999523162841797 -2.2999999523162841797 -2.2999999523162841797 -0.5 3.2999999523162841797 3.2000000476837158203 3 2.9000000953674316406 3.2000000476837158203 3.7000000476837158203 4.9000000953674316406 3.2999999523162841797 4.3000001907348632812 5.1999998092651367188 5.6999998092651367188 6.1999998092651367188 5.8000001907348632812 6.4000000953674316406 6.5999999046325683594 7.1999998092651367188 6.9000000953674316406 6.9000000953674316406 3.7999999523162841797 4.8000001907348632812 5.9000000953674316406 5.8000001907348632812 4.5 5.0999999046325683594 4.8000001907348632812 3.0999999046325683594 4.1999998092651367188 3.2999999523162841797 -2.2999999523162841797 -2.2999999523162841797 -2.2999999523162841797 -2.2999999523162841797 -2.2999999523162841797 -2.2999999523162841797 3.7000000476837158203 3.4000000953674316406 3.2999999523162841797 4 3.7999999523162841797 3.9000000953674316406 3.9000000953674316406 3.9000000953674316406 7.0999999046325683594 7.0999999046325683594 4.9000000953674316406 4.9000000953674316406 4.9000000953674316406 4.9000000953674316406 4.9000000953674316406 4.9000000953674316406 4.9000000953674316406 4.9000000953674316406 4.9000000953674316406 4.9000000953674316406 4.9000000953674316406 4.9000000953674316406 5 4.9000000953674316406 5.0999999046325683594 5.1999998092651367188 4.5999999046325683594 -2.2999999523162841797 -2.2999999523162841797 -2.2999999523162841797 -2.2999999523162841797 -2.2999999523162841797 -2.2999999523162841797 -2.2999999523162841797 -2.2999999523162841797 2.7999999523162841797 5.6999998092651367188 5.0999999046325683594 4.5999999046325683594 5.0999999046325683594 5.5999999046325683594 5.4000000953674316406 5.5999999046325683594 5.5999999046325683594 5.5999999046325683594 5.6999998092651367188 5.5999999046325683594 5.4000000953674316406 5.9000000953674316406 6.0999999046325683594 1.5 -2.2999999523162841797 -2.2999999523162841797 -2.2999999523162841797 -2.2999999523162841797 -2.2999999523162841797 -2.2999999523162841797 -2.2999999523162841797 -2.2999999523162841797 -2.2999999523162841797 
3.2000000476837158203 3.7000000476837158203 3.7999999523162841797 4.1999998092651367188 4.5 4.8000001907348632812 -2.2999999523162841797 -2.2999999523162841797 -2.2999999523162841797 -2.2999999523162841797 -2.2999999523162841797 -2.2999999523162841797 -2.2999999523162841797 5.1999998092651367188 4.8000001907348632812 4.3000001907348632812 3.9000000953674316406 3.5 3.7000000476837158203 4.0999999046325683594 4 3.7999999523162841797 3.5 3.2999999523162841797 2.7999999523162841797 2.5 2.7999999523162841797 2.5 2.5999999046325683594 2.7000000476837158203 3 3.2999999523162841797 3.5999999046325683594 4 4.5999999046325683594 4.1999998092651367188 3.9000000953674316406 3.5 3.2000000476837158203 2.5999999046325683594 2.5 2.5999999046325683594 2.5999999046325683594 3.5999999046325683594 3.7000000476837158203 3.5999999046325683594 3.7999999523162841797 4.3000001907348632812 4.9000000953674316406 4.5999999046325683594 4.5 4.1999998092651367188 4 4 4 4.1999998092651367188 4.4000000953674316406 4.1999998092651367188 4 4.0999999046325683594 4 4.8000001907348632812 3.5 3.9000000953674316406 3.7999999523162841797 3.5999999046325683594 3.5 3.5999999046325683594 3.5999999046325683594 4.0999999046325683594 4.5999999046325683594 4.6999998092651367188 4 4.0999999046325683594 4 3.7999999523162841797 3.9000000953674316406 4.1999998092651367188 3.4000000953674316406 3.5999999046325683594 -2.2999999523162841797 -2.2999999523162841797 -2.2999999523162841797 -2.2999999523162841797 -2.2999999523162841797 -2.2999999523162841797 -2.2999999523162841797 -2.2999999523162841797 -2.2999999523162841797 -2.2999999523162841797 -2.2999999523162841797 -2.2999999523162841797 -2.2999999523162841797 -2.2999999523162841797 -2.2999999523162841797 -2.2999999523162841797 -2.2999999523162841797 -2.2999999523162841797 -2.2999999523162841797 -2.2999999523162841797 -2.2999999523162841797 -2.2999999523162841797 -2.2999999523162841797 -2.2999999523162841797 2 3.0999999046325683594 3 2.7999999523162841797 2.9000000953674316406 2.9000000953674316406 3.0999999046325683594 3.7000000476837158203 4.0999999046325683594 3.2999999523162841797 4.8000001907348632812 5.0999999046325683594 5.4000000953674316406 5.8000001907348632812 6.4000000953674316406 7.1999998092651367188 7.1999998092651367188 7.5 7.8000001907348632812 7.9000000953674316406 6.8000001907348632812 5.5999999046325683594 6.3000001907348632812 6.1999998092651367188 4.5999999046325683594 4.1999998092651367188 4.5 2.9000000953674316406 4.1999998092651367188 3.4000000953674316406 -2.2999999523162841797 -2.2999999523162841797 -2.2999999523162841797 -2.2999999523162841797 -2.2999999523162841797 -2.2999999523162841797 3.5999999046325683594 2.9000000953674316406 2.7000000476837158203 2.7000000476837158203 3 3.2999999523162841797 3.5 3.2999999523162841797 6 5.4000000953674316406 4.8000001907348632812 4.8000001907348632812 4.9000000953674316406 4.9000000953674316406 4.9000000953674316406 4.9000000953674316406 4.9000000953674316406 4.9000000953674316406 4.9000000953674316406 4.9000000953674316406 4.9000000953674316406 4.9000000953674316406 2 1.6000000238418579102 1.6000000238418579102 1.6000000238418579102 -2.2999999523162841797 -2.2999999523162841797 -2.2999999523162841797 -2.2999999523162841797 -2.2999999523162841797 -2.2999999523162841797 -2.2999999523162841797 -2.2999999523162841797 -2.2999999523162841797 6.5 5.5999999046325683594 5 4.1999998092651367188 3.2000000476837158203 5.3000001907348632812 4.6999998092651367188 5 5.6999998092651367188 5.5999999046325683594 5.6999998092651367188 5.5 5.3000001907348632812 5.4000000953674316406 5.6999998092651367188 6.1999998092651367188 -2.2999999523162841797 -2.2999999523162841797 -2.2999999523162841797 -2.2999999523162841797 -2.2999999523162841797 -2.2999999523162841797 -2.2999999523162841797 -2.2999999523162841797 -2.2999999523162841797 
4.4000000953674316406 4.5 4.3000001907348632812 4.4000000953674316406 4.6999998092651367188 4.9000000953674316406 -2.2999999523162841797 -2.2999999523162841797 -2.2999999523162841797 -2.2999999523162841797 -2.2999999523162841797 -2.2999999523162841797 -2.2999999523162841797 4.3000001907348632812 4.5 3.5999999046325683594 3.4000000953674316406 2.9000000953674316406 3.2000000476837158203 3.7000000476837158203 3.9000000953674316406 3.5999999046325683594 3.5 3.2999999523162841797 2.9000000953674316406 2.7999999523162841797 2.9000000953674316406 2.7999999523162841797 2.7000000476837158203 2.5 2.5999999046325683594 2.9000000953674316406 3.2000000476837158203 3.7000000476837158203 4.3000001907348632812 4 3.7000000476837158203 3.5999999046325683594 3.5 3 3.2000000476837158203 2.7999999523162841797 3.0999999046325683594 4.1999998092651367188 4.1999998092651367188 4.3000001907348632812 4.3000001907348632812 4.4000000953674316406 4.8000001907348632812 4.5999999046325683594 4.4000000953674316406 4.3000001907348632812 4.1999998092651367188 4.0999999046325683594 3.9000000953674316406 3.7999999523162841797 3.7000000476837158203 3.5999999046325683594 3.5 3.2000000476837158203 2.9000000953674316406 2.7999999523162841797 2.7000000476837158203 2.7000000476837158203 2.9000000953674316406 3.0999999046325683594 3.4000000953674316406 3.4000000953674316406 3.4000000953674316406 3.2999999523162841797 3.5999999046325683594 3.7000000476837158203 3.5999999046325683594 3.7999999523162841797 3.9000000953674316406 3.7000000476837158203 3.5999999046325683594 3.7000000476837158203 3.4000000953674316406 3.2999999523162841797 3.4000000953674316406 4 -2.2999999523162841797 -2.2999999523162841797 -2.2999999523162841797 -2.2999999523162841797 -2.2999999523162841797 -2.2999999523162841797 -2.2999999523162841797 -2.2999999523162841797 -2.2999999523162841797 -2.2999999523162841797 -2.2999999523162841797 -2.2999999523162841797 -2.2999999523162841797 -2.2999999523162841797 -2.2999999523162841797 -2.2999999523162841797 -2.2999999523162841797 -2.2999999523162841797 -2.2999999523162841797 -2.2999999523162841797 -2.2999999523162841797 4 2.9000000953674316406 2.7000000476837158203 2.5 2.7000000476837158203 2.9000000953674316406 3 3.2000000476837158203 3.7000000476837158203 4 4.6999998092651367188 5.5 5.0999999046325683594 5.3000001907348632812 5.5999999046325683594 5.8000001907348632812 5.9000000953674316406 6.4000000953674316406 9 9.5 7.5 6.1999998092651367188 6 6 5.6999998092651367188 3.7999999523162841797 2.9000000953674316406 2.5999999046325683594 2.0999999046325683594 3.7999999523162841797 3.2999999523162841797 -2.2999999523162841797 -2.2999999523162841797 -2.2999999523162841797 -2.2999999523162841797 -2.2999999523162841797 -2.2999999523162841797 3.2999999523162841797 3 2.2999999523162841797 2.2999999523162841797 2.4000000953674316406 2.4000000953674316406 2.5 3 4.3000001907348632812 4 4.4000000953674316406 4.5 4.5999999046325683594 4.5999999046325683594 4.6999998092651367188 4.5999999046325683594 4.8000001907348632812 4.8000001907348632812 4.8000001907348632812 4.9000000953674316406 4.9000000953674316406 4.9000000953674316406 4.9000000953674316406 4.9000000953674316406 4.4000000953674316406 4 -2.2999999523162841797 -2.2999999523162841797 -2.2999999523162841797 -2.2999999523162841797 -2.2999999523162841797 -2.2999999523162841797 -2.2999999523162841797 -2.2999999523162841797 -2.2999999523162841797 6.1999998092651367188 5.8000001907348632812 5.1999998092651367188 4.6999998092651367188 2.5 3.5999999046325683594 4.1999998092651367188 4.5 4.6999998092651367188 5.3000001907348632812 4.9000000953674316406 5.4000000953674316406 5.5 5.5999999046325683594 5.5999999046325683594 5.8000001907348632812 4.5999999046325683594 -2.2999999523162841797 -2.2999999523162841797 -2.2999999523162841797 -2.2999999523162841797 -2.2999999523162841797 -2.2999999523162841797 -2.2999999523162841797 -2.2999999523162841797 
4.0999999046325683594 4.1999998092651367188 4.1999998092651367188 4.4000000953674316406 4.5999999046325683594 5.3000001907348632812 -2.2999999523162841797 -2.2999999523162841797 -2.2999999523162841797 -2.2999999523162841797 -2.2999999523162841797 -2.2999999523162841797 6.4000000953674316406 5.8000001907348632812 5.1999998092651367188 3.7000000476837158203 3.4000000953674316406 2.2000000476837158203 2.7000000476837158203 3.2000000476837158203 3.7000000476837158203 3.5999999046325683594 3.4000000953674316406 3.2000000476837158203 3.0999999046325683594 3.0999999046325683594 3 2.7999999523162841797 2.5 2.5 2.7000000476837158203 2.9000000953674316406 3.2000000476837158203 3.4000000953674316406 3.9000000953674316406 3.7999999523162841797 3.5999999046325683594 3.5 3.5999999046325683594 3.7999999523162841797 3.7000000476837158203 3.5999999046325683594 3.7999999523162841797 3.9000000953674316406 4.5 4.4000000953674316406 4.5 4.5999999046325683594 4.6999998092651367188 4.5 4.4000000953674316406 4 4 3.7999999523162841797 3.5999999046325683594 3.4000000953674316406 3.2999999523162841797 3.2999999523162841797 3.2999999523162841797 2.7999999523162841797 2.2000000476837158203 2.4000000953674316406 2.4000000953674316406 2.5 2.5999999046325683594 2.9000000953674316406 3.2000000476837158203 3.2000000476837158203 3.2000000476837158203 3.4000000953674316406 3.2999999523162841797 3.4000000953674316406 3.5999999046325683594 3.7999999523162841797 3.7000000476837158203 3.2999999523162841797 3.4000000953674316406 3.5 3.0999999046325683594 3.2999999523162841797 3.5 3.2999999523162841797 3.2999999523162841797 3.2000000476837158203 -2.2999999523162841797 -2.2999999523162841797 -2.2999999523162841797 -2.2999999523162841797 -2.2999999523162841797 -2.2999999523162841797 -2.2999999523162841797 -2.2999999523162841797 -2.2999999523162841797 -2.2999999523162841797 -2.2999999523162841797 -2.2999999523162841797 -2.2999999523162841797 -2.2999999523162841797 -2.2999999523162841797 -2.2999999523162841797 -2.2999999523162841797 3.7000000476837158203 3.7999999523162841797 2.9000000953674316406 2.7000000476837158203 2.4000000953674316406 2.0999999046325683594 2.2000000476837158203 2.4000000953674316406 2.5 3 3.5 4.1999998092651367188 4.9000000953674316406 5.0999999046325683594 5.3000001907348632812 5.0999999046325683594 5.1999998092651367188 4.8000001907348632812 4.9000000953674316406 6.5 10.600000381469726562 12.5 7 5.6999998092651367188 5.5 5.4000000953674316406 5.4000000953674316406 3.7999999523162841797 2.4000000953674316406 2 1.6000000238418579102 3.2000000476837158203 3 -2.2999999523162841797 -2.2999999523162841797 -2.2999999523162841797 -2.2999999523162841797 -2.2999999523162841797 -2.2999999523162841797 3.2999999523162841797 3.0999999046325683594 2 2 2.0999999046325683594 2.0999999046325683594 2.0999999046325683594 2.2999999523162841797 3 3.5999999046325683594 4 4.4000000953674316406 4.5999999046325683594 4.5999999046325683594 4.5999999046325683594 4.8000001907348632812 4.8000001907348632812 4.5 4.3000001907348632812 4.9000000953674316406 5.1999998092651367188 4.8000001907348632812 4.6999998092651367188 4.4000000953674316406 3.9000000953674316406 3.0999999046325683594 3.5 -2.2999999523162841797 -2.2999999523162841797 -2.2999999523162841797 -2.2999999523162841797 -2.2999999523162841797 -2.2999999523162841797 -2.2999999523162841797 -2.2999999523162841797 5.6999998092651367188 5.8000001907348632812 5.1999998092651367188 6.4000000953674316406 2.2000000476837158203 3.5999999046325683594 3.7999999523162841797 4.3000001907348632812 4.4000000953674316406 4.5 5 5 5.0999999046325683594 5.3000001907348632812 5.1999998092651367188 5.4000000953674316406 5.9000000953674316406 2.7000000476837158203 -2.2999999523162841797 -2.2999999523162841797 -2.2999999523162841797 -2.2999999523162841797 -2.2999999523162841797 -2.2999999523162841797 -2.2999999523162841797 
4.3000001907348632812 4.9000000953674316406 5 4.9000000953674316406 5.3000001907348632812 6.4000000953674316406 -2.2999999523162841797 -2.2999999523162841797 -2.2999999523162841797 -2.2999999523162841797 -2.2999999523162841797 -2.2999999523162841797 6.1999998092651367188 5.8000001907348632812 5.5 4 3.0999999046325683594 2.5 2.7999999523162841797 3.0999999046325683594 3.5 3.5 3.5 3.4000000953674316406 3.2999999523162841797 3.2999999523162841797 3 2.5999999046325683594 2.5 2.5 2.5999999046325683594 2.9000000953674316406 3.2000000476837158203 3.5 3.7000000476837158203 3.7000000476837158203 3.5 3.4000000953674316406 3.5 3.5 3.5999999046325683594 3.7000000476837158203 3.9000000953674316406 4.1999998092651367188 4.6999998092651367188 4.5999999046325683594 4.5999999046325683594 4.5999999046325683594 4.4000000953674316406 4.1999998092651367188 3.7999999523162841797 3.7999999523162841797 3.5999999046325683594 3.5 3.2999999523162841797 3.0999999046325683594 2.9000000953674316406 3 3 3.4000000953674316406 3 2.7000000476837158203 2.4000000953674316406 2.2999999523162841797 2.4000000953674316406 2.7000000476837158203 2.5 2.9000000953674316406 3 3 3 3.2999999523162841797 3.5 3.5999999046325683594 3.5999999046325683594 3.2000000476837158203 3.2000000476837158203 3.2999999523162841797 3.7999999523162841797 3.4000000953674316406 3.2000000476837158203 3.0999999046325683594 3.0999999046325683594 3.7000000476837158203 4 3.9000000953674316406 4.0999999046325683594 -2.2999999523162841797 -2.2999999523162841797 -2.2999999523162841797 -2.2999999523162841797 -2.2999999523162841797 -2.2999999523162841797 -2.2999999523162841797 -2.2999999523162841797 -2.2999999523162841797 -2.2999999523162841797 -2.2999999523162841797 3.5 3.7000000476837158203 3.7999999523162841797 3.2999999523162841797 3.2000000476837158203 2.4000000953674316406 2.2000000476837158203 2.5 3 2.5999999046325683594 2.4000000953674316406 2.5 2.5 4.0999999046325683594 4.5 5.1999998092651367188 5.6999998092651367188 5.8000001907348632812 5.0999999046325683594 5.3000001907348632812 5.0999999046325683594 5.0999999046325683594 5.5 6.9000000953674316406 6.6999998092651367188 5.4000000953674316406 5.1999998092651367188 5.5 5.1999998092651367188 4.0999999046325683594 2.9000000953674316406 1.7999999523162841797 1.7000000476837158203 1.6000000238418579102 3.5 2.9000000953674316406 -2.2999999523162841797 -2.2999999523162841797 -2.2999999523162841797 -2.2999999523162841797 -2.2999999523162841797 -2.2999999523162841797 3.0999999046325683594 2.4000000953674316406 1.8999999761581420898 1.7999999523162841797 1.8999999761581420898 1.7000000476837158203 1.7000000476837158203 2.4000000953674316406 2.7999999523162841797 3.4000000953674316406 3.9000000953674316406 4.5 4.5999999046325683594 4.5999999046325683594 4.5999999046325683594 4.5999999046325683594 4.8000001907348632812 4.5999999046325683594 4.1999998092651367188 4.1999998092651367188 4.5 3.9000000953674316406 3.4000000953674316406 3.2000000476837158203 2.7000000476837158203 2.4000000953674316406 3.2000000476837158203 3.9000000953674316406 -2.2999999523162841797 -2.2999999523162841797 -2.2999999523162841797 -2.2999999523162841797 -2.2999999523162841797 -2.2999999523162841797 -2.2999999523162841797 5.3000001907348632812 7.8000001907348632812 7.4000000953674316406 7.6999998092651367188 2.2000000476837158203 3.5999999046325683594 3.7999999523162841797 4.0999999046325683594 4.5999999046325683594 4 4.9000000953674316406 4.5 4.5999999046325683594 4.8000001907348632812 4.8000001907348632812 5.0999999046325683594 5.8000001907348632812 6.0999999046325683594 1.7000000476837158203 -2.2999999523162841797 -2.2999999523162841797 -2.2999999523162841797 -2.2999999523162841797 -2.2999999523162841797 -2.2999999523162841797 
4.5999999046325683594 5.8000001907348632812 5.9000000953674316406 5.9000000953674316406 6 7.1999998092651367188 -2.2999999523162841797 -2.2999999523162841797 -2.2999999523162841797 -2.2999999523162841797 -2.2999999523162841797 -2.2999999523162841797 6.1999998092651367188 5.6999998092651367188 5.1999998092651367188 4.0999999046325683594 3.5 2.7999999523162841797 3.2999999523162841797 3.7000000476837158203 3.7999999523162841797 3.9000000953674316406 3.7999999523162841797 3.7000000476837158203 3.5 3.4000000953674316406 3.0999999046325683594 2.9000000953674316406 2.5 2.2000000476837158203 2.2999999523162841797 2.5999999046325683594 2.9000000953674316406 3.2999999523162841797 3.7000000476837158203 3.7000000476837158203 3.2000000476837158203 2.9000000953674316406 3.2000000476837158203 3.4000000953674316406 3.5999999046325683594 3.9000000953674316406 4.1999998092651367188 4 4.6999998092651367188 4.8000001907348632812 5 4.5999999046325683594 4.1999998092651367188 3.7999999523162841797 3.7000000476837158203 3.5 3.2999999523162841797 3.2000000476837158203 3.0999999046325683594 2.9000000953674316406 2.5999999046325683594 2.7000000476837158203 2.7999999523162841797 3 3.5 3.2000000476837158203 2.9000000953674316406 2.5 2.2000000476837158203 2.4000000953674316406 2.2999999523162841797 3 2.9000000953674316406 2.7999999523162841797 2.7000000476837158203 3 3.2000000476837158203 3.4000000953674316406 3.4000000953674316406 3.2999999523162841797 3.2999999523162841797 3.7000000476837158203 3.2999999523162841797 3.2999999523162841797 3 3 2.9000000953674316406 3.0999999046325683594 3 2.9000000953674316406 3.2000000476837158203 3 3.2000000476837158203 3.5999999046325683594 3.5999999046325683594 3.2000000476837158203 3.0999999046325683594 3.0999999046325683594 3.5 3.2000000476837158203 3.5 5 6.4000000953674316406 3.9000000953674316406 3.5 3.0999999046325683594 2.9000000953674316406 2.4000000953674316406 2 -2.0999999046325683594 2.7000000476837158203 1.8999999761581420898 2.4000000953674316406 2.5999999046325683594 3.5 5.1999998092651367188 5.3000001907348632812 5.5999999046325683594 5.8000001907348632812 5.0999999046325683594 5.1999998092651367188 5.3000001907348632812 5.3000001907348632812 5.5999999046325683594 5.5999999046325683594 5.6999998092651367188 5.4000000953674316406 4.3000001907348632812 5 5.8000001907348632812 5.5999999046325683594 5.0999999046325683594 4.4000000953674316406 2.2999999523162841797 1.7000000476837158203 2.7000000476837158203 4.3000001907348632812 1.5 -2.2999999523162841797 -2.2999999523162841797 -2.2999999523162841797 -2.2999999523162841797 -2.2999999523162841797 -2.2999999523162841797 3.0999999046325683594 2.5999999046325683594 2 1.8999999761581420898 1.8999999761581420898 1.7999999523162841797 1.8999999761581420898 2.7999999523162841797 3.0999999046325683594 3.2000000476837158203 3.5999999046325683594 4 4.9000000953674316406 5.1999998092651367188 4.5999999046325683594 4.5 4.5999999046325683594 4.9000000953674316406 4.0999999046325683594 4.1999998092651367188 4 2.7999999523162841797 2.0999999046325683594 1.7000000476837158203 1.7000000476837158203 2.0999999046325683594 2.5 3 -2.2999999523162841797 -2.2999999523162841797 -2.2999999523162841797 -2.2999999523162841797 -2.2999999523162841797 -2.2999999523162841797 -2.2999999523162841797 -2.2999999523162841797 4.9000000953674316406 4.3000001907348632812 3.2000000476837158203 2.2000000476837158203 2.7999999523162841797 2.7999999523162841797 3.2999999523162841797 3.7000000476837158203 3.2999999523162841797 3.2999999523162841797 3.9000000953674316406 3.7999999523162841797 4.3000001907348632812 4.9000000953674316406 5.8000001907348632812 6.0999999046325683594 6 6.3000001907348632812 0.69999998807907104492 -2.2999999523162841797 -2.2999999523162841797 -2.2999999523162841797 -2.2999999523162841797 -2.2999999523162841797 
5 6.3000001907348632812 6.3000001907348632812 6.5999999046325683594 6.6999998092651367188 7.8000001907348632812 -2.2999999523162841797 -2.2999999523162841797 -2.2999999523162841797 -2.2999999523162841797 -2.2999999523162841797 -2.2999999523162841797 8.6000003814697265625 6.5999999046325683594 5.5999999046325683594 4.8000001907348632812 3.7000000476837158203 3.2999999523162841797 3.5999999046325683594 3.7999999523162841797 3.7999999523162841797 3.9000000953674316406 3.5999999046325683594 3.4000000953674316406 3.2999999523162841797 3.2999999523162841797 3.2999999523162841797 3.2000000476837158203 3 2.4000000953674316406 2.5 2.7000000476837158203 2.7999999523162841797 3.2000000476837158203 3.5999999046325683594 3.7000000476837158203 3.2000000476837158203 3.2999999523162841797 3.2000000476837158203 3.5 3.7999999523162841797 4.0999999046325683594 4.4000000953674316406 3.9000000953674316406 4.4000000953674316406 4.8000001907348632812 4.1999998092651367188 3.7999999523162841797 3.7000000476837158203 3.7999999523162841797 4.0999999046325683594 3.9000000953674316406 3.7999999523162841797 3.5999999046325683594 3.2000000476837158203 3 2.7999999523162841797 2.7999999523162841797 2.7000000476837158203 2.9000000953674316406 3.0999999046325683594 3.2999999523162841797 3.0999999046325683594 2.7999999523162841797 2.4000000953674316406 2.4000000953674316406 2.5 2.9000000953674316406 2.5 2.9000000953674316406 2.5 2.5 2.7999999523162841797 3 3.2000000476837158203 3.4000000953674316406 3.2999999523162841797 3.2999999523162841797 3.0999999046325683594 2.7999999523162841797 2.7000000476837158203 2.5999999046325683594 2.5 2.5999999046325683594 2.9000000953674316406 2.7999999523162841797 2.7999999523162841797 2.5 2.5999999046325683594 2.7000000476837158203 3 3 3 3 3.5999999046325683594 3.4000000953674316406 3.7999999523162841797 3.7999999523162841797 3.5999999046325683594 3.2999999523162841797 3 2.7999999523162841797 2.7000000476837158203 2.4000000953674316406 -0.10000000149011611938 2 1.7000000476837158203 2.2000000476837158203 2.5 4.1999998092651367188 5.0999999046325683594 5.1999998092651367188 5.0999999046325683594 5.0999999046325683594 4.6999998092651367188 5.4000000953674316406 5.5 5.4000000953674316406 5.5 5.5999999046325683594 6.5999999046325683594 6 4.8000001907348632812 4 4.5999999046325683594 5.3000001907348632812 5.4000000953674316406 5.3000001907348632812 4.4000000953674316406 2.4000000953674316406 2.2999999523162841797 3.2999999523162841797 2.9000000953674316406 1.5 -2.2999999523162841797 -2.2999999523162841797 -2.2999999523162841797 -2.2999999523162841797 -2.2999999523162841797 -2.2999999523162841797 3.2999999523162841797 3.0999999046325683594 2.2999999523162841797 2.0999999046325683594 2 2 2 3 3.2999999523162841797 3.2000000476837158203 3.4000000953674316406 3.7000000476837158203 4.5 5.1999998092651367188 4.5999999046325683594 4.5999999046325683594 4.6999998092651367188 5.0999999046325683594 4.4000000953674316406 3.7000000476837158203 3.5 2.2999999523162841797 1.2999999523162841797 1.2000000476837158203 1.3999999761581420898 1.7999999523162841797 2.2999999523162841797 3.7000000476837158203 -2.2999999523162841797 -2.2999999523162841797 -2.2999999523162841797 -2.2999999523162841797 -2.2999999523162841797 -2.2999999523162841797 -2.2999999523162841797 -2.2999999523162841797 4.5 4.5 3.2999999523162841797 2.5 1.5 2.9000000953674316406 3 3 2.5999999046325683594 3.0999999046325683594 3.7000000476837158203 3.9000000953674316406 3.5999999046325683594 4.3000001907348632812 5.4000000953674316406 6.1999998092651367188 6.3000001907348632812 6.4000000953674316406 2.2999999523162841797 -2.2999999523162841797 -2.2999999523162841797 -2.2999999523162841797 -2.2999999523162841797 -2.2999999523162841797 
4.5999999046325683594 4.9000000953674316406 5.0999999046325683594 5.0999999046325683594 4.6999998092651367188 4.6999998092651367188 -2.2999999523162841797 -2.2999999523162841797 -2.2999999523162841797 -2.2999999523162841797 -2.2999999523162841797 -2.2999999523162841797 5.1999998092651367188 5.8000001907348632812 5.8000001907348632812 4 3.5 3.4000000953674316406 3.5999999046325683594 3.7999999523162841797 3.7999999523162841797 3.9000000953674316406 3.7999999523162841797 3.4000000953674316406 3.0999999046325683594 3 2.7999999523162841797 2.7999999523162841797 2.7999999523162841797 2.5999999046325683594 2.5999999046325683594 2.7999999523162841797 3 3.2999999523162841797 3.5 3.5 3.5 3.2000000476837158203 3.0999999046325683594 3.5999999046325683594 4 4.3000001907348632812 4.4000000953674316406 4.5 4.4000000953674316406 4 3.4000000953674316406 3.5999999046325683594 3.7999999523162841797 3.9000000953674316406 4.1999998092651367188 4.4000000953674316406 4.0999999046325683594 3.7000000476837158203 3.2999999523162841797 3.2000000476837158203 3 2.9000000953674316406 2.9000000953674316406 3 3.2000000476837158203 3.2000000476837158203 3.2000000476837158203 2.7000000476837158203 2.4000000953674316406 2.5999999046325683594 2.7999999523162841797 3 2.5 2.5999999046325683594 2.4000000953674316406 2.2999999523162841797 2.5 2.7999999523162841797 3.2000000476837158203 3.4000000953674316406 3.2000000476837158203 2.9000000953674316406 2.7000000476837158203 2.4000000953674316406 2.5 2.4000000953674316406 2.2999999523162841797 2.5 2.7999999523162841797 2.7000000476837158203 2.5999999046325683594 2.5 2.0999999046325683594 2.2999999523162841797 2.5999999046325683594 2.7999999523162841797 2.9000000953674316406 3 3 2.7999999523162841797 2.5 3 3.2000000476837158203 3.5 3.7000000476837158203 3 2.2999999523162841797 1.7000000476837158203 1.6000000238418579102 1.5 2 2.5 4 5.0999999046325683594 5.8000001907348632812 5.4000000953674316406 5.3000001907348632812 5.0999999046325683594 5.0999999046325683594 5.1999998092651367188 5.5999999046325683594 5.8000001907348632812 5.5 5.5999999046325683594 6.8000001907348632812 5.6999998092651367188 4.5999999046325683594 4 5 5.9000000953674316406 5.6999998092651367188 4.6999998092651367188 3.9000000953674316406 2.7999999523162841797 2.0999999046325683594 3.5 3.0999999046325683594 2.2000000476837158203 -2.2999999523162841797 -2.2999999523162841797 -2.2999999523162841797 -2.2999999523162841797 -2.2999999523162841797 -2.2999999523162841797 3.2999999523162841797 3 2.5 2 2 2 2 2.5 3 3.4000000953674316406 3.4000000953674316406 3.9000000953674316406 3.9000000953674316406 4.6999998092651367188 4.5999999046325683594 4.5999999046325683594 4.9000000953674316406 5.3000001907348632812 4.3000001907348632812 3.5 3.0999999046325683594 1.7999999523162841797 1.2999999523162841797 0.89999997615814208984 1 1.5 2 3.7000000476837158203 -2.2999999523162841797 -2.2999999523162841797 -2.2999999523162841797 -2.2999999523162841797 -2.2999999523162841797 -2.2999999523162841797 -2.2999999523162841797 -2.2999999523162841797 4.3000001907348632812 4.4000000953674316406 3.7000000476837158203 2.9000000953674316406 0.5 3.5999999046325683594 2.7000000476837158203 2.7000000476837158203 2.7999999523162841797 3.2000000476837158203 3.7000000476837158203 3.9000000953674316406 3.5 3.9000000953674316406 4.5999999046325683594 5.5999999046325683594 5.8000001907348632812 3.5 6.0999999046325683594 3.2999999523162841797 -2.2999999523162841797 -2.2999999523162841797 -2.2999999523162841797 -2.2999999523162841797 
4.1999998092651367188 4.3000001907348632812 4.3000001907348632812 3.4000000953674316406 3.5 3.5999999046325683594 -2.2999999523162841797 -2.2999999523162841797 -2.2999999523162841797 -2.2999999523162841797 -2.2999999523162841797 -2.2999999523162841797 2.9000000953674316406 3 6.0999999046325683594 4.5 3.5999999046325683594 3.5 3.7000000476837158203 3.7999999523162841797 3.5 3.5 3.7000000476837158203 3.4000000953674316406 3.2000000476837158203 2.9000000953674316406 2.5 2.2999999523162841797 2.5999999046325683594 2.7000000476837158203 2.7000000476837158203 2.5999999046325683594 2.7999999523162841797 3.4000000953674316406 3.4000000953674316406 3.4000000953674316406 3.4000000953674316406 3.0999999046325683594 3.2000000476837158203 3.7000000476837158203 3.7999999523162841797 3.9000000953674316406 4 4.1999998092651367188 3.5999999046325683594 3.5 3.7999999523162841797 4 3.9000000953674316406 3.9000000953674316406 4.0999999046325683594 4.1999998092651367188 4.3000001907348632812 3.9000000953674316406 3.5 3.0999999046325683594 3 2.9000000953674316406 3 3.0999999046325683594 3.2000000476837158203 3.2999999523162841797 3 2.5999999046325683594 2.5 2.5999999046325683594 2.7999999523162841797 2.9000000953674316406 2.7999999523162841797 2.5999999046325683594 2.4000000953674316406 2.4000000953674316406 2.5 2.7000000476837158203 3.0999999046325683594 3.2999999523162841797 3.0999999046325683594 2.9000000953674316406 2.5999999046325683594 2.4000000953674316406 2.2999999523162841797 2.7000000476837158203 2.5 2.7000000476837158203 2.7999999523162841797 2.7000000476837158203 2.5 2.0999999046325683594 2.0999999046325683594 2.0999999046325683594 2.5999999046325683594 2.5 2.5 2.7999999523162841797 2.9000000953674316406 2.2999999523162841797 2.4000000953674316406 2.9000000953674316406 2.9000000953674316406 3.2000000476837158203 3.4000000953674316406 3.4000000953674316406 2.4000000953674316406 2.0999999046325683594 2 1.8999999761581420898 2 3.0999999046325683594 4.4000000953674316406 5.0999999046325683594 5.5999999046325683594 5.0999999046325683594 5.3000001907348632812 5.1999998092651367188 5.4000000953674316406 5.5999999046325683594 5.9000000953674316406 5.8000001907348632812 5.5999999046325683594 5.1999998092651367188 5.5 5.6999998092651367188 4.5999999046325683594 3.5999999046325683594 5.3000001907348632812 6.3000001907348632812 5.6999998092651367188 3.7000000476837158203 2.5 2.5 2.0999999046325683594 3.4000000953674316406 3.0999999046325683594 -2.2999999523162841797 -2.2999999523162841797 -2.2999999523162841797 -2.2999999523162841797 -2.2999999523162841797 -2.2999999523162841797 -2.2999999523162841797 3.2000000476837158203 2.7999999523162841797 2.2999999523162841797 1.7999999523162841797 2.0999999046325683594 2.2000000476837158203 2 2.2999999523162841797 2.9000000953674316406 3.5 3.9000000953674316406 3.9000000953674316406 3.7999999523162841797 4.5999999046325683594 4.5999999046325683594 4.5999999046325683594 4.5999999046325683594 4.9000000953674316406 4.4000000953674316406 3.7999999523162841797 2.5999999046325683594 1.2000000476837158203 1.2000000476837158203 1.2999999523162841797 1.1000000238418579102 1.3999999761581420898 2 3.4000000953674316406 4.3000001907348632812 -2.2999999523162841797 -2.2999999523162841797 -2.2999999523162841797 -2.2999999523162841797 -2.2999999523162841797 -2.2999999523162841797 -2.2999999523162841797 3.7000000476837158203 4.5 4.5 4.4000000953674316406 2.0999999046325683594 3.2999999523162841797 2.5999999046325683594 2.4000000953674316406 2.7999999523162841797 3.2999999523162841797 3.7000000476837158203 3.9000000953674316406 3.4000000953674316406 3.7999999523162841797 4.5 4.8000001907348632812 5.1999998092651367188 8.1000003814697265625 6.1999998092651367188 5.3000001907348632812 3.2999999523162841797 -2.2999999523162841797 -2.2999999523162841797 -2.2999999523162841797 
3.9000000953674316406 4.0999999046325683594 4.1999998092651367188 3.7000000476837158203 3 3.5 -2.2999999523162841797 -2.2999999523162841797 -2.2999999523162841797 -2.2999999523162841797 -2.2999999523162841797 -2.2999999523162841797 5.5 5.6999998092651367188 5.3000001907348632812 2.9000000953674316406 3.9000000953674316406 3.9000000953674316406 3.9000000953674316406 3.9000000953674316406 3.7000000476837158203 3.2000000476837158203 3.2999999523162841797 3.2999999523162841797 3 2.7000000476837158203 2.4000000953674316406 2.2999999523162841797 2.7000000476837158203 2.7999999523162841797 2.9000000953674316406 2.9000000953674316406 2.5999999046325683594 3.5 3.2999999523162841797 3.2999999523162841797 3.2999999523162841797 3.0999999046325683594 3.2000000476837158203 3.5 3.4000000953674316406 3.5 3.5999999046325683594 3.7999999523162841797 3.7999999523162841797 3.7999999523162841797 3.9000000953674316406 3.9000000953674316406 3.7999999523162841797 3.7999999523162841797 3.9000000953674316406 4 4 3.9000000953674316406 3.5 2.7999999523162841797 2.5 2.7999999523162841797 2.7999999523162841797 3 3.2999999523162841797 3.0999999046325683594 2.7000000476837158203 2.5999999046325683594 2.5 2.5999999046325683594 2.7000000476837158203 2.9000000953674316406 3 2.5 2.5 2.4000000953674316406 2.5999999046325683594 2.5999999046325683594 2.7999999523162841797 2.9000000953674316406 3 2.7999999523162841797 2.5999999046325683594 2.2999999523162841797 2.5 2.7999999523162841797 2.7000000476837158203 2.7999999523162841797 2.7999999523162841797 2.5999999046325683594 2.4000000953674316406 2.2999999523162841797 2.5 2.2999999523162841797 2.4000000953674316406 2.2999999523162841797 2.0999999046325683594 2.5999999046325683594 2.5 2.5999999046325683594 2.5 2.7000000476837158203 2.7999999523162841797 2.9000000953674316406 3.0999999046325683594 2.7999999523162841797 2.2999999523162841797 2.2999999523162841797 2.2000000476837158203 2.0999999046325683594 2 2.4000000953674316406 3.0999999046325683594 4.5999999046325683594 5.1999998092651367188 4.9000000953674316406 5.0999999046325683594 5.5 5.8000001907348632812 5.9000000953674316406 5.9000000953674316406 5.9000000953674316406 5.8000001907348632812 5.5999999046325683594 5.5 5.5999999046325683594 5 3.5999999046325683594 5.3000001907348632812 6.3000001907348632812 6.1999998092651367188 4.9000000953674316406 3.0999999046325683594 2.4000000953674316406 2.2000000476837158203 2.5 3.7000000476837158203 -2.2999999523162841797 -2.2999999523162841797 -2.2999999523162841797 -2.2999999523162841797 -2.2999999523162841797 -2.2999999523162841797 -2.2999999523162841797 3.4000000953674316406 3.5 2.2999999523162841797 2 2.2000000476837158203 2.5 2.4000000953674316406 2.2999999523162841797 3 3.5 3.9000000953674316406 3.9000000953674316406 4.0999999046325683594 4.4000000953674316406 4.5999999046325683594 4.5999999046325683594 4.5999999046325683594 4.5999999046325683594 4.5 3.4000000953674316406 2.2000000476837158203 1.2999999523162841797 1.2999999523162841797 1.2000000476837158203 1.2000000476837158203 1.6000000238418579102 2.4000000953674316406 3.5 3.7000000476837158203 -2.2999999523162841797 -2.2999999523162841797 -2.2999999523162841797 -2.2999999523162841797 -2.2999999523162841797 -2.2999999523162841797 -2.2999999523162841797 -2.2999999523162841797 4.8000001907348632812 5.0999999046325683594 4.1999998092651367188 2.2999999523162841797 3.0999999046325683594 2.9000000953674316406 3.4000000953674316406 3.2999999523162841797 3.4000000953674316406 4.1999998092651367188 4.4000000953674316406 3.7999999523162841797 3.2000000476837158203 4.0999999046325683594 4.3000001907348632812 4.6999998092651367188 2.7999999523162841797 5.6999998092651367188 6 6.1999998092651367188 3 -2.2999999523162841797 -2.2999999523162841797 
3.7000000476837158203 4 4.1999998092651367188 4.5999999046325683594 4.1999998092651367188 4 -2.2999999523162841797 -2.2999999523162841797 -2.2999999523162841797 -2.2999999523162841797 -2.2999999523162841797 -2.2999999523162841797 5.1999998092651367188 5.3000001907348632812 5.3000001907348632812 2.5999999046325683594 4.5 4.0999999046325683594 4 4 4 3.7000000476837158203 3.2999999523162841797 3 3 2.7999999523162841797 2.5 2.4000000953674316406 2.7000000476837158203 2.7999999523162841797 2.9000000953674316406 2.5 2.2999999523162841797 3.7999999523162841797 3.5999999046325683594 3.2999999523162841797 3.2000000476837158203 3.2999999523162841797 3.4000000953674316406 3.5999999046325683594 3.7000000476837158203 3 3.0999999046325683594 3.0999999046325683594 3.4000000953674316406 3.7000000476837158203 3.7999999523162841797 3.7999999523162841797 3.7999999523162841797 3.7999999523162841797 3.7999999523162841797 3.7999999523162841797 3.7999999523162841797 3.2999999523162841797 3.5999999046325683594 3 2.9000000953674316406 2.7999999523162841797 2.5999999046325683594 3 3.2999999523162841797 3.0999999046325683594 2.9000000953674316406 2.7999999523162841797 2.7000000476837158203 2.9000000953674316406 3.2000000476837158203 3.2000000476837158203 3.2999999523162841797 3 2.9000000953674316406 3 2.9000000953674316406 2.7999999523162841797 3 3 3 2.9000000953674316406 2.5999999046325683594 2.4000000953674316406 2.9000000953674316406 2.7999999523162841797 2.7999999523162841797 2.7999999523162841797 2.7999999523162841797 2.5999999046325683594 2.5999999046325683594 2.9000000953674316406 2.5 2.2999999523162841797 2 1.7000000476837158203 2.2000000476837158203 2.7000000476837158203 2.5 2.9000000953674316406 2.7000000476837158203 2.5 2.5999999046325683594 2.5 2.5 2.5999999046325683594 2.5999999046325683594 2.4000000953674316406 2.2999999523162841797 2.0999999046325683594 2 2.2000000476837158203 2.5999999046325683594 4.3000001907348632812 4.9000000953674316406 4.8000001907348632812 5.0999999046325683594 5.4000000953674316406 5.9000000953674316406 5.9000000953674316406 5.9000000953674316406 5.9000000953674316406 5.8000001907348632812 5.6999998092651367188 5.6999998092651367188 5.6999998092651367188 5.3000001907348632812 3.7999999523162841797 5.1999998092651367188 6.0999999046325683594 6 5.6999998092651367188 4.3000001907348632812 2.7000000476837158203 2.5 2.2999999523162841797 4 -2.2999999523162841797 -2.2999999523162841797 -2.2999999523162841797 -2.2999999523162841797 -2.2999999523162841797 -2.2999999523162841797 -2.2999999523162841797 3.4000000953674316406 3.4000000953674316406 2.0999999046325683594 2 2.2000000476837158203 2.5 2.2000000476837158203 2.2999999523162841797 3.2000000476837158203 3.5999999046325683594 3.7000000476837158203 3.5 4.0999999046325683594 4.5999999046325683594 4.5 4.5999999046325683594 4.5999999046325683594 4.5999999046325683594 4.1999998092651367188 3 1.7999999523162841797 1.2000000476837158203 1.2000000476837158203 1.2000000476837158203 1.2999999523162841797 1.8999999761581420898 2.7999999523162841797 4.5999999046325683594 4.5 -2.2999999523162841797 -2.2999999523162841797 -2.2999999523162841797 -2.2999999523162841797 -2.2999999523162841797 -2.2999999523162841797 -2.2999999523162841797 -2.2999999523162841797 5.6999998092651367188 5.1999998092651367188 4.0999999046325683594 2.5999999046325683594 2.9000000953674316406 2.9000000953674316406 3.5999999046325683594 3.5999999046325683594 3.4000000953674316406 3.7999999523162841797 4.0999999046325683594 4.0999999046325683594 3.2999999523162841797 3.7999999523162841797 4.1999998092651367188 4.8000001907348632812 5.1999998092651367188 5.0999999046325683594 5.5999999046325683594 5.8000001907348632812 6.3000001907348632812 2.0999999046325683594 -2.2999999523162841797 
3.5999999046325683594 3.7999999523162841797 4 4.4000000953674316406 4.4000000953674316406 4.4000000953674316406 -2.2999999523162841797 -2.2999999523162841797 -2.2999999523162841797 -2.2999999523162841797 -2.2999999523162841797 -2.2999999523162841797 4.1999998092651367188 3.9000000953674316406 3.0999999046325683594 5.0999999046325683594 4.4000000953674316406 3.7999999523162841797 4 4 4 3.5 3.2000000476837158203 2.7999999523162841797 2.7000000476837158203 2.7000000476837158203 2.5 2.5 2.7000000476837158203 2.7999999523162841797 2.7999999523162841797 2.7999999523162841797 3.2999999523162841797 3.7999999523162841797 3.7999999523162841797 3.5999999046325683594 3.2000000476837158203 3.2000000476837158203 3.5999999046325683594 3.7000000476837158203 3.7999999523162841797 3.5999999046325683594 3 2.7999999523162841797 3.0999999046325683594 3.2999999523162841797 3.5 3.7000000476837158203 3.7000000476837158203 3.7000000476837158203 3.5999999046325683594 3.5999999046325683594 3.5999999046325683594 3.0999999046325683594 3.0999999046325683594 3.2999999523162841797 2.9000000953674316406 2.5 2.5 2.9000000953674316406 3.0999999046325683594 3.0999999046325683594 3 3 3.0999999046325683594 3.2999999523162841797 3.5999999046325683594 3.5999999046325683594 3.7000000476837158203 3.7000000476837158203 3.4000000953674316406 3 3 3 3.2000000476837158203 3.2999999523162841797 3.2000000476837158203 3 3.0999999046325683594 3.2000000476837158203 2.9000000953674316406 2.5999999046325683594 2.7999999523162841797 3 3.0999999046325683594 2.7999999523162841797 3.2999999523162841797 2.9000000953674316406 2.2999999523162841797 2.4000000953674316406 2.5 2.5999999046325683594 2.7000000476837158203 2.7000000476837158203 2.7000000476837158203 3.0999999046325683594 2.7000000476837158203 2.5 2.2999999523162841797 2.4000000953674316406 2.2000000476837158203 2.2000000476837158203 2.4000000953674316406 2.4000000953674316406 2.2999999523162841797 2.0999999046325683594 2 2.0999999046325683594 2.5999999046325683594 4.8000001907348632812 5.4000000953674316406 5.4000000953674316406 5.0999999046325683594 5.4000000953674316406 5.4000000953674316406 5.5 5.8000001907348632812 5.9000000953674316406 5.9000000953674316406 5.8000001907348632812 5.8000001907348632812 5.6999998092651367188 5.3000001907348632812 4.1999998092651367188 5.5 6.3000001907348632812 5.3000001907348632812 5.0999999046325683594 4.6999998092651367188 2.7999999523162841797 2.5999999046325683594 2.5 3.5999999046325683594 -2.2999999523162841797 -2.2999999523162841797 -2.2999999523162841797 -2.2999999523162841797 -2.2999999523162841797 -2.2999999523162841797 -2.2999999523162841797 3.4000000953674316406 3.4000000953674316406 1.8999999761581420898 1.7999999523162841797 2 2.2999999523162841797 2 2.2000000476837158203 3 3.4000000953674316406 3.5 3.4000000953674316406 3.5 4.0999999046325683594 4.5 4.5 4.6999998092651367188 4.4000000953674316406 3.5 2.4000000953674316406 1.2000000476837158203 0.89999997615814208984 1.1000000238418579102 1.1000000238418579102 1.7000000476837158203 2.2000000476837158203 3.2000000476837158203 4.0999999046325683594 4.0999999046325683594 4 -2.2999999523162841797 -2.2999999523162841797 -2.2999999523162841797 -2.2999999523162841797 -2.2999999523162841797 -2.2999999523162841797 -2.2999999523162841797 4.5 5.1999998092651367188 4.1999998092651367188 2.9000000953674316406 2.4000000953674316406 3.7000000476837158203 4.9000000953674316406 5.3000001907348632812 5.5999999046325683594 2.9000000953674316406 3.5 4.0999999046325683594 3.5 3.4000000953674316406 4.0999999046325683594 4 3.4000000953674316406 4.9000000953674316406 5.4000000953674316406 5.5 5.5999999046325683594 4.8000001907348632812 2.2999999523162841797 
3.7999999523162841797 3.5999999046325683594 3.7999999523162841797 4 4 4.1999998092651367188 -2.2999999523162841797 -2.2999999523162841797 -2.2999999523162841797 -2.2999999523162841797 -2.2999999523162841797 -2.2999999523162841797 4.5 3.9000000953674316406 3.9000000953674316406 5.0999999046325683594 4.1999998092651367188 3.7000000476837158203 3.7000000476837158203 4 3.7999999523162841797 3.0999999046325683594 2.5999999046325683594 2.9000000953674316406 2.7000000476837158203 2.5999999046325683594 2.7999999523162841797 3 3.0999999046325683594 3.2000000476837158203 3.2000000476837158203 3.5 0 4 3.5999999046325683594 3.7000000476837158203 3.2999999523162841797 3.2000000476837158203 3.2000000476837158203 3.4000000953674316406 3.5 3.2000000476837158203 3 2.7999999523162841797 3 3.0999999046325683594 3.2000000476837158203 3.4000000953674316406 3.5999999046325683594 3.5 3.5999999046325683594 3.7000000476837158203 3.7999999523162841797 3.2999999523162841797 2.7999999523162841797 3.2000000476837158203 2.9000000953674316406 2.7000000476837158203 2.7999999523162841797 2.7999999523162841797 2.9000000953674316406 2.9000000953674316406 2.9000000953674316406 3.0999999046325683594 3.4000000953674316406 3.5999999046325683594 3.7000000476837158203 3.5999999046325683594 3.7000000476837158203 3.7000000476837158203 3.5 3.0999999046325683594 2.7999999523162841797 2.9000000953674316406 3.5999999046325683594 3.4000000953674316406 3.2999999523162841797 3.0999999046325683594 3.0999999046325683594 3.2000000476837158203 3.2999999523162841797 3 2.7999999523162841797 2.7000000476837158203 2.5999999046325683594 2.9000000953674316406 2.7000000476837158203 2.4000000953674316406 2.7999999523162841797 2.7999999523162841797 2.7999999523162841797 2.7999999523162841797 2.7000000476837158203 2.5999999046325683594 2.7999999523162841797 3.2000000476837158203 3 2.9000000953674316406 2.0999999046325683594 2 2.4000000953674316406 2.2999999523162841797 2.2000000476837158203 2.4000000953674316406 2.2999999523162841797 2 1.8999999761581420898 2 3.7000000476837158203 5 5.4000000953674316406 5.4000000953674316406 5.4000000953674316406 5.1999998092651367188 5.1999998092651367188 5.1999998092651367188 5.4000000953674316406 6 5.6999998092651367188 5.5999999046325683594 5.5 5.3000001907348632812 5.8000001907348632812 4.8000001907348632812 6 5.1999998092651367188 1.6000000238418579102 5 5.3000001907348632812 3.2000000476837158203 2.7000000476837158203 2.4000000953674316406 3.9000000953674316406 -2.2999999523162841797 -2.2999999523162841797 -2.2999999523162841797 -2.2999999523162841797 -2.2999999523162841797 -2.2999999523162841797 -2.2999999523162841797 3.2000000476837158203 3.0999999046325683594 1.7999999523162841797 1.7000000476837158203 1.8999999761581420898 2.2000000476837158203 2 1.8999999761581420898 2.2999999523162841797 2.7999999523162841797 3.2999999523162841797 3.4000000953674316406 3.5999999046325683594 4 4.5999999046325683594 4.5999999046325683594 4.6999998092651367188 4.0999999046325683594 2.9000000953674316406 1.7999999523162841797 1.2999999523162841797 0.80000001192092895508 1 1.5 2 2.4000000953674316406 3.7000000476837158203 4.4000000953674316406 4.1999998092651367188 3.7000000476837158203 -2.2999999523162841797 -2.2999999523162841797 -2.2999999523162841797 -2.2999999523162841797 -2.2999999523162841797 -2.2999999523162841797 -2.2999999523162841797 -2.2999999523162841797 5.4000000953674316406 5.1999998092651367188 4 3.0999999046325683594 3.2999999523162841797 6 6 2.7999999523162841797 4.1999998092651367188 2.5999999046325683594 3.2999999523162841797 4 4.1999998092651367188 3.9000000953674316406 3.2999999523162841797 3.0999999046325683594 5 5.3000001907348632812 5.4000000953674316406 5.6999998092651367188 5.6999998092651367188 5 
3.9000000953674316406 3.7999999523162841797 3.5999999046325683594 3.9000000953674316406 4.4000000953674316406 4.1999998092651367188 -2.2999999523162841797 -2.2999999523162841797 -2.2999999523162841797 -2.2999999523162841797 -2.2999999523162841797 -2.2999999523162841797 4.6999998092651367188 4.8000001907348632812 3.7000000476837158203 3.2999999523162841797 3.5999999046325683594 3.7999999523162841797 3.9000000953674316406 3.9000000953674316406 3.5999999046325683594 3 2.9000000953674316406 2.5999999046325683594 2.7000000476837158203 2.7999999523162841797 3 3.0999999046325683594 3.2000000476837158203 3.2000000476837158203 3.2999999523162841797 0 0 3.2000000476837158203 3.5 3.9000000953674316406 3.2000000476837158203 2.5999999046325683594 2.5 2.5999999046325683594 2.7999999523162841797 2.9000000953674316406 3.0999999046325683594 2.7000000476837158203 2.7000000476837158203 2.7999999523162841797 2.9000000953674316406 3.0999999046325683594 3.4000000953674316406 3.4000000953674316406 3.5 3.5999999046325683594 3.7000000476837158203 3.2000000476837158203 2.9000000953674316406 2.9000000953674316406 2.9000000953674316406 3.2000000476837158203 3.2999999523162841797 3.0999999046325683594 2.7999999523162841797 2.9000000953674316406 3 3.2000000476837158203 3.5 3.9000000953674316406 3.7000000476837158203 3.5 3.7000000476837158203 3.7000000476837158203 3.5999999046325683594 3.2999999523162841797 2.9000000953674316406 3.2000000476837158203 3.5 3.0999999046325683594 3.0999999046325683594 3.0999999046325683594 3.2000000476837158203 3.2999999523162841797 3.4000000953674316406 3.2999999523162841797 3 2.7999999523162841797 2.7999999523162841797 2.7999999523162841797 2.2000000476837158203 2.2999999523162841797 2.4000000953674316406 2.2999999523162841797 2.5 2.7000000476837158203 2.5999999046325683594 2.5999999046325683594 2.9000000953674316406 3.4000000953674316406 3.2999999523162841797 3.0999999046325683594 2.7999999523162841797 2.5 2.2999999523162841797 2.5 2.7000000476837158203 2.4000000953674316406 2.2000000476837158203 2 1.8999999761581420898 1.8999999761581420898 3.7000000476837158203 5.1999998092651367188 5.4000000953674316406 5.4000000953674316406 5.4000000953674316406 5.4000000953674316406 5.3000001907348632812 5.3000001907348632812 5.4000000953674316406 5.9000000953674316406 5.6999998092651367188 5.9000000953674316406 6.0999999046325683594 5.9000000953674316406 5.9000000953674316406 6 5 1.6000000238418579102 1.6000000238418579102 4.6999998092651367188 5.1999998092651367188 4.4000000953674316406 4.3000001907348632812 4.1999998092651367188 4.0999999046325683594 -2.2999999523162841797 -2.2999999523162841797 -2.2999999523162841797 -2.2999999523162841797 -2.2999999523162841797 -2.2999999523162841797 -2.2999999523162841797 3.4000000953674316406 3 3.2999999523162841797 1.3999999761581420898 2.2000000476837158203 2.5 2.2000000476837158203 2.2000000476837158203 2.2999999523162841797 2.7999999523162841797 3.4000000953674316406 3.7000000476837158203 4 4.8000001907348632812 3.5999999046325683594 3.5999999046325683594 4.8000001907348632812 6.4000000953674316406 3.4000000953674316406 1.6000000238418579102 1.2999999523162841797 1.2999999523162841797 1.7000000476837158203 1.8999999761581420898 2.2000000476837158203 2.4000000953674316406 3.4000000953674316406 4.4000000953674316406 4.1999998092651367188 4.0999999046325683594 -2.2999999523162841797 -2.2999999523162841797 -2.2999999523162841797 -2.2999999523162841797 -2.2999999523162841797 -2.2999999523162841797 -2.2999999523162841797 -2.2999999523162841797 5.4000000953674316406 5.4000000953674316406 5.1999998092651367188 4.8000001907348632812 3.2000000476837158203 3.2000000476837158203 3.4000000953674316406 5.9000000953674316406 3.7000000476837158203 3 2.5999999046325683594 3.7999999523162841797 4.0999999046325683594 4.4000000953674316406 4.5999999046325683594 4.5 4.6999998092651367188 5.3000001907348632812 5.5999999046325683594 5.8000001907348632812 5.8000001907348632812 6.9000000953674316406 
4 4.1999998092651367188 3.9000000953674316406 4.0999999046325683594 4.4000000953674316406 4.0999999046325683594 -2.2999999523162841797 -2.2999999523162841797 -2.2999999523162841797 -2.2999999523162841797 -2.2999999523162841797 4.5 4.8000001907348632812 3.9000000953674316406 3.5 3.5 3.5999999046325683594 3.7999999523162841797 3.9000000953674316406 3.5999999046325683594 3.2999999523162841797 3.2000000476837158203 3 2.7999999523162841797 2.7999999523162841797 3 3.0999999046325683594 3.2000000476837158203 3.2000000476837158203 3.2000000476837158203 3.2000000476837158203 3.0999999046325683594 3 3 3.2999999523162841797 3.5 3.2000000476837158203 3 2.7000000476837158203 2.7999999523162841797 2.5999999046325683594 2.5999999046325683594 2.9000000953674316406 2.5999999046325683594 2.2999999523162841797 2.2000000476837158203 2.4000000953674316406 2.5999999046325683594 2.9000000953674316406 3.2000000476837158203 3.5 3.4000000953674316406 3.2999999523162841797 3 3 3 3.2999999523162841797 3.5999999046325683594 3.5 2.9000000953674316406 2.4000000953674316406 2.5 2.5999999046325683594 2.7999999523162841797 3.0999999046325683594 3.2000000476837158203 3.2999999523162841797 3.5 3.5999999046325683594 3.7000000476837158203 3.7000000476837158203 3.5 3.2999999523162841797 3.2000000476837158203 3.2000000476837158203 2.9000000953674316406 2.7999999523162841797 2.9000000953674316406 2.9000000953674316406 3 3.2000000476837158203 3.2999999523162841797 3 2.9000000953674316406 2.9000000953674316406 2.7000000476837158203 2.2000000476837158203 1.7999999523162841797 2.2000000476837158203 2.5 2.5999999046325683594 2.5999999046325683594 2.5999999046325683594 2.5999999046325683594 3 3.2999999523162841797 3.2999999523162841797 3.2999999523162841797 2.9000000953674316406 2.7000000476837158203 2.7999999523162841797 2.5 2.5 2.4000000953674316406 2.0999999046325683594 1.8999999761581420898 1.8999999761581420898 1.8999999761581420898 5.5 5.4000000953674316406 5.1999998092651367188 5.5 5.5999999046325683594 5.8000001907348632812 5.1999998092651367188 5.5 5.6999998092651367188 5.8000001907348632812 5.5999999046325683594 5.8000001907348632812 5.6999998092651367188 4.6999998092651367188 4.8000001907348632812 4.5 5.6999998092651367188 4.6999998092651367188 4.5999999046325683594 4.6999998092651367188 4.8000001907348632812 4.8000001907348632812 4.8000001907348632812 -2.2999999523162841797 -2.2999999523162841797 -2.2999999523162841797 -2.2999999523162841797 -2.2999999523162841797 -2.2999999523162841797 -2.2999999523162841797 -2.2999999523162841797 -2.2999999523162841797 3.2000000476837158203 2.2999999523162841797 1.5 1.8999999761581420898 3 3.5999999046325683594 3.5999999046325683594 3.5 3.2000000476837158203 3.5999999046325683594 3.9000000953674316406 4.0999999046325683594 4.5 4.8000001907348632812 3.5999999046325683594 3.5 4.9000000953674316406 6.8000001907348632812 8.6999998092651367188 1.7000000476837158203 1.3999999761581420898 1.7999999523162841797 2.2999999523162841797 2 2 2 2.7999999523162841797 3.7999999523162841797 4.3000001907348632812 4.5999999046325683594 2.5 -2.2999999523162841797 -2.2999999523162841797 -2.2999999523162841797 -2.2999999523162841797 -2.2999999523162841797 -2.2999999523162841797 -2.2999999523162841797 -2.2999999523162841797 2.5 5.1999998092651367188 5 3.0999999046325683594 2.7000000476837158203 2.5999999046325683594 3 2.9000000953674316406 2.5 2.0999999046325683594 3 3.9000000953674316406 4.1999998092651367188 4.4000000953674316406 4.4000000953674316406 4.5999999046325683594 4.9000000953674316406 5.4000000953674316406 5.8000001907348632812 6.5999999046325683594 7.3000001907348632812 
4 4.1999998092651367188 4.3000001907348632812 4.1999998092651367188 4.3000001907348632812 4.4000000953674316406 -2.2999999523162841797 -2.2999999523162841797 -2.2999999523162841797 -2.2999999523162841797 -2.2999999523162841797 4 4.4000000953674316406 3.5 3.5999999046325683594 3.7999999523162841797 3.7000000476837158203 3.7000000476837158203 3.5 3 3 3.2999999523162841797 3 2.7999999523162841797 2.9000000953674316406 3.4000000953674316406 3.7000000476837158203 3.9000000953674316406 3.7000000476837158203 3.5 3.2000000476837158203 2.7999999523162841797 2.7999999523162841797 2.9000000953674316406 3 3.2999999523162841797 3.4000000953674316406 3.4000000953674316406 3.2999999523162841797 3.0999999046325683594 2.5999999046325683594 2.4000000953674316406 2.2000000476837158203 1.7999999523162841797 1.5 1.5 1.7000000476837158203 2.2000000476837158203 2.5 2.7999999523162841797 3.2000000476837158203 3.2000000476837158203 3.0999999046325683594 3 3 3.2000000476837158203 3.2999999523162841797 3.0999999046325683594 2.9000000953674316406 2.5 2.4000000953674316406 2.2999999523162841797 2.4000000953674316406 2.5999999046325683594 2.7999999523162841797 2.9000000953674316406 3.0999999046325683594 3.2000000476837158203 3.2999999523162841797 3.5 3.7000000476837158203 3.5999999046325683594 3.5 3.2999999523162841797 3.0999999046325683594 2.9000000953674316406 2.7999999523162841797 2.7000000476837158203 2.5999999046325683594 2.9000000953674316406 3.0999999046325683594 3 2.9000000953674316406 2.7999999523162841797 2.7999999523162841797 2.7999999523162841797 2.4000000953674316406 2.4000000953674316406 2.4000000953674316406 2.9000000953674316406 2.7999999523162841797 2.5 2.5999999046325683594 2.7000000476837158203 2.9000000953674316406 3 3.0999999046325683594 3.2000000476837158203 2.9000000953674316406 2.5999999046325683594 2.5999999046325683594 2.2000000476837158203 2 2.2999999523162841797 2.0999999046325683594 1.8999999761581420898 1.8999999761581420898 2.2000000476837158203 4.9000000953674316406 5.5 5.8000001907348632812 5.9000000953674316406 5.9000000953674316406 5.9000000953674316406 5.5999999046325683594 5.3000001907348632812 5.8000001907348632812 5.8000001907348632812 5.5 5.3000001907348632812 5 5.0999999046325683594 4.8000001907348632812 4.9000000953674316406 4.6999998092651367188 4.8000001907348632812 4.8000001907348632812 4.8000001907348632812 4.8000001907348632812 4.8000001907348632812 1.6000000238418579102 -2.2999999523162841797 -2.2999999523162841797 -2.2999999523162841797 -2.2999999523162841797 -2.2999999523162841797 -2.2999999523162841797 -2.2999999523162841797 -2.2999999523162841797 -2.2999999523162841797 3.5999999046325683594 2.2999999523162841797 2.0999999046325683594 1.7999999523162841797 4.8000001907348632812 4.8000001907348632812 4.8000001907348632812 4.0999999046325683594 3.7000000476837158203 4.8000001907348632812 5 5.1999998092651367188 5 4.0999999046325683594 3.5999999046325683594 3.5 5.0999999046325683594 4.5999999046325683594 8.1999998092651367188 2.5999999046325683594 2.2999999523162841797 2.2000000476837158203 2.0999999046325683594 1.7999999523162841797 1.7000000476837158203 1.8999999761581420898 2.0999999046325683594 3 3.7000000476837158203 4.3000001907348632812 4.8000001907348632812 0.5 -2.2999999523162841797 -2.2999999523162841797 -2.2999999523162841797 -2.2999999523162841797 -2.2999999523162841797 -2.2999999523162841797 -2.2999999523162841797 -2.2999999523162841797 5.5 4.3000001907348632812 3.4000000953674316406 2.2000000476837158203 2.4000000953674316406 2.9000000953674316406 3 1.7000000476837158203 1.2999999523162841797 2.7000000476837158203 2.7000000476837158203 4 4 4.1999998092651367188 4.5999999046325683594 4.3000001907348632812 5.1999998092651367188 6.5 5.4000000953674316406 7.4000000953674316406 
3.5999999046325683594 4 4.0999999046325683594 4.3000001907348632812 4.5 4.5 -2.2999999523162841797 -2.2999999523162841797 -2.2999999523162841797 -2.2999999523162841797 -2.2999999523162841797 4 4 3.7000000476837158203 3.7000000476837158203 3.5999999046325683594 3.5999999046325683594 3.5 3.2000000476837158203 2.7000000476837158203 2.7999999523162841797 3.0999999046325683594 3.0999999046325683594 2.7999999523162841797 2.9000000953674316406 3.5 3.2999999523162841797 3.4000000953674316406 3.0999999046325683594 3.2999999523162841797 3.7000000476837158203 3.5 2.9000000953674316406 3 3 3.0999999046325683594 3.2000000476837158203 3.4000000953674316406 3.2999999523162841797 3.2000000476837158203 2.9000000953674316406 2.4000000953674316406 1.7000000476837158203 1.2000000476837158203 0.80000001192092895508 0.69999998807907104492 1.2000000476837158203 1.8999999761581420898 2.2000000476837158203 2.5999999046325683594 3 3 2.9000000953674316406 2.9000000953674316406 2.9000000953674316406 2.9000000953674316406 2.9000000953674316406 2.7999999523162841797 2.5999999046325683594 2.5 2.4000000953674316406 2.2999999523162841797 2.2999999523162841797 2.2999999523162841797 2.5 2.5999999046325683594 2.7999999523162841797 2.9000000953674316406 3 3 3.4000000953674316406 3.4000000953674316406 3.0999999046325683594 3.2000000476837158203 3.2000000476837158203 2.9000000953674316406 2.7999999523162841797 2.7999999523162841797 2.5999999046325683594 2.7000000476837158203 2.9000000953674316406 2.7999999523162841797 2.7000000476837158203 2.5999999046325683594 2.5 2.9000000953674316406 2.5999999046325683594 2.4000000953674316406 2.2999999523162841797 2.2000000476837158203 2.2999999523162841797 2.4000000953674316406 2.4000000953674316406 2.5 2.5999999046325683594 2.7000000476837158203 2.9000000953674316406 3 2.7000000476837158203 2.2000000476837158203 2.2999999523162841797 1.8999999761581420898 1.7000000476837158203 2.0999999046325683594 1.8999999761581420898 1.8999999761581420898 2.0999999046325683594 1.8999999761581420898 2 2.5 5.9000000953674316406 6 6 6 5.8000001907348632812 5.1999998092651367188 5 5.6999998092651367188 5.5999999046325683594 5.0999999046325683594 3.9000000953674316406 4.6999998092651367188 4.8000001907348632812 4.8000001907348632812 4.8000001907348632812 4.8000001907348632812 4.8000001907348632812 4.8000001907348632812 4.8000001907348632812 4.8000001907348632812 4.8000001907348632812 4.6999998092651367188 4 -2.2999999523162841797 -2.2999999523162841797 -2.2999999523162841797 -2.2999999523162841797 -2.2999999523162841797 -2.2999999523162841797 -2.2999999523162841797 3 2.5 1.7999999523162841797 1.8999999761581420898 4.3000001907348632812 5 1.7000000476837158203 1.7000000476837158203 1.7000000476837158203 1.7000000476837158203 5 5 4.9000000953674316406 4.0999999046325683594 3.5999999046325683594 3.5999999046325683594 6.6999998092651367188 5.5 7.6999998092651367188 4 3.5999999046325683594 3.4000000953674316406 3 2.5999999046325683594 2 2 2.0999999046325683594 2.5999999046325683594 3.2999999523162841797 4.1999998092651367188 4.8000001907348632812 4.9000000953674316406 -2.2999999523162841797 -2.2999999523162841797 -2.2999999523162841797 -2.2999999523162841797 -2.2999999523162841797 -2.2999999523162841797 -2.2999999523162841797 -2.2999999523162841797 5.5 4.5 3.7000000476837158203 2.7999999523162841797 2.2000000476837158203 2.5999999046325683594 3 1.8999999761581420898 1.3999999761581420898 3.9000000953674316406 3.5999999046325683594 3 4 3.7999999523162841797 3.2000000476837158203 4.1999998092651367188 5.1999998092651367188 5.9000000953674316406 7.4000000953674316406 6.6999998092651367188 
3.7999999523162841797 4.1999998092651367188 4.1999998092651367188 4.3000001907348632812 4.5 3.5 -2.2999999523162841797 -2.2999999523162841797 -2.2999999523162841797 -2.2999999523162841797 -2.2999999523162841797 4 3.7000000476837158203 3.5 3.5 3.7999999523162841797 3.5 3.4000000953674316406 3.0999999046325683594 3 3 3 3.2000000476837158203 2.9000000953674316406 2.5999999046325683594 2.7999999523162841797 2.5 2.5 2.7000000476837158203 3.5 3.2999999523162841797 3 2.9000000953674316406 3 3 3.0999999046325683594 2.9000000953674316406 3.2000000476837158203 3.4000000953674316406 3.2999999523162841797 2.9000000953674316406 2.2999999523162841797 1.8999999761581420898 1.2000000476837158203 0.5 0.60000002384185791016 1.2999999523162841797 1.8999999761581420898 2 2.2999999523162841797 2.5999999046325683594 2.5999999046325683594 2.7000000476837158203 2.7000000476837158203 2.7999999523162841797 2.7000000476837158203 2.7000000476837158203 2.7000000476837158203 2.5 2.5 2.4000000953674316406 2.2999999523162841797 2.2000000476837158203 2 1.7999999523162841797 2.2999999523162841797 2.5999999046325683594 2.7000000476837158203 2.7999999523162841797 2.7000000476837158203 2.7000000476837158203 2.9000000953674316406 2.7999999523162841797 3.0999999046325683594 3.4000000953674316406 3 2.9000000953674316406 2.7999999523162841797 2.5 2.4000000953674316406 2.5999999046325683594 2.5 2.4000000953674316406 2.4000000953674316406 2.2999999523162841797 2.4000000953674316406 2.5 2.2999999523162841797 2.2000000476837158203 2.0999999046325683594 2.7000000476837158203 2.0999999046325683594 2.0999999046325683594 2.0999999046325683594 2.2999999523162841797 2.2000000476837158203 2.0999999046325683594 2.5999999046325683594 2.5 2 1.7999999523162841797 1.2999999523162841797 1.6000000238418579102 1.8999999761581420898 1.6000000238418579102 1.7999999523162841797 1.8999999761581420898 1.6000000238418579102 1.7000000476837158203 2.0999999046325683594 2.0999999046325683594 6 6.0999999046325683594 6.0999999046325683594 5.6999998092651367188 5.4000000953674316406 5.1999998092651367188 4.6999998092651367188 4.4000000953674316406 4.8000001907348632812 4.8000001907348632812 4.8000001907348632812 4.8000001907348632812 4.8000001907348632812 4.8000001907348632812 4.8000001907348632812 4.8000001907348632812 4.8000001907348632812 4.4000000953674316406 4.5999999046325683594 4 4.3000001907348632812 4 -2.2999999523162841797 -2.2999999523162841797 -2.2999999523162841797 -2.2999999523162841797 -2.2999999523162841797 -2.2999999523162841797 -2.2999999523162841797 3.7000000476837158203 3.5 3 3.5999999046325683594 3.9000000953674316406 3.5999999046325683594 3.5999999046325683594 3.9000000953674316406 4.1999998092651367188 4.5 1.7000000476837158203 4.1999998092651367188 3.7999999523162841797 3.5999999046325683594 3.5999999046325683594 3.5999999046325683594 4.5 5.5 6.9000000953674316406 4.4000000953674316406 4.5999999046325683594 4.5 4.0999999046325683594 3.4000000953674316406 2.5999999046325683594 2.5 2.5 2.2000000476837158203 2.7999999523162841797 3.7999999523162841797 4.3000001907348632812 4.5 -2.2999999523162841797 -2.2999999523162841797 -2.2999999523162841797 -2.2999999523162841797 -2.2999999523162841797 -2.2999999523162841797 -2.2999999523162841797 -2.2999999523162841797 -2.2999999523162841797 5.0999999046325683594 4.4000000953674316406 3.5999999046325683594 2.7000000476837158203 2.5999999046325683594 2.7999999523162841797 2.7999999523162841797 2.5999999046325683594 4.3000001907348632812 4.6999998092651367188 1.6000000238418579102 2.7000000476837158203 2.9000000953674316406 4.0999999046325683594 4.5 5.1999998092651367188 5.3000001907348632812 6.4000000953674316406 7.4000000953674316406 
4 4.5 4.5999999046325683594 4.4000000953674316406 4.6999998092651367188 3.7999999523162841797 -2.2999999523162841797 -2.2999999523162841797 -2.2999999523162841797 -2.2999999523162841797 -2.2999999523162841797 3.9000000953674316406 3.5999999046325683594 3.2999999523162841797 4.0999999046325683594 4 3.7000000476837158203 3.4000000953674316406 3.2999999523162841797 3.2999999523162841797 3.2000000476837158203 3.2000000476837158203 3.2000000476837158203 3.2000000476837158203 2.7999999523162841797 2.5 2.5 2.5 2.5999999046325683594 3.2999999523162841797 3.0999999046325683594 2.7999999523162841797 2.9000000953674316406 3 3.0999999046325683594 3.0999999046325683594 2.7000000476837158203 3 3.5999999046325683594 3.2000000476837158203 2.4000000953674316406 2 1.8999999761581420898 1.7000000476837158203 1.6000000238418579102 1.7999999523162841797 1.6000000238418579102 2.2000000476837158203 2.2000000476837158203 2.0999999046325683594 2.2000000476837158203 2.2000000476837158203 2.2999999523162841797 2.5999999046325683594 2.5999999046325683594 2.5 2.4000000953674316406 2.5999999046325683594 2.5999999046325683594 2.5 2.5 2.5 2.2000000476837158203 1.8999999761581420898 1.6000000238418579102 1.8999999761581420898 2.4000000953674316406 2.2999999523162841797 3.0999999046325683594 2.9000000953674316406 2.7999999523162841797 2.5999999046325683594 2.7999999523162841797 3.0999999046325683594 3.2000000476837158203 3.2000000476837158203 2.9000000953674316406 2.7000000476837158203 2.5 2.2999999523162841797 2.2999999523162841797 2.2999999523162841797 2.2999999523162841797 2.2999999523162841797 2.2000000476837158203 2.0999999046325683594 2.2000000476837158203 2.2000000476837158203 2.0999999046325683594 2.0999999046325683594 2.7000000476837158203 1.8999999761581420898 1.7999999523162841797 1.7999999523162841797 2 1.8999999761581420898 1.7000000476837158203 1.6000000238418579102 1.7000000476837158203 1.7000000476837158203 1.1000000238418579102 0.89999997615814208984 1.3999999761581420898 1.7999999523162841797 1.5 1.3999999761581420898 1.1000000238418579102 0.60000002384185791016 1 1.1000000238418579102 1.5 -1.6000000238418579102 5.8000001907348632812 6 5.4000000953674316406 5.1999998092651367188 4.6999998092651367188 4.8000001907348632812 4.8000001907348632812 4.8000001907348632812 4.8000001907348632812 4.8000001907348632812 4.8000001907348632812 4.8000001907348632812 4.8000001907348632812 4.9000000953674316406 5 4.6999998092651367188 1.6000000238418579102 5.3000001907348632812 5.9000000953674316406 3.9000000953674316406 1.6000000238418579102 -2.2999999523162841797 -2.2999999523162841797 -2.2999999523162841797 -2.2999999523162841797 -2.2999999523162841797 -2.2999999523162841797 -2.2999999523162841797 -2.2999999523162841797 3.2999999523162841797 3.5 4.3000001907348632812 4.3000001907348632812 3.5999999046325683594 3.5999999046325683594 3.5999999046325683594 3.5 3.5 3.5999999046325683594 3.5 3.5999999046325683594 3.5999999046325683594 3.5999999046325683594 3.5999999046325683594 3.5999999046325683594 4.1999998092651367188 6.3000001907348632812 4.8000001907348632812 5.0999999046325683594 4.5999999046325683594 4.4000000953674316406 4.3000001907348632812 3.0999999046325683594 2.9000000953674316406 2.5999999046325683594 2.0999999046325683594 2.2999999523162841797 3.2999999523162841797 4.0999999046325683594 4.4000000953674316406 4.1999998092651367188 -2.2999999523162841797 -2.2999999523162841797 -2.2999999523162841797 -2.2999999523162841797 -2.2999999523162841797 -2.2999999523162841797 -2.2999999523162841797 -2.2999999523162841797 4.5 4.0999999046325683594 3.7000000476837158203 3.0999999046325683594 2.5999999046325683594 1.8999999761581420898 2.4000000953674316406 2.9000000953674316406 4.3000001907348632812 5 1.8999999761581420898 1.7999999523162841797 3.2000000476837158203 4.4000000953674316406 4.8000001907348632812 5.3000001907348632812 5.8000001907348632812 5.5999999046325683594 7 
4.1999998092651367188 4.5999999046325683594 4.9000000953674316406 6.0999999046325683594 6.5 3.9000000953674316406 -2.2999999523162841797 -2.2999999523162841797 -2.2999999523162841797 -2.2999999523162841797 -2.2999999523162841797 4.0999999046325683594 3.9000000953674316406 4.0999999046325683594 4.1999998092651367188 4.3000001907348632812 4 3.7000000476837158203 3.7000000476837158203 3.7999999523162841797 3.7999999523162841797 3.4000000953674316406 3.4000000953674316406 3.2000000476837158203 2.7999999523162841797 2.5 2.5 2.4000000953674316406 2.5 2.7999999523162841797 2.5999999046325683594 2.2999999523162841797 2.5 2.9000000953674316406 3.0999999046325683594 2.9000000953674316406 2.7999999523162841797 3.2000000476837158203 3.5 2.9000000953674316406 2.4000000953674316406 2.2999999523162841797 2.4000000953674316406 2.2000000476837158203 2.4000000953674316406 2.2000000476837158203 2 2.2999999523162841797 2.2999999523162841797 2.2000000476837158203 3.5999999046325683594 2.2000000476837158203 2.2000000476837158203 2.5 2.4000000953674316406 2.2999999523162841797 2.2999999523162841797 2.5 2.5 5.0999999046325683594 2.5999999046325683594 2.5 2.4000000953674316406 2.0999999046325683594 1.8999999761581420898 1.7000000476837158203 1.8999999761581420898 1.6000000238418579102 3 3.5999999046325683594 2.7000000476837158203 2.5999999046325683594 2.7999999523162841797 2.7999999523162841797 2.7000000476837158203 2.9000000953674316406 2.7999999523162841797 2.5 2.4000000953674316406 2.2999999523162841797 2.2000000476837158203 2.2000000476837158203 2.2000000476837158203 2.0999999046325683594 1.8999999761581420898 1.8999999761581420898 2 2.2000000476837158203 2.2000000476837158203 2.0999999046325683594 2.2000000476837158203 2 1.8999999761581420898 1.7999999523162841797 1.7000000476837158203 1.7999999523162841797 2 1.7999999523162841797 1.7000000476837158203 1.7000000476837158203 1.3999999761581420898 0.89999997615814208984 0.89999997615814208984 1 1.2000000476837158203 0.89999997615814208984 0.5 0.60000002384185791016 1.2000000476837158203 1.2999999523162841797 2.7999999523162841797 3.5999999046325683594 5.5999999046325683594 5.9000000953674316406 5.4000000953674316406 5.0999999046325683594 5 4.6999998092651367188 4.8000001907348632812 4.8000001907348632812 4.8000001907348632812 4.8000001907348632812 4.6999998092651367188 4.8000001907348632812 4.6999998092651367188 5.3000001907348632812 5.8000001907348632812 5.9000000953674316406 5.9000000953674316406 5.9000000953674316406 5.9000000953674316406 5.9000000953674316406 4.9000000953674316406 4.4000000953674316406 -2.2999999523162841797 -2.2999999523162841797 -2.2999999523162841797 -2.2999999523162841797 -2.2999999523162841797 -2.2999999523162841797 -2.2999999523162841797 4.9000000953674316406 4.8000001907348632812 3.5999999046325683594 3.5999999046325683594 3.5999999046325683594 3.5999999046325683594 3.5999999046325683594 3.5999999046325683594 3.5999999046325683594 3.5999999046325683594 3.5999999046325683594 3.5999999046325683594 3.5999999046325683594 3.5999999046325683594 3.5999999046325683594 3.5999999046325683594 5.0999999046325683594 6.0999999046325683594 7.1999998092651367188 8.1000003814697265625 6.9000000953674316406 6.9000000953674316406 7.8000001907348632812 7.1999998092651367188 2.7999999523162841797 2.7999999523162841797 2.7000000476837158203 2.5 2.7999999523162841797 3.4000000953674316406 4.4000000953674316406 4 -2.2999999523162841797 -2.2999999523162841797 -2.2999999523162841797 -2.2999999523162841797 -2.2999999523162841797 -2.2999999523162841797 -2.2999999523162841797 -2.2999999523162841797 3.5999999046325683594 4.5999999046325683594 4 3.4000000953674316406 2.7999999523162841797 2.5999999046325683594 3 3.7000000476837158203 4.8000001907348632812 2 1.1000000238418579102 2 2.7000000476837158203 4.4000000953674316406 4.5999999046325683594 5.3000001907348632812 5.4000000953674316406 5.5999999046325683594 6.1999998092651367188 
4 4.1999998092651367188 4.8000001907348632812 5.6999998092651367188 7.0999999046325683594 7.0999999046325683594 -2.2999999523162841797 -2.2999999523162841797 -2.2999999523162841797 -2.2999999523162841797 -2.2999999523162841797 6 4.9000000953674316406 4.3000001907348632812 4.4000000953674316406 4.4000000953674316406 4.3000001907348632812 4.0999999046325683594 4 4 3.9000000953674316406 3.7000000476837158203 3.5 3.2000000476837158203 2.9000000953674316406 2.7999999523162841797 2.7000000476837158203 2.5999999046325683594 2.4000000953674316406 2.5999999046325683594 2.4000000953674316406 2.5 2.5 2.7999999523162841797 3 3 2.7999999523162841797 3 3.2999999523162841797 3.0999999046325683594 2.5 2.7000000476837158203 2.9000000953674316406 2.7000000476837158203 2.7000000476837158203 2.5 2.2999999523162841797 2.2000000476837158203 2 2 2.0999999046325683594 2.0999999046325683594 2.2000000476837158203 2.4000000953674316406 2.2999999523162841797 2.2000000476837158203 2.2000000476837158203 2.4000000953674316406 2.5 2.5 2.5 2.5 2.4000000953674316406 2.4000000953674316406 2.0999999046325683594 2 1.7999999523162841797 1.7000000476837158203 1.7999999523162841797 2.5 2.5 2.5999999046325683594 2.5 2.4000000953674316406 2.5999999046325683594 2.7000000476837158203 2.5999999046325683594 2.5 2.4000000953674316406 2.2999999523162841797 2.2999999523162841797 2.2000000476837158203 2.0999999046325683594 2 1.8999999761581420898 1.8999999761581420898 2 2.2000000476837158203 2.2000000476837158203 2.0999999046325683594 2.0999999046325683594 2 2 1.8999999761581420898 1.7999999523162841797 2.4000000953674316406 2.2000000476837158203 2 1.7999999523162841797 1.7999999523162841797 1.7000000476837158203 1.1000000238418579102 0.89999997615814208984 0.80000001192092895508 0.60000002384185791016 0.5 0.30000001192092895508 0.80000001192092895508 1.2999999523162841797 1.8999999761581420898 4 2.7999999523162841797 -1.6000000238418579102 5.8000001907348632812 3.5999999046325683594 2.2000000476837158203 3.2000000476837158203 4.5999999046325683594 4.8000001907348632812 4.5999999046325683594 4.4000000953674316406 3.9000000953674316406 4.0999999046325683594 4.5999999046325683594 4.5999999046325683594 5.1999998092651367188 4.9000000953674316406 5.9000000953674316406 5.9000000953674316406 5.9000000953674316406 4.5999999046325683594 4.6999998092651367188 4.9000000953674316406 3.7999999523162841797 -2.2999999523162841797 -2.2999999523162841797 -2.2999999523162841797 -2.2999999523162841797 -2.2999999523162841797 -2.2999999523162841797 -2.2999999523162841797 4.8000001907348632812 4.3000001907348632812 2.7999999523162841797 2.7000000476837158203 4.0999999046325683594 4.4000000953674316406 4.5999999046325683594 4.5999999046325683594 4.4000000953674316406 4 4 3.5999999046325683594 3.5999999046325683594 3.5999999046325683594 3.5999999046325683594 3.5999999046325683594 3.9000000953674316406 4.8000001907348632812 10.399999618530273438 10.899999618530273438 10 10.699999809265136719 11.5 8.3999996185302734375 1.7000000476837158203 2.0999999046325683594 2.5 2.2000000476837158203 2.4000000953674316406 2.7999999523162841797 3.7999999523162841797 4.5999999046325683594 4.5999999046325683594 -2.2999999523162841797 -2.2999999523162841797 -2.2999999523162841797 -2.2999999523162841797 -2.2999999523162841797 -2.2999999523162841797 -2.2999999523162841797 2.2999999523162841797 5.1999998092651367188 4.5 3.9000000953674316406 3.9000000953674316406 4.8000001907348632812 5.0999999046325683594 3.2000000476837158203 5.1999998092651367188 1.6000000238418579102 1.5 2.5 2.5 3.5999999046325683594 3.9000000953674316406 4.8000001907348632812 5 5.4000000953674316406 6 
3.7999999523162841797 3.7999999523162841797 4.0999999046325683594 4.6999998092651367188 5.0999999046325683594 3 -2.2999999523162841797 -2.2999999523162841797 -2.2999999523162841797 -2.2999999523162841797 -2.2999999523162841797 7.1999998092651367188 5 4.6999998092651367188 4.5 4.5999999046325683594 4.5 4.3000001907348632812 4.1999998092651367188 4 3.7999999523162841797 3.7999999523162841797 3.5999999046325683594 3.4000000953674316406 3.2999999523162841797 3.2000000476837158203 3.0999999046325683594 2.7000000476837158203 2.4000000953674316406 2.2000000476837158203 2.2000000476837158203 2.4000000953674316406 2.5999999046325683594 2.7999999523162841797 2.9000000953674316406 2.9000000953674316406 2.7999999523162841797 2.9000000953674316406 3.2000000476837158203 3 2.7000000476837158203 3 3.2999999523162841797 3.0999999046325683594 2.9000000953674316406 2.7999999523162841797 2.7000000476837158203 2.5 2.2999999523162841797 2 2.2000000476837158203 2.4000000953674316406 2.4000000953674316406 2.4000000953674316406 2.2999999523162841797 2.2000000476837158203 2.0999999046325683594 2.4000000953674316406 2.5999999046325683594 2.5999999046325683594 2.5 2.5 2.2000000476837158203 2.2999999523162841797 2.5999999046325683594 2.5 2.2000000476837158203 1.8999999761581420898 1.7000000476837158203 1.7000000476837158203 2 2.5999999046325683594 2.7000000476837158203 2.7000000476837158203 2.9000000953674316406 2.7000000476837158203 2.4000000953674316406 2.5 2.5 2.4000000953674316406 2.5 2.2000000476837158203 1.8999999761581420898 2 2 2 1.7999999523162841797 2.0999999046325683594 2.2000000476837158203 2 1.8999999761581420898 1.8999999761581420898 2.0999999046325683594 2 2 2.5 2.2000000476837158203 2.0999999046325683594 1.8999999761581420898 1.8999999761581420898 1.7999999523162841797 1.7000000476837158203 1.7000000476837158203 1.1000000238418579102 0.5 0.5 0.40000000596046447754 1.3999999761581420898 1.6000000238418579102 1.6000000238418579102 2.4000000953674316406 2.5 2.9000000953674316406 3 2 1.7000000476837158203 1.7000000476837158203 2.5 3.5999999046325683594 3.5 3.0999999046325683594 2.5999999046325683594 2.7999999523162841797 3.7999999523162841797 4.5999999046325683594 5 5.5 4.8000001907348632812 4.6999998092651367188 4.5 3.7000000476837158203 3.7999999523162841797 3.9000000953674316406 3.5 -2.2999999523162841797 -2.2999999523162841797 -2.2999999523162841797 -2.2999999523162841797 -2.2999999523162841797 -2.2999999523162841797 -2.2999999523162841797 2.7000000476837158203 3.9000000953674316406 2.2999999523162841797 2 3.5 4.4000000953674316406 4.6999998092651367188 4.8000001907348632812 4.9000000953674316406 4.5999999046325683594 4.5999999046325683594 4.8000001907348632812 4 4.5 4.5999999046325683594 4.5 4.8000001907348632812 3.5 9.8999996185302734375 9.5 9.5 9.5 10.300000190734863281 8.1999998092651367188 1.7000000476837158203 1.8999999761581420898 2 2.0999999046325683594 2.0999999046325683594 2.9000000953674316406 3.7000000476837158203 5 5 -2.2999999523162841797 -2.2999999523162841797 -2.2999999523162841797 -2.2999999523162841797 -2.2999999523162841797 -2.2999999523162841797 -2.2999999523162841797 -2.2999999523162841797 5.1999998092651367188 5.0999999046325683594 4.6999998092651367188 4.4000000953674316406 4.9000000953674316406 5.1999998092651367188 3.9000000953674316406 2.0999999046325683594 1.2999999523162841797 0.69999998807907104492 2.7000000476837158203 2.7999999523162841797 2.7999999523162841797 3.2999999523162841797 4.0999999046325683594 4.5 5.0999999046325683594 5.3000001907348632812 
3.2999999523162841797 3.2999999523162841797 3.5999999046325683594 4 4.5 -2.2999999523162841797 -2.2999999523162841797 -2.2999999523162841797 -2.2999999523162841797 -2.2999999523162841797 -2.2999999523162841797 4.6999998092651367188 4.5999999046325683594 4.6999998092651367188 4.6999998092651367188 4.5999999046325683594 4.5 4.4000000953674316406 4.1999998092651367188 3.9000000953674316406 3.7999999523162841797 3.7999999523162841797 3.7000000476837158203 3.5 3.2999999523162841797 3.2999999523162841797 3.2999999523162841797 2.9000000953674316406 2.5 2.2000000476837158203 1.7999999523162841797 2 2.2999999523162841797 2.5999999046325683594 3.0999999046325683594 3.2000000476837158203 3.0999999046325683594 3.2000000476837158203 3.0999999046325683594 2.7999999523162841797 2.7000000476837158203 3.4000000953674316406 3.5999999046325683594 3.4000000953674316406 3.2000000476837158203 3 2.7999999523162841797 2.7000000476837158203 2.4000000953674316406 2.0999999046325683594 2.5 2.5 2.5 2.5 2.4000000953674316406 2.4000000953674316406 2.4000000953674316406 2.5999999046325683594 2.7000000476837158203 2.9000000953674316406 2.7999999523162841797 2.7999999523162841797 2.7000000476837158203 2.4000000953674316406 2.7999999523162841797 2.5999999046325683594 2.2000000476837158203 1.8999999761581420898 2 2 2.2000000476837158203 2.5999999046325683594 2.7000000476837158203 2.7000000476837158203 2.7000000476837158203 2.5 2.4000000953674316406 2.5 2.5 2.2999999523162841797 1.8999999761581420898 1.7999999523162841797 1.8999999761581420898 2 2 1.7999999523162841797 1.7000000476837158203 2.0999999046325683594 2 1.8999999761581420898 1.7999999523162841797 1.7999999523162841797 2.0999999046325683594 2.0999999046325683594 2.0999999046325683594 2.2000000476837158203 2.2999999523162841797 2.2000000476837158203 2.0999999046325683594 1.8999999761581420898 1.7000000476837158203 1.6000000238418579102 1.3999999761581420898 0.69999998807907104492 0.5 0.60000002384185791016 0.80000001192092895508 1.2000000476837158203 1.6000000238418579102 2 2 2.2999999523162841797 2.5999999046325683594 -1.6000000238418579102 2.2000000476837158203 1.7999999523162841797 1.7000000476837158203 1.8999999761581420898 2.2000000476837158203 2.7999999523162841797 2 1.8999999761581420898 2.0999999046325683594 3.2000000476837158203 4.1999998092651367188 4.4000000953674316406 5 4.9000000953674316406 5 4.3000001907348632812 3.5999999046325683594 3.5 4 4.3000001907348632812 -2.2999999523162841797 -2.2999999523162841797 -2.2999999523162841797 -2.2999999523162841797 -2.2999999523162841797 -2.2999999523162841797 -2.2999999523162841797 -2.2999999523162841797 3 2.2999999523162841797 1.2999999523162841797 2.7000000476837158203 4 4.5999999046325683594 4.6999998092651367188 4.5 4.9000000953674316406 5 4.9000000953674316406 4.5999999046325683594 4.5999999046325683594 4.5999999046325683594 4.5 4.9000000953674316406 3.4000000953674316406 9.3999996185302734375 8.8999996185302734375 8.3999996185302734375 7.9000000953674316406 7.6999998092651367188 6.1999998092651367188 6.1999998092651367188 4.3000001907348632812 2.2999999523162841797 2.0999999046325683594 2.0999999046325683594 2.2999999523162841797 3.5999999046325683594 4.6999998092651367188 4.6999998092651367188 -2.2999999523162841797 -2.2999999523162841797 -2.2999999523162841797 -2.2999999523162841797 -2.2999999523162841797 -2.2999999523162841797 -2.2999999523162841797 -2.2999999523162841797 3.4000000953674316406 5.5 5.1999998092651367188 4.9000000953674316406 5 5.3000001907348632812 4.1999998092651367188 2.9000000953674316406 2 1.2999999523162841797 1.8999999761581420898 1.8999999761581420898 1.8999999761581420898 2.7999999523162841797 3.5 3.7000000476837158203 4.0999999046325683594 4.5 
3 3.2000000476837158203 3.5999999046325683594 3.7000000476837158203 4.1999998092651367188 -2.2999999523162841797 -2.2999999523162841797 -2.2999999523162841797 -2.2999999523162841797 -2.2999999523162841797 4.5 4.5 4.9000000953674316406 5.0999999046325683594 4.8000001907348632812 4.5999999046325683594 4.5 4.3000001907348632812 4 3.7000000476837158203 3.7000000476837158203 3.7000000476837158203 3.7999999523162841797 3.5 3.2000000476837158203 3.2999999523162841797 3.2999999523162841797 3.0999999046325683594 2.7000000476837158203 2.5 2.4000000953674316406 2.4000000953674316406 2.5999999046325683594 2.9000000953674316406 3.2000000476837158203 3.4000000953674316406 3.5999999046325683594 3.7000000476837158203 3.2000000476837158203 2.7000000476837158203 2.5999999046325683594 3.2999999523162841797 3.7000000476837158203 3.4000000953674316406 3.2999999523162841797 3.2000000476837158203 2.9000000953674316406 2.7000000476837158203 2.7000000476837158203 2.5999999046325683594 2.5999999046325683594 2.5999999046325683594 2.5999999046325683594 2.5999999046325683594 2.5999999046325683594 2.5999999046325683594 2.5999999046325683594 2.7000000476837158203 2.7999999523162841797 2.7999999523162841797 2.7999999523162841797 2.7999999523162841797 2.7999999523162841797 2.7999999523162841797 2.2000000476837158203 2.2000000476837158203 2.2000000476837158203 2.2000000476837158203 2.2000000476837158203 2.2999999523162841797 2.2999999523162841797 2.5999999046325683594 2.4000000953674316406 2.4000000953674316406 2.4000000953674316406 2.2999999523162841797 2.2999999523162841797 2.5 2.5 2 2.2999999523162841797 2 2.2000000476837158203 2.2000000476837158203 2 1.5 1.6000000238418579102 1.8999999761581420898 1.8999999761581420898 1.6000000238418579102 1.7000000476837158203 1.5 1.8999999761581420898 2.2999999523162841797 2.2000000476837158203 2.2000000476837158203 2.2000000476837158203 2.2999999523162841797 2.0999999046325683594 1.8999999761581420898 1.7000000476837158203 1.5 1.2000000476837158203 0.69999998807907104492 0.69999998807907104492 0.89999997615814208984 1.1000000238418579102 1.6000000238418579102 1.7999999523162841797 1.7000000476837158203 1.7999999523162841797 2.0999999046325683594 2.4000000953674316406 2.5999999046325683594 1.8999999761581420898 1.8999999761581420898 2 2.0999999046325683594 2.0999999046325683594 1.8999999761581420898 1.7999999523162841797 1.7000000476837158203 1.6000000238418579102 1.8999999761581420898 2.7000000476837158203 3.7999999523162841797 5.1999998092651367188 5.1999998092651367188 5.1999998092651367188 5.3000001907348632812 4.6999998092651367188 3.7999999523162841797 4.0999999046325683594 3.7999999523162841797 3.5 -2.2999999523162841797 -2.2999999523162841797 -2.2999999523162841797 -2.2999999523162841797 -2.2999999523162841797 -2.2999999523162841797 -2.2999999523162841797 3.7000000476837158203 2.2000000476837158203 1.6000000238418579102 1.7000000476837158203 2.7999999523162841797 3.9000000953674316406 4.0999999046325683594 3.7000000476837158203 4.0999999046325683594 4.4000000953674316406 4.3000001907348632812 4.1999998092651367188 4.5 4 4.5999999046325683594 4.8000001907348632812 4.6999998092651367188 8.1000003814697265625 7.8000001907348632812 7.4000000953674316406 7 6.5999999046325683594 6.4000000953674316406 5.5 3 2.0999999046325683594 2 2 2 3 4.3000001907348632812 3.9000000953674316406 3.2999999523162841797 -2.2999999523162841797 -2.2999999523162841797 -2.2999999523162841797 -2.2999999523162841797 -2.2999999523162841797 -2.2999999523162841797 -2.2999999523162841797 5.5 5.5999999046325683594 2.2999999523162841797 2.2999999523162841797 4.5 4.1999998092651367188 3.5 2.9000000953674316406 2.2000000476837158203 1.5 4.1999998092651367188 2.2000000476837158203 1.8999999761581420898 2.7999999523162841797 3.2999999523162841797 3.2999999523162841797 3.2000000476837158203 3.4000000953674316406 
3.0999999046325683594 3.5 3.5999999046325683594 3.5999999046325683594 3.5 -2.2999999523162841797 -2.2999999523162841797 -2.2999999523162841797 -2.2999999523162841797 -2.2999999523162841797 4.5 4.1999998092651367188 4.0999999046325683594 4.4000000953674316406 4.8000001907348632812 4.6999998092651367188 4.5999999046325683594 4.1999998092651367188 3.9000000953674316406 3.7000000476837158203 3.5999999046325683594 3.5999999046325683594 3.7000000476837158203 3.2999999523162841797 3.0999999046325683594 3.2000000476837158203 3.4000000953674316406 3.2999999523162841797 3.2000000476837158203 3.0999999046325683594 2.9000000953674316406 2.9000000953674316406 3 3.2000000476837158203 3.4000000953674316406 3.5999999046325683594 3.5999999046325683594 3.5999999046325683594 3.5 3.0999999046325683594 2.7000000476837158203 2.9000000953674316406 3.0999999046325683594 3.2000000476837158203 3.0999999046325683594 3.2000000476837158203 3.0999999046325683594 2.5999999046325683594 2.5999999046325683594 2.5 2.5 2.5999999046325683594 2.7000000476837158203 2.7000000476837158203 2.5999999046325683594 2.5999999046325683594 2.7000000476837158203 2.5999999046325683594 2.7000000476837158203 2.7000000476837158203 2.7000000476837158203 2.7000000476837158203 2.5999999046325683594 2.7999999523162841797 2.7999999523162841797 2.7000000476837158203 2.4000000953674316406 2.4000000953674316406 2.4000000953674316406 2.2999999523162841797 2.2999999523162841797 2.5 2.0999999046325683594 2.0999999046325683594 2.0999999046325683594 2.2000000476837158203 2.2999999523162841797 2.5 2.4000000953674316406 2.4000000953674316406 2.4000000953674316406 2.4000000953674316406 2.7000000476837158203 2.5 2.2000000476837158203 2 2 2 1.8999999761581420898 1.6000000238418579102 2 1.7000000476837158203 1.8999999761581420898 2.2000000476837158203 2.0999999046325683594 2.0999999046325683594 2.0999999046325683594 2.2000000476837158203 2.0999999046325683594 1.7999999523162841797 1.6000000238418579102 1.5 1.2000000476837158203 1.1000000238418579102 0.89999997615814208984 1 1.3999999761581420898 2 1.6000000238418579102 1.6000000238418579102 1.6000000238418579102 1.8999999761581420898 2.0999999046325683594 2.5999999046325683594 3 2.0999999046325683594 1.8999999761581420898 2 1.7999999523162841797 1.6000000238418579102 1.3999999761581420898 1.2999999523162841797 1.2999999523162841797 1.7000000476837158203 2.5 4 5.1999998092651367188 5.5 5.5999999046325683594 5.6999998092651367188 5.0999999046325683594 4.5 4.5999999046325683594 4.5 4.1999998092651367188 -2.2999999523162841797 -2.2999999523162841797 -2.2999999523162841797 -2.2999999523162841797 -2.2999999523162841797 -2.2999999523162841797 -2.2999999523162841797 -2.2999999523162841797 3.0999999046325683594 2 1.8999999761581420898 2 2.7999999523162841797 2.7999999523162841797 2.9000000953674316406 3.0999999046325683594 3.4000000953674316406 3.5999999046325683594 3.9000000953674316406 4.3000001907348632812 4.4000000953674316406 3.7000000476837158203 4.8000001907348632812 4.9000000953674316406 7.8000001907348632812 7.3000001907348632812 7 6.5999999046325683594 6.5 6.6999998092651367188 4.5 1.8999999761581420898 2 2.0999999046325683594 2.0999999046325683594 2.0999999046325683594 2.9000000953674316406 3.9000000953674316406 3.7999999523162841797 3.5 -2.2999999523162841797 -2.2999999523162841797 -2.2999999523162841797 -2.2999999523162841797 -2.2999999523162841797 -2.2999999523162841797 -2.2999999523162841797 5.5 2.9000000953674316406 2.5 2.5999999046325683594 2.4000000953674316406 1.8999999761581420898 2.2000000476837158203 2.2000000476837158203 2.2999999523162841797 2.5 2.9000000953674316406 3.2000000476837158203 2.9000000953674316406 3 3.2999999523162841797 3.2999999523162841797 3.4000000953674316406 3.2999999523162841797 
3.5 3.4000000953674316406 3.2999999523162841797 3.4000000953674316406 3.5999999046325683594 -2.2999999523162841797 -2.2999999523162841797 -2.2999999523162841797 -2.2999999523162841797 3 4.3000001907348632812 4.4000000953674316406 4.3000001907348632812 4.5 4.9000000953674316406 4.6999998092651367188 4.5 4.1999998092651367188 3.9000000953674316406 3.7000000476837158203 3.5 3.4000000953674316406 3.4000000953674316406 3.2000000476837158203 3 3 3.2000000476837158203 3.5999999046325683594 3.7000000476837158203 3.5999999046325683594 3.7000000476837158203 3.5 3.4000000953674316406 3.4000000953674316406 3.5 3.5 3.4000000953674316406 3.4000000953674316406 3.2999999523162841797 3.4000000953674316406 3.2999999523162841797 3.0999999046325683594 3 3 3.0999999046325683594 3.2999999523162841797 3.4000000953674316406 3 2.5999999046325683594 2.4000000953674316406 2.4000000953674316406 2.7000000476837158203 3 2.9000000953674316406 2.5999999046325683594 2.5 2.5 2.7000000476837158203 2.5999999046325683594 2.5999999046325683594 2.5999999046325683594 2.7000000476837158203 2.7999999523162841797 2.7000000476837158203 2.7999999523162841797 2.7999999523162841797 2.4000000953674316406 2.5 2.5999999046325683594 2.5 2.4000000953674316406 2.2000000476837158203 1.8999999761581420898 1.8999999761581420898 1.8999999761581420898 2.5 2.7000000476837158203 2.5999999046325683594 2.4000000953674316406 2.9000000953674316406 2.5 2.2000000476837158203 2.2999999523162841797 2.7000000476837158203 2.4000000953674316406 2.2999999523162841797 2.2999999523162841797 2.2999999523162841797 2.0999999046325683594 1.8999999761581420898 2.0999999046325683594 2 1.8999999761581420898 2.0999999046325683594 2 2 2 2.2000000476837158203 2 1.7000000476837158203 1.5 1.3999999761581420898 1.6000000238418579102 1.5 1.3999999761581420898 1.2000000476837158203 1.3999999761581420898 1.5 1.3999999761581420898 1.3999999761581420898 1.5 1.3999999761581420898 1.7999999523162841797 2.0999999046325683594 -0.10000000149011611938 1.6000000238418579102 1.6000000238418579102 1.7999999523162841797 1.7000000476837158203 1.5 1.2999999523162841797 1.2999999523162841797 1.2999999523162841797 2.0999999046325683594 2.7999999523162841797 3.5 4.8000001907348632812 5.3000001907348632812 5.3000001907348632812 5 4.5999999046325683594 4.4000000953674316406 4.5 4.5999999046325683594 4.5 -2.2999999523162841797 -2.2999999523162841797 -2.2999999523162841797 -2.2999999523162841797 -2.2999999523162841797 -2.2999999523162841797 -2.2999999523162841797 -2.2999999523162841797 3 2.4000000953674316406 1.8999999761581420898 1.6000000238418579102 1.7999999523162841797 2 2.2000000476837158203 2.4000000953674316406 2.5 2.5 2.9000000953674316406 3.2999999523162841797 3.2999999523162841797 2.7999999523162841797 2.7999999523162841797 1.7000000476837158203 4.9000000953674316406 5 4.8000001907348632812 4.8000001907348632812 4.6999998092651367188 4.5 3.9000000953674316406 1.8999999761581420898 2 2.2000000476837158203 2.2000000476837158203 2.2000000476837158203 3 3.9000000953674316406 5.0999999046325683594 3.5 -2.2999999523162841797 -2.2999999523162841797 -2.2999999523162841797 -2.2999999523162841797 -2.2999999523162841797 -2.2999999523162841797 -2.2999999523162841797 5.4000000953674316406 6.1999998092651367188 6 2.9000000953674316406 2.2000000476837158203 1.7999999523162841797 1.7000000476837158203 1.8999999761581420898 2.0999999046325683594 2 2.4000000953674316406 3.2999999523162841797 3.2999999523162841797 3.2000000476837158203 3.2000000476837158203 3.5 3.7000000476837158203 3.5999999046325683594 
3.5999999046325683594 3.4000000953674316406 3.0999999046325683594 3.5 4 -2.2999999523162841797 -2.2999999523162841797 -2.2999999523162841797 -2.2999999523162841797 3.5999999046325683594 4.3000001907348632812 4.5 4.5999999046325683594 4.5999999046325683594 4.5999999046325683594 4.5 4.0999999046325683594 3.9000000953674316406 3.7999999523162841797 3.5999999046325683594 3.2999999523162841797 3.2999999523162841797 3.2000000476837158203 3.2999999523162841797 2.9000000953674316406 2.7999999523162841797 3.2000000476837158203 3.5999999046325683594 3.7999999523162841797 3.4000000953674316406 3.5999999046325683594 3.7000000476837158203 3.5999999046325683594 3.7000000476837158203 3.7999999523162841797 3.5999999046325683594 3.4000000953674316406 3.4000000953674316406 3.2000000476837158203 2.9000000953674316406 2.9000000953674316406 2.9000000953674316406 3 3.2000000476837158203 3.2000000476837158203 3.2999999523162841797 3.2000000476837158203 2.7000000476837158203 2.2999999523162841797 2.2999999523162841797 2.2999999523162841797 3 3.4000000953674316406 3.2999999523162841797 2.7000000476837158203 2.7000000476837158203 2.5999999046325683594 2.7000000476837158203 2.7000000476837158203 2.5999999046325683594 2.5 2.5999999046325683594 2.5999999046325683594 2.5 2.7000000476837158203 2.7999999523162841797 2.4000000953674316406 2.4000000953674316406 2.5999999046325683594 2.4000000953674316406 2 1.7999999523162841797 2 2.0999999046325683594 2.2999999523162841797 2.5 2.5 2.5999999046325683594 2.7000000476837158203 2.5999999046325683594 2.7999999523162841797 2.2000000476837158203 2.2000000476837158203 2.5 2.4000000953674316406 2.0999999046325683594 2.2000000476837158203 2.2000000476837158203 2.0999999046325683594 1.8999999761581420898 2 2 2 2 2 1.8999999761581420898 1.7000000476837158203 1.7999999523162841797 1.5 1.2999999523162841797 1.3999999761581420898 1.7999999523162841797 1.7000000476837158203 1.5 1.3999999761581420898 1.2000000476837158203 1.2000000476837158203 1.3999999761581420898 1.5 1.2000000476837158203 1.2999999523162841797 1.2000000476837158203 1.2999999523162841797 1.5 1.2000000476837158203 1.3999999761581420898 2 2.0999999046325683594 2 1.7000000476837158203 1.6000000238418579102 1.5 1.6000000238418579102 2.2000000476837158203 2.7000000476837158203 3.0999999046325683594 4 4.5999999046325683594 4.3000001907348632812 4.0999999046325683594 3.7000000476837158203 3.7000000476837158203 3.7000000476837158203 3.7000000476837158203 3.5999999046325683594 4.5999999046325683594 -2.2999999523162841797 -2.2999999523162841797 -2.2999999523162841797 -2.2999999523162841797 -2.2999999523162841797 -2.2999999523162841797 -2.2999999523162841797 -2.2999999523162841797 3 3 2.2000000476837158203 1.7000000476837158203 1.8999999761581420898 1.8999999761581420898 2 2.0999999046325683594 2.2999999523162841797 2.4000000953674316406 3.0999999046325683594 3.4000000953674316406 2.5 2.2000000476837158203 2.9000000953674316406 3.9000000953674316406 2.2000000476837158203 1.2999999523162841797 1.2000000476837158203 1.3999999761581420898 1.3999999761581420898 1.3999999761581420898 1.7000000476837158203 2.2999999523162841797 2.4000000953674316406 2.2999999523162841797 2.2999999523162841797 3 4.5 4.5999999046325683594 3.2999999523162841797 -2.2999999523162841797 -2.2999999523162841797 -2.2999999523162841797 -2.2999999523162841797 -2.2999999523162841797 -2.2999999523162841797 -2.2999999523162841797 5 6.0999999046325683594 4.0999999046325683594 2.5999999046325683594 1.7999999523162841797 1.7000000476837158203 1.7000000476837158203 2 1.8999999761581420898 1.7999999523162841797 2.2000000476837158203 2.4000000953674316406 3 3.2999999523162841797 3.2999999523162841797 3.4000000953674316406 3.5 3.7000000476837158203 
4 3.7000000476837158203 3.5 3.2000000476837158203 -2.2999999523162841797 -2.2999999523162841797 -2.2999999523162841797 -2.2999999523162841797 -2.2999999523162841797 3.5999999046325683594 4.3000001907348632812 4.6999998092651367188 4.4000000953674316406 4.0999999046325683594 4.0999999046325683594 4.1999998092651367188 3.7000000476837158203 3.5 3.5 3.4000000953674316406 3.0999999046325683594 2.7999999523162841797 2.7000000476837158203 2.7000000476837158203 2.4000000953674316406 2.2999999523162841797 2.2999999523162841797 2.7999999523162841797 3.4000000953674316406 3.2000000476837158203 3.5 3.7000000476837158203 3.7000000476837158203 3.7999999523162841797 3.7999999523162841797 3.7999999523162841797 3.7999999523162841797 3.7999999523162841797 3.2999999523162841797 2.9000000953674316406 3.0999999046325683594 3.0999999046325683594 3.2000000476837158203 3.4000000953674316406 3.4000000953674316406 3.2000000476837158203 2.7000000476837158203 2.4000000953674316406 2.2999999523162841797 2.4000000953674316406 2.2000000476837158203 3 3.7000000476837158203 3.5 2.7999999523162841797 2.7000000476837158203 2.5999999046325683594 2.7999999523162841797 2.7999999523162841797 2.7000000476837158203 2.5 2.5999999046325683594 2.5999999046325683594 2.5 2.5999999046325683594 2.7999999523162841797 2.7000000476837158203 2.5 2.9000000953674316406 2.5 2.0999999046325683594 1.6000000238418579102 1.6000000238418579102 1.6000000238418579102 2.0999999046325683594 2.0999999046325683594 2.2000000476837158203 2.2999999523162841797 2.4000000953674316406 2.4000000953674316406 2.5999999046325683594 2.2999999523162841797 2.0999999046325683594 2.0999999046325683594 2.0999999046325683594 2.0999999046325683594 2.0999999046325683594 2.0999999046325683594 2.0999999046325683594 2 2 1.7999999523162841797 1.6000000238418579102 1.6000000238418579102 1.6000000238418579102 1.3999999761581420898 1.2000000476837158203 1.2000000476837158203 1.2000000476837158203 1.5 1.7999999523162841797 2 1.6000000238418579102 1.6000000238418579102 1.6000000238418579102 1.2999999523162841797 1.2000000476837158203 1.5 1.7000000476837158203 1.2999999523162841797 1.2000000476837158203 1.1000000238418579102 1.2000000476837158203 1.2000000476837158203 1.2999999523162841797 0.89999997615814208984 1.6000000238418579102 2.0999999046325683594 2 1.7000000476837158203 1.7999999523162841797 1.7999999523162841797 1.8999999761581420898 2 2.2999999523162841797 2.5999999046325683594 2.9000000953674316406 3.7000000476837158203 3.5999999046325683594 3.2000000476837158203 2.9000000953674316406 2.7000000476837158203 2.5 2.4000000953674316406 3 3.9000000953674316406 -2.2999999523162841797 -2.2999999523162841797 -2.2999999523162841797 -2.2999999523162841797 -2.2999999523162841797 -2.2999999523162841797 -2.2999999523162841797 -2.2999999523162841797 -2.2999999523162841797 4 3.2999999523162841797 2.5999999046325683594 1.7000000476837158203 1.7000000476837158203 1.7999999523162841797 2.0999999046325683594 2.2999999523162841797 3.0999999046325683594 3.9000000953674316406 3.2999999523162841797 2.7000000476837158203 2.4000000953674316406 2.2000000476837158203 2.7999999523162841797 2.2999999523162841797 2 1.8999999761581420898 1.8999999761581420898 2 1.8999999761581420898 1.7999999523162841797 2.0999999046325683594 2 1.7999999523162841797 2.4000000953674316406 3.2000000476837158203 4.1999998092651367188 4.0999999046325683594 2.2000000476837158203 -2.2999999523162841797 -2.2999999523162841797 -2.2999999523162841797 -2.2999999523162841797 -2.2999999523162841797 -2.2999999523162841797 -2.2999999523162841797 5.5999999046325683594 5.0999999046325683594 2.7999999523162841797 1.8999999761581420898 1.7000000476837158203 1.5 1.5 1.2999999523162841797 1.5 1.7000000476837158203 2 2.2999999523162841797 2.5999999046325683594 3.2999999523162841797 3.7000000476837158203 3.5 3.5 3.7000000476837158203 
4.4000000953674316406 4.1999998092651367188 4 3.7000000476837158203 -2.2999999523162841797 -2.2999999523162841797 -2.2999999523162841797 -2.2999999523162841797 -2.2999999523162841797 3.7000000476837158203 4.3000001907348632812 4.5 4.0999999046325683594 3.5999999046325683594 3.5999999046325683594 3.7999999523162841797 3.5 3.2000000476837158203 3.0999999046325683594 3.0999999046325683594 3 2.5 2.2000000476837158203 2.0999999046325683594 2 1.7999999523162841797 2.0999999046325683594 2.2000000476837158203 2.7000000476837158203 2.9000000953674316406 3.0999999046325683594 3.2000000476837158203 3.5 3.5 3.5999999046325683594 3.5999999046325683594 3.5 3.9000000953674316406 3.4000000953674316406 3 3.0999999046325683594 3.0999999046325683594 3.5 3.5999999046325683594 3.4000000953674316406 3.2000000476837158203 2.7999999523162841797 2.5999999046325683594 2.5999999046325683594 2.7000000476837158203 2.7999999523162841797 3.7000000476837158203 4.5999999046325683594 3.9000000953674316406 2.7999999523162841797 2.7000000476837158203 2.7999999523162841797 2.9000000953674316406 3 2.7999999523162841797 2.5999999046325683594 2.5 2.5 2.4000000953674316406 2.4000000953674316406 2.5999999046325683594 2.7999999523162841797 2.7999999523162841797 2.7999999523162841797 2.5999999046325683594 2.2000000476837158203 1.7999999523162841797 1.2999999523162841797 1.3999999761581420898 1.6000000238418579102 2 2.0999999046325683594 2.2999999523162841797 2.2999999523162841797 2.2999999523162841797 2.4000000953674316406 2.2999999523162841797 2.0999999046325683594 2.0999999046325683594 2.0999999046325683594 2.0999999046325683594 2.2999999523162841797 2.2000000476837158203 2.0999999046325683594 2 1.8999999761581420898 1.6000000238418579102 1.2999999523162841797 1.1000000238418579102 1.1000000238418579102 1 1.1000000238418579102 1.1000000238418579102 1.2000000476837158203 1.2999999523162841797 1.7000000476837158203 2.0999999046325683594 1.8999999761581420898 2.0999999046325683594 1.8999999761581420898 1.3999999761581420898 1.2999999523162841797 1.6000000238418579102 1.5 1.2999999523162841797 1.1000000238418579102 1.2000000476837158203 1.2999999523162841797 1.3999999761581420898 1.6000000238418579102 0.5 1.3999999761581420898 2 1.8999999761581420898 1.6000000238418579102 1.7999999523162841797 1.8999999761581420898 1.8999999761581420898 2 2.0999999046325683594 2.2999999523162841797 2.4000000953674316406 2.7000000476837158203 3.2000000476837158203 2.7000000476837158203 2.5999999046325683594 2.4000000953674316406 2.0999999046325683594 2 2.4000000953674316406 2.9000000953674316406 4.0999999046325683594 -2.2999999523162841797 -2.2999999523162841797 -2.2999999523162841797 -2.2999999523162841797 -2.2999999523162841797 -2.2999999523162841797 -2.2999999523162841797 -2.2999999523162841797 3.5 3.5 3.9000000953674316406 2.5999999046325683594 1.8999999761581420898 1.7999999523162841797 2.0999999046325683594 2.9000000953674316406 3.7000000476837158203 4.4000000953674316406 3.2999999523162841797 2.5999999046325683594 2.2999999523162841797 2.0999999046325683594 1.8999999761581420898 1.7000000476837158203 2 2.2999999523162841797 2.2999999523162841797 2.4000000953674316406 2.2999999523162841797 1.7999999523162841797 1.6000000238418579102 1.3999999761581420898 2 2.5999999046325683594 3.4000000953674316406 4.3000001907348632812 3.7999999523162841797 0.69999998807907104492 -2.2999999523162841797 -2.2999999523162841797 -2.2999999523162841797 -2.2999999523162841797 -2.2999999523162841797 -2.2999999523162841797 1.1000000238418579102 5.6999998092651367188 5.8000001907348632812 2.5999999046325683594 1.7999999523162841797 1.6000000238418579102 1.5 1.5 1.6000000238418579102 1.6000000238418579102 1.6000000238418579102 1.7999999523162841797 1.8999999761581420898 2.0999999046325683594 2.2999999523162841797 2.9000000953674316406 3.7000000476837158203 3.5999999046325683594 3.5999999046325683594 
4.6999998092651367188 4.5 4.4000000953674316406 3.7999999523162841797 -2.2999999523162841797 -2.2999999523162841797 -2.2999999523162841797 -2.2999999523162841797 -2.2999999523162841797 3.9000000953674316406 4.1999998092651367188 4.4000000953674316406 4 3.2000000476837158203 3.4000000953674316406 3.7000000476837158203 3.5 3.2999999523162841797 2.7999999523162841797 2.9000000953674316406 2.7999999523162841797 2.7999999523162841797 2.2000000476837158203 1.7000000476837158203 1.6000000238418579102 1.8999999761581420898 2.4000000953674316406 2.0999999046325683594 2.4000000953674316406 2.7000000476837158203 2.7000000476837158203 3.2000000476837158203 3.4000000953674316406 3.4000000953674316406 3.4000000953674316406 3.5 3.5 3.7999999523162841797 3.4000000953674316406 3.0999999046325683594 3.2000000476837158203 3.2000000476837158203 3.5999999046325683594 3.4000000953674316406 3.2999999523162841797 3.2000000476837158203 3.0999999046325683594 3 3 3.2000000476837158203 3.5 3.9000000953674316406 4.4000000953674316406 4 3 3.0999999046325683594 3.2999999523162841797 3.0999999046325683594 3.2000000476837158203 2.9000000953674316406 2.5999999046325683594 2.5 2.4000000953674316406 2.2000000476837158203 2.2000000476837158203 2.5 2.7000000476837158203 2.7999999523162841797 2.5 2.5 2.5999999046325683594 2.4000000953674316406 2 1.5 1.2999999523162841797 1.7999999523162841797 1.8999999761581420898 2 2.2000000476837158203 2.2999999523162841797 2.5 2.7000000476837158203 2.4000000953674316406 2.2000000476837158203 2 2.0999999046325683594 2.2999999523162841797 2.7999999523162841797 2.7999999523162841797 2.2000000476837158203 1.7999999523162841797 1.5 1.2000000476837158203 1 1 1.1000000238418579102 1.1000000238418579102 1.1000000238418579102 1.1000000238418579102 1.2000000476837158203 1.6000000238418579102 2.5999999046325683594 3.2000000476837158203 2.5 2.2000000476837158203 1.7999999523162841797 1.3999999761581420898 1.2999999523162841797 1 0.89999997615814208984 1 1.1000000238418579102 1.2000000476837158203 1.6000000238418579102 1.8999999761581420898 1.2000000476837158203 1.2999999523162841797 1.7999999523162841797 1.7000000476837158203 1.5 1.5 1.3999999761581420898 1.7999999523162841797 2 2.0999999046325683594 2.2000000476837158203 2 2.7999999523162841797 3 2.7000000476837158203 2.4000000953674316406 2.0999999046325683594 2.2999999523162841797 2.2000000476837158203 2 3.2000000476837158203 3.7000000476837158203 -2.2999999523162841797 -2.2999999523162841797 -2.2999999523162841797 -2.2999999523162841797 -2.2999999523162841797 -2.2999999523162841797 -2.2999999523162841797 -2.2999999523162841797 -2.2999999523162841797 3.7000000476837158203 4.4000000953674316406 4.3000001907348632812 3.5 3 2.4000000953674316406 2.2999999523162841797 3.0999999046325683594 4.0999999046325683594 2.9000000953674316406 2.2999999523162841797 2.2000000476837158203 2.0999999046325683594 1.8999999761581420898 1.6000000238418579102 1.3999999761581420898 1.7000000476837158203 2.5999999046325683594 2.7999999523162841797 2.7999999523162841797 2.2000000476837158203 1.8999999761581420898 1.7000000476837158203 2.0999999046325683594 2.7000000476837158203 3.7000000476837158203 3.7999999523162841797 3.0999999046325683594 -2.2999999523162841797 -2.2999999523162841797 -2.2999999523162841797 -2.2999999523162841797 -2.2999999523162841797 -2.2999999523162841797 -2.2999999523162841797 3.0999999046325683594 5.6999998092651367188 5.9000000953674316406 2.2999999523162841797 1.7999999523162841797 1.6000000238418579102 1.5 1.2999999523162841797 1.2999999523162841797 1.3999999761581420898 1.7999999523162841797 1.8999999761581420898 1.8999999761581420898 2 2.0999999046325683594 2.2999999523162841797 2.7999999523162841797 3.7000000476837158203 3.7000000476837158203 
4.5999999046325683594 4.4000000953674316406 4.4000000953674316406 -2.2999999523162841797 -2.2999999523162841797 -2.2999999523162841797 -2.2999999523162841797 -2.2999999523162841797 -2.2999999523162841797 4 4.3000001907348632812 4.1999998092651367188 3.7000000476837158203 3.4000000953674316406 3.5999999046325683594 3.5999999046325683594 3.5999999046325683594 3.0999999046325683594 2.7000000476837158203 2.5999999046325683594 2.5999999046325683594 2.4000000953674316406 2.5999999046325683594 1.7999999523162841797 1.5 2.4000000953674316406 2.7999999523162841797 2 2.2999999523162841797 2.2999999523162841797 2.2999999523162841797 3.0999999046325683594 3.5999999046325683594 3.4000000953674316406 3.2999999523162841797 3.5999999046325683594 3.7000000476837158203 3.5999999046325683594 3.4000000953674316406 3.2000000476837158203 3.2000000476837158203 3.2999999523162841797 3.4000000953674316406 3.5 3.4000000953674316406 3.2999999523162841797 3.2999999523162841797 3.4000000953674316406 3.4000000953674316406 3.5999999046325683594 3.5999999046325683594 3.7999999523162841797 3.7000000476837158203 3.9000000953674316406 3.5 3.5 3.2000000476837158203 2.7999999523162841797 2.5999999046325683594 2.5999999046325683594 2.7000000476837158203 2.5999999046325683594 2.5 2.4000000953674316406 2.2000000476837158203 2.4000000953674316406 2.5 2.0999999046325683594 2.0999999046325683594 2.5 2.5 2.5999999046325683594 2.5999999046325683594 2.2999999523162841797 1.8999999761581420898 1.5 1.5 1.6000000238418579102 1.7999999523162841797 1.8999999761581420898 2.0999999046325683594 2.2999999523162841797 2.5 3 2.5 2.0999999046325683594 2.2000000476837158203 2.5999999046325683594 2.5999999046325683594 2.4000000953674316406 2.0999999046325683594 1.6000000238418579102 1.5 1.5 1.5 1.5 1.2000000476837158203 1.1000000238418579102 1.2000000476837158203 1.5 2.0999999046325683594 2.5999999046325683594 3.7000000476837158203 3.5999999046325683594 2.7000000476837158203 2.2000000476837158203 1.8999999761581420898 1.7999999523162841797 1.2000000476837158203 1.1000000238418579102 1.1000000238418579102 1 1.1000000238418579102 1.2000000476837158203 1.7000000476837158203 4.4000000953674316406 1.1000000238418579102 1.3999999761581420898 1.3999999761581420898 1.3999999761581420898 1.2999999523162841797 1.2999999523162841797 1.7000000476837158203 1.8999999761581420898 2 1.7000000476837158203 1.6000000238418579102 2.2000000476837158203 2.9000000953674316406 2.7999999523162841797 2.5999999046325683594 2.2000000476837158203 2.4000000953674316406 2.2999999523162841797 2.7999999523162841797 3.9000000953674316406 4.1999998092651367188 4.5999999046325683594 -2.2999999523162841797 -2.2999999523162841797 -2.2999999523162841797 -2.2999999523162841797 -2.2999999523162841797 -2.2999999523162841797 -2.2999999523162841797 -2.2999999523162841797 -2.2999999523162841797 3.7999999523162841797 4.5999999046325683594 4.5999999046325683594 4.3000001907348632812 3.7999999523162841797 2.5999999046325683594 2.4000000953674316406 3.0999999046325683594 2.2000000476837158203 2.2999999523162841797 2.4000000953674316406 2.4000000953674316406 2.2999999523162841797 1.5 1.3999999761581420898 1.7000000476837158203 1.8999999761581420898 2.2999999523162841797 2.5999999046325683594 2.2999999523162841797 2 2.7000000476837158203 3 3.2999999523162841797 4.1999998092651367188 3.2999999523162841797 -2.2999999523162841797 -2.2999999523162841797 -2.2999999523162841797 -2.2999999523162841797 -2.2999999523162841797 -2.2999999523162841797 -2.2999999523162841797 -2.2999999523162841797 5.4000000953674316406 5.3000001907348632812 3.2999999523162841797 2.0999999046325683594 1.8999999761581420898 1.7000000476837158203 1.6000000238418579102 1.3999999761581420898 1.2999999523162841797 1.6000000238418579102 1.7999999523162841797 1.8999999761581420898 1.7999999523162841797 2 2.0999999046325683594 2.2999999523162841797 2.4000000953674316406 2.5 3.2999999523162841797 
3.9000000953674316406 4.0999999046325683594 4.5999999046325683594 -2.2999999523162841797 -2.2999999523162841797 -2.2999999523162841797 -2.2999999523162841797 -2.2999999523162841797 4 4.3000001907348632812 4.3000001907348632812 3.9000000953674316406 3.4000000953674316406 3.4000000953674316406 3.4000000953674316406 3.4000000953674316406 3.4000000953674316406 3.0999999046325683594 2.9000000953674316406 2.5999999046325683594 2.4000000953674316406 2.5 2.7999999523162841797 2.0999999046325683594 2.2000000476837158203 2.9000000953674316406 3.0999999046325683594 2 1.8999999761581420898 1.8999999761581420898 2.4000000953674316406 3.2999999523162841797 3.7000000476837158203 3.4000000953674316406 3.2999999523162841797 3.5 3.5999999046325683594 3.5 3.4000000953674316406 3.2000000476837158203 3.2000000476837158203 3.2999999523162841797 3.2999999523162841797 3.5 3.4000000953674316406 3.4000000953674316406 3.5 3.5 3.5999999046325683594 3.7000000476837158203 3.9000000953674316406 4 4 3.7999999523162841797 3.5 3.2999999523162841797 3.0999999046325683594 2.7999999523162841797 2.7000000476837158203 2.7999999523162841797 2.7999999523162841797 2.7999999523162841797 2.7000000476837158203 2.5999999046325683594 2.5999999046325683594 2.4000000953674316406 2.2999999523162841797 2.4000000953674316406 2.5 2.4000000953674316406 2.5 2.5999999046325683594 2.7000000476837158203 2.5999999046325683594 2.0999999046325683594 1.7000000476837158203 1.3999999761581420898 1.2000000476837158203 1.2000000476837158203 1.3999999761581420898 1.5 1.6000000238418579102 1.6000000238418579102 1.7999999523162841797 2.2000000476837158203 2 2.0999999046325683594 2.2000000476837158203 2.2999999523162841797 2.5999999046325683594 2.2999999523162841797 2.0999999046325683594 2.2000000476837158203 2.2000000476837158203 2.5999999046325683594 2.7000000476837158203 2 1.2000000476837158203 1.1000000238418579102 4.5999999046325683594 3.5999999046325683594 5 5.1999998092651367188 4.8000001907348632812 4 3.7000000476837158203 3.5999999046325683594 3 1.7999999523162841797 1.3999999761581420898 1.2000000476837158203 1 1.2999999523162841797 1.6000000238418579102 2.2999999523162841797 5.8000001907348632812 1 1.2000000476837158203 1.7000000476837158203 1.6000000238418579102 1.5 1.5 1.5 1.7000000476837158203 1.8999999761581420898 2 1.8999999761581420898 2.5 3 3.2000000476837158203 2.7000000476837158203 2.2999999523162841797 2.2999999523162841797 2.4000000953674316406 2.7999999523162841797 4.3000001907348632812 4.5 4.5999999046325683594 5.3000001907348632812 -2.2999999523162841797 -2.2999999523162841797 -2.2999999523162841797 -2.2999999523162841797 -2.2999999523162841797 -2.2999999523162841797 -2.2999999523162841797 -2.2999999523162841797 -2.2999999523162841797 3.9000000953674316406 5.4000000953674316406 4.6999998092651367188 5.4000000953674316406 4 3.0999999046325683594 2.4000000953674316406 2.2000000476837158203 2.4000000953674316406 2.5999999046325683594 2.2999999523162841797 2.4000000953674316406 2.2999999523162841797 2.0999999046325683594 2.5 2.2000000476837158203 2.0999999046325683594 2.2000000476837158203 2.4000000953674316406 3.4000000953674316406 3.9000000953674316406 4 3.5999999046325683594 3.5 -2.2999999523162841797 -2.2999999523162841797 -2.2999999523162841797 -2.2999999523162841797 -2.2999999523162841797 -2.2999999523162841797 -2.2999999523162841797 -2.2999999523162841797 3 5.4000000953674316406 6.4000000953674316406 3.2999999523162841797 2.4000000953674316406 1.8999999761581420898 1.7999999523162841797 1.6000000238418579102 1.5 1.2999999523162841797 1.6000000238418579102 1.8999999761581420898 1.7000000476837158203 1.8999999761581420898 2.0999999046325683594 2.4000000953674316406 2.5 2.5 2.7000000476837158203 2.5999999046325683594 
4.6999998092651367188 5.3000001907348632812 -2.2999999523162841797 -2.2999999523162841797 -2.2999999523162841797 -2.2999999523162841797 -2.2999999523162841797 3.5 4.1999998092651367188 4.3000001907348632812 4.1999998092651367188 3.7000000476837158203 3.2000000476837158203 3.2000000476837158203 3.2000000476837158203 3.2999999523162841797 3.2000000476837158203 3.0999999046325683594 3 2.9000000953674316406 2.5 2.5 2.7999999523162841797 2.4000000953674316406 3 3.7999999523162841797 3.7000000476837158203 2.7000000476837158203 2.2999999523162841797 2.2999999523162841797 2.7999999523162841797 3.5999999046325683594 3.5 3.2000000476837158203 3.2999999523162841797 3.2999999523162841797 3.5 3.4000000953674316406 3.4000000953674316406 3.2999999523162841797 3.2000000476837158203 3.0999999046325683594 2.7999999523162841797 3.2000000476837158203 3.2999999523162841797 3.2999999523162841797 3.4000000953674316406 3.5 3.5999999046325683594 3.5999999046325683594 3.9000000953674316406 4.0999999046325683594 3.7999999523162841797 3.5999999046325683594 3.4000000953674316406 3.2000000476837158203 3 2.7000000476837158203 2.7000000476837158203 2.7999999523162841797 3.0999999046325683594 3 2.7000000476837158203 2.9000000953674316406 3.0999999046325683594 2.5999999046325683594 2.2999999523162841797 2.4000000953674316406 2.4000000953674316406 2.4000000953674316406 2.4000000953674316406 2.5 2.5 2.5 2.2000000476837158203 1.8999999761581420898 1.6000000238418579102 1.3999999761581420898 1.3999999761581420898 1.3999999761581420898 1.3999999761581420898 1.2999999523162841797 1.2999999523162841797 1.5 1.2999999523162841797 1.6000000238418579102 1.7999999523162841797 2 2.5 2.7000000476837158203 2.5999999046325683594 2.7000000476837158203 2.7999999523162841797 2.7999999523162841797 2.9000000953674316406 3 2.0999999046325683594 1.3999999761581420898 1 1.2999999523162841797 1.1000000238418579102 1.5 3.7000000476837158203 5.9000000953674316406 5.5999999046325683594 4.9000000953674316406 4.5999999046325683594 4.6999998092651367188 4 1.8999999761581420898 1.3999999761581420898 1.1000000238418579102 1.5 1.6000000238418579102 1.7999999523162841797 4.8000001907348632812 5.3000001907348632812 1.2999999523162841797 1.6000000238418579102 1.7000000476837158203 1.7000000476837158203 1.6000000238418579102 1.5 1.5 1.6000000238418579102 1.8999999761581420898 2.2000000476837158203 2.7000000476837158203 3.2000000476837158203 3.4000000953674316406 2.7000000476837158203 2.4000000953674316406 2.2999999523162841797 2.4000000953674316406 2.7000000476837158203 3.7000000476837158203 4.5999999046325683594 4.9000000953674316406 5 5 -2.2999999523162841797 -2.2999999523162841797 -2.2999999523162841797 -2.2999999523162841797 -2.2999999523162841797 -2.2999999523162841797 -2.2999999523162841797 -2.2999999523162841797 -2.2999999523162841797 -2.2999999523162841797 5.5 4.6999998092651367188 4.4000000953674316406 4.5 3.7000000476837158203 2.9000000953674316406 2.4000000953674316406 2.2000000476837158203 2.2000000476837158203 2.4000000953674316406 2.2999999523162841797 2.2999999523162841797 2.4000000953674316406 2.7000000476837158203 2.9000000953674316406 3 3.2000000476837158203 4.3000001907348632812 4.4000000953674316406 4 -2.2999999523162841797 -2.2999999523162841797 -2.2999999523162841797 -2.2999999523162841797 -2.2999999523162841797 -2.2999999523162841797 -2.2999999523162841797 -2.2999999523162841797 -2.2999999523162841797 1 5.5 5.3000001907348632812 3.4000000953674316406 3.0999999046325683594 2.7000000476837158203 2.2000000476837158203 1.8999999761581420898 1.7999999523162841797 1.6000000238418579102 1.3999999761581420898 1.7000000476837158203 1.8999999761581420898 1.7999999523162841797 2.0999999046325683594 2.2999999523162841797 2.5999999046325683594 2.5 2.5 2.7000000476837158203 2.7999999523162841797 
6.0999999046325683594 2.9000000953674316406 -2.2999999523162841797 -2.2999999523162841797 -2.2999999523162841797 -2.2999999523162841797 -2.2999999523162841797 4.5 4.4000000953674316406 4.4000000953674316406 4.0999999046325683594 3.7000000476837158203 3.2999999523162841797 3.2000000476837158203 3.2000000476837158203 3.0999999046325683594 3.0999999046325683594 3.0999999046325683594 3.2999999523162841797 3.2000000476837158203 2.7999999523162841797 2.7000000476837158203 2.9000000953674316406 3.2000000476837158203 3.5 3 3.2000000476837158203 3.5999999046325683594 2.7999999523162841797 2.9000000953674316406 3.2000000476837158203 3.4000000953674316406 3.2000000476837158203 3.2000000476837158203 3.2999999523162841797 3.2999999523162841797 3.5 3.4000000953674316406 3.2999999523162841797 3.2000000476837158203 2.9000000953674316406 2.5 3 3.2999999523162841797 3.2000000476837158203 3.0999999046325683594 3.2000000476837158203 3.5 3.7999999523162841797 3.7999999523162841797 3.9000000953674316406 3.7000000476837158203 3.4000000953674316406 3.2000000476837158203 2.9000000953674316406 3 2.9000000953674316406 2.7000000476837158203 2.7000000476837158203 2.7999999523162841797 3.0999999046325683594 2.7999999523162841797 2.9000000953674316406 3 3.2999999523162841797 2.7000000476837158203 2.2000000476837158203 2.2999999523162841797 2.2000000476837158203 2.2999999523162841797 2.4000000953674316406 2.4000000953674316406 2.5 2.5 2.4000000953674316406 2 1.7000000476837158203 1.6000000238418579102 1.7000000476837158203 1.5 1.3999999761581420898 1.2999999523162841797 1.1000000238418579102 0.89999997615814208984 0.89999997615814208984 1 1.3999999761581420898 1.6000000238418579102 2.5 2.9000000953674316406 3 2.0999999046325683594 1.7999999523162841797 1.8999999761581420898 2.2000000476837158203 2.2000000476837158203 1.3999999761581420898 1.1000000238418579102 1.1000000238418579102 1.1000000238418579102 1 1.2000000476837158203 1.2999999523162841797 8.6000003814697265625 1.2000000476837158203 1.3999999761581420898 2.7999999523162841797 2 12.699999809265136719 6.5999999046325683594 1.6000000238418579102 1.2999999523162841797 1 1.2999999523162841797 2.7999999523162841797 2.7999999523162841797 2.7999999523162841797 2 1.3999999761581420898 1.7999999523162841797 1.5 1.3999999761581420898 1.2999999523162841797 0.89999997615814208984 1.2000000476837158203 1.5 1.8999999761581420898 2.5999999046325683594 3.2999999523162841797 3.5 3.0999999046325683594 2.2999999523162841797 2.2000000476837158203 2.2000000476837158203 2.5 3.5999999046325683594 4.6999998092651367188 5.0999999046325683594 5.6999998092651367188 5.6999998092651367188 5.1999998092651367188 -2.2999999523162841797 -2.2999999523162841797 -2.2999999523162841797 -2.2999999523162841797 -2.2999999523162841797 -2.2999999523162841797 -2.2999999523162841797 -2.2999999523162841797 -2.2999999523162841797 -2.2999999523162841797 3.5 4.9000000953674316406 4.1999998092651367188 4.4000000953674316406 3.9000000953674316406 3.2999999523162841797 3 2.7999999523162841797 2.7999999523162841797 2.7999999523162841797 2.7999999523162841797 3.2999999523162841797 3.9000000953674316406 4.1999998092651367188 3.9000000953674316406 3.9000000953674316406 3.5999999046325683594 3.5 -2.2999999523162841797 -2.2999999523162841797 -2.2999999523162841797 -2.2999999523162841797 -2.2999999523162841797 -2.2999999523162841797 -2.2999999523162841797 -2.2999999523162841797 -2.2999999523162841797 -2.2999999523162841797 3.5999999046325683594 4.6999998092651367188 3.7999999523162841797 3.2000000476837158203 2.9000000953674316406 2.5 2.2000000476837158203 2.0999999046325683594 2.0999999046325683594 2 1.6000000238418579102 2 2.2999999523162841797 2.4000000953674316406 2.2999999523162841797 2.2999999523162841797 2.5 2.5999999046325683594 2.7999999523162841797 3 3 
6.1999998092651367188 -2.2999999523162841797 -2.2999999523162841797 -2.2999999523162841797 -2.2999999523162841797 -2.2999999523162841797 1.7999999523162841797 4 4.5 4.5 4.1999998092651367188 3.7999999523162841797 3.5999999046325683594 3.4000000953674316406 3.4000000953674316406 3.4000000953674316406 3.2000000476837158203 3.2999999523162841797 3.5999999046325683594 3.5999999046325683594 3.2000000476837158203 2.9000000953674316406 3 2.7999999523162841797 3.7000000476837158203 3.2999999523162841797 3 3.2000000476837158203 3.5 3.5 3.4000000953674316406 3.2000000476837158203 3.2000000476837158203 3.2000000476837158203 3.2000000476837158203 3.2999999523162841797 3.2999999523162841797 3.2999999523162841797 3.2000000476837158203 3 2.5 2.5999999046325683594 3.2000000476837158203 3.2999999523162841797 3.0999999046325683594 3 2.7999999523162841797 3.5 3.9000000953674316406 3.7999999523162841797 3.7000000476837158203 3.5 3.0999999046325683594 2.7000000476837158203 2.7000000476837158203 2.9000000953674316406 2.9000000953674316406 2.7999999523162841797 2.7000000476837158203 2.7999999523162841797 2.7999999523162841797 2.5 2.5 2.7000000476837158203 2.7000000476837158203 2.2999999523162841797 2.0999999046325683594 2.0999999046325683594 2.0999999046325683594 2.2000000476837158203 2.2999999523162841797 2.2999999523162841797 2.5 2.4000000953674316406 2.5 2.2000000476837158203 2 2 2 2 2 2 1.6000000238418579102 1.2000000476837158203 0.89999997615814208984 0.69999998807907104492 1 1.2999999523162841797 1.8999999761581420898 2.0999999046325683594 1.8999999761581420898 1.2999999523162841797 0.89999997615814208984 1 1.1000000238418579102 1.1000000238418579102 1.1000000238418579102 1 1 1 1 1 0.89999997615814208984 1.2999999523162841797 8.6999998092651367188 1 1.2999999523162841797 3.0999999046325683594 10.5 11 1.5 1.1000000238418579102 1.5 1.6000000238418579102 3 3.4000000953674316406 2.7999999523162841797 2.7999999523162841797 1.5 1.6000000238418579102 1.3999999761581420898 0.89999997615814208984 0.5 0.60000002384185791016 0.69999998807907104492 1.1000000238418579102 1.5 2 3.0999999046325683594 3.4000000953674316406 3.4000000953674316406 2.7000000476837158203 2.0999999046325683594 2.0999999046325683594 2.5999999046325683594 4.0999999046325683594 4.5999999046325683594 5.1999998092651367188 5.8000001907348632812 6.3000001907348632812 5.1999998092651367188 -2.2999999523162841797 -2.2999999523162841797 -2.2999999523162841797 -2.2999999523162841797 -2.2999999523162841797 -2.2999999523162841797 -2.2999999523162841797 -2.2999999523162841797 -2.2999999523162841797 -2.2999999523162841797 -2.2999999523162841797 -2.2999999523162841797 3.4000000953674316406 4.1999998092651367188 3.9000000953674316406 3.7000000476837158203 3.2999999523162841797 3.2999999523162841797 3.9000000953674316406 3.9000000953674316406 3.7000000476837158203 4.3000001907348632812 4.0999999046325683594 4.3000001907348632812 4.5999999046325683594 3.5 -2.2999999523162841797 -2.2999999523162841797 -2.2999999523162841797 -2.2999999523162841797 -2.2999999523162841797 -2.2999999523162841797 -2.2999999523162841797 -2.2999999523162841797 -2.2999999523162841797 -2.2999999523162841797 -2.2999999523162841797 5.6999998092651367188 4.9000000953674316406 4.1999998092651367188 3.5999999046325683594 3.0999999046325683594 2.7000000476837158203 2.5999999046325683594 2.5 2.4000000953674316406 2.4000000953674316406 2.4000000953674316406 2.4000000953674316406 2.7999999523162841797 3.0999999046325683594 3.2000000476837158203 3.0999999046325683594 3 3 3.0999999046325683594 3.0999999046325683594 3.2999999523162841797 3.4000000953674316406 
-2.2999999523162841797 -2.2999999523162841797 -2.2999999523162841797 -2.2999999523162841797 -2.2999999523162841797 1.2000000476837158203 3.2999999523162841797 4 4.5999999046325683594 4.5999999046325683594 4.4000000953674316406 4.3000001907348632812 4.1999998092651367188 3.9000000953674316406 3.7000000476837158203 3.5 3.2999999523162841797 3.4000000953674316406 3.7000000476837158203 3.9000000953674316406 3.7000000476837158203 3.2000000476837158203 3.2999999523162841797 3.2999999523162841797 3.7999999523162841797 3.7999999523162841797 3.7000000476837158203 3.5999999046325683594 3.5 3.5 3.2000000476837158203 3.2000000476837158203 3.2999999523162841797 3.2000000476837158203 3.0999999046325683594 3.2000000476837158203 3.0999999046325683594 3.0999999046325683594 3 2.5 2.4000000953674316406 2.5 2.7999999523162841797 2.7000000476837158203 2.7000000476837158203 3.2000000476837158203 3.2000000476837158203 3.4000000953674316406 3.5999999046325683594 3.5 3.4000000953674316406 3.2999999523162841797 3.0999999046325683594 2.7999999523162841797 2.5999999046325683594 2.7999999523162841797 2.9000000953674316406 2.7999999523162841797 2.5999999046325683594 2.7999999523162841797 2.5 2.2000000476837158203 2.2999999523162841797 2.4000000953674316406 2.5 2.2999999523162841797 2 1.8999999761581420898 1.7999999523162841797 2 2.2000000476837158203 2.2999999523162841797 2.5 2.5999999046325683594 2.5 2.5 2.2999999523162841797 2.2000000476837158203 2.0999999046325683594 2.0999999046325683594 2.0999999046325683594 2 1.8999999761581420898 1.7999999523162841797 1.3999999761581420898 1.1000000238418579102 1.1000000238418579102 1.6000000238418579102 1.5 1.3999999761581420898 1.2000000476837158203 0.89999997615814208984 0.30000001192092895508 1.1000000238418579102 1.2000000476837158203 1.1000000238418579102 1.1000000238418579102 1 1 1 1 1 0.80000001192092895508 1.1000000238418579102 10.199999809265136719 1.7000000476837158203 0.80000001192092895508 0.5 1 7.5 9.3000001907348632812 1.7000000476837158203 2 1.6000000238418579102 2.2999999523162841797 3.2000000476837158203 3.7999999523162841797 4.1999998092651367188 1.7000000476837158203 1.6000000238418579102 1.6000000238418579102 0.89999997615814208984 0.30000001192092895508 0.5 0.60000002384185791016 0.60000002384185791016 1.1000000238418579102 1.8999999761581420898 2.7000000476837158203 3.7000000476837158203 3.0999999046325683594 2.5 2.2000000476837158203 1.8999999761581420898 2.7000000476837158203 3.7999999523162841797 3.7999999523162841797 4.5 5.0999999046325683594 5.4000000953674316406 5.5 5.1999998092651367188 4.9000000953674316406 -2.2999999523162841797 -2.2999999523162841797 -2.2999999523162841797 -2.2999999523162841797 -2.2999999523162841797 -2.2999999523162841797 -2.2999999523162841797 -2.2999999523162841797 -2.2999999523162841797 -2.2999999523162841797 -2.2999999523162841797 -2.2999999523162841797 -2.2999999523162841797 3.2999999523162841797 3.2999999523162841797 3.4000000953674316406 3.4000000953674316406 3.2999999523162841797 3.2999999523162841797 3.2999999523162841797 2.2999999523162841797 -2.2999999523162841797 -2.2999999523162841797 -2.2999999523162841797 -2.2999999523162841797 -2.2999999523162841797 -2.2999999523162841797 -2.2999999523162841797 -2.2999999523162841797 -2.2999999523162841797 -2.2999999523162841797 -2.2999999523162841797 -2.2999999523162841797 -2.2999999523162841797 5.4000000953674316406 4.9000000953674316406 4.5999999046325683594 4.8000001907348632812 3.5999999046325683594 3 3 3.0999999046325683594 3 2.7999999523162841797 2.9000000953674316406 3 3.0999999046325683594 3.4000000953674316406 4 4 4 4 4.3000001907348632812 5.4000000953674316406 5.3000001907348632812 5.1999998092651367188 5.4000000953674316406 
-2.2999999523162841797 -2.2999999523162841797 -2.2999999523162841797 -2.2999999523162841797 -2.2999999523162841797 3.4000000953674316406 4.0999999046325683594 4.6999998092651367188 4.9000000953674316406 4.9000000953674316406 4.8000001907348632812 4.9000000953674316406 4.8000001907348632812 4.1999998092651367188 3.9000000953674316406 3.5999999046325683594 3.5 3.5 3.7999999523162841797 3.9000000953674316406 3.7000000476837158203 3.5 3.5 3.7999999523162841797 3.7999999523162841797 3.7999999523162841797 3.7000000476837158203 3.5 3.5999999046325683594 3.7999999523162841797 3.2999999523162841797 3.0999999046325683594 3.2000000476837158203 3.0999999046325683594 3.2000000476837158203 3.0999999046325683594 3 3 3 2.5999999046325683594 2.5999999046325683594 2.5999999046325683594 2.7999999523162841797 2.7999999523162841797 3.0999999046325683594 3.5 3.2999999523162841797 3.2000000476837158203 3.4000000953674316406 3.2999999523162841797 3.2000000476837158203 3.2999999523162841797 3.0999999046325683594 2.9000000953674316406 2.5999999046325683594 2.7000000476837158203 2.7000000476837158203 2.7000000476837158203 2.5999999046325683594 2.7999999523162841797 2.5999999046325683594 2.2999999523162841797 2.5 2.5999999046325683594 2.7999999523162841797 2.4000000953674316406 2 1.8999999761581420898 1.8999999761581420898 2 2.2000000476837158203 2.4000000953674316406 2.5 2.5 2.4000000953674316406 2.2999999523162841797 2.5 2.5 2.2999999523162841797 2.0999999046325683594 2 1.8999999761581420898 1.8999999761581420898 1.7999999523162841797 1.7000000476837158203 1.6000000238418579102 1.7000000476837158203 1.3999999761581420898 1.2000000476837158203 1.2999999523162841797 1.2000000476837158203 0.89999997615814208984 0.69999998807907104492 1 1.2999999523162841797 1.2000000476837158203 1.1000000238418579102 1 1 1 0.89999997615814208984 0.89999997615814208984 0.60000002384185791016 1 4.0999999046325683594 3.2999999523162841797 0.80000001192092895508 0.20000000298023223877 0.30000001192092895508 0.69999998807907104492 7.8000001907348632812 6.4000000953674316406 2 2 1.6000000238418579102 1.8999999761581420898 2.5999999046325683594 4.3000001907348632812 2.2999999523162841797 1.8999999761581420898 1.7000000476837158203 1 0.20000000298023223877 0.40000000596046447754 0.40000000596046447754 0.40000000596046447754 0.5 1.8999999761581420898 2.4000000953674316406 3.2999999523162841797 3.5 3.0999999046325683594 2.4000000953674316406 1.8999999761581420898 1.8999999761581420898 2.9000000953674316406 3.7000000476837158203 4.8000001907348632812 4.9000000953674316406 4.8000001907348632812 4.8000001907348632812 5.3000001907348632812 5.3000001907348632812 4.9000000953674316406 -2.2999999523162841797 -2.2999999523162841797 -2.2999999523162841797 -2.2999999523162841797 -2.2999999523162841797 -2.2999999523162841797 -2.2999999523162841797 -2.2999999523162841797 -2.2999999523162841797 -2.2999999523162841797 -2.2999999523162841797 -2.2999999523162841797 -2.2999999523162841797 -1.7999999523162841797 -1 -0.89999997615814208984 -1.1000000238418579102 -1.8999999761581420898 -2.2999999523162841797 -2.2999999523162841797 -2.2999999523162841797 -2.2999999523162841797 -2.2999999523162841797 -2.2999999523162841797 -2.2999999523162841797 -2.2999999523162841797 -2.2999999523162841797 -2.2999999523162841797 -2.2999999523162841797 -2.2999999523162841797 -2.2999999523162841797 -2.2999999523162841797 5.5999999046325683594 4.5 4.8000001907348632812 4.5 4.5 3.4000000953674316406 3.2999999523162841797 3.2999999523162841797 3.4000000953674316406 3.2999999523162841797 3.5999999046325683594 3.7000000476837158203 3.9000000953674316406 3.7999999523162841797 4.0999999046325683594 4.8000001907348632812 5.6999998092651367188 5.6999998092651367188 5.5 6.1999998092651367188 7.5999999046325683594 7.8000001907348632812 7.8000001907348632812 7.8000001907348632812 
-2.2999999523162841797 -2.2999999523162841797 -2.2999999523162841797 -2.2999999523162841797 -2.2999999523162841797 5 5.0999999046325683594 4.9000000953674316406 5 5.1999998092651367188 5.1999998092651367188 5 4.8000001907348632812 4.3000001907348632812 4 3.7999999523162841797 3.7000000476837158203 3.7999999523162841797 3.7999999523162841797 3.7999999523162841797 3.7999999523162841797 3.7000000476837158203 3.7000000476837158203 3.5999999046325683594 3.7999999523162841797 3.7000000476837158203 3.5 3.2999999523162841797 3.2999999523162841797 3.5 3.2000000476837158203 3.2000000476837158203 3.4000000953674316406 3.5999999046325683594 3.5 3.2000000476837158203 3.2000000476837158203 3.2999999523162841797 3.5 3.4000000953674316406 2.9000000953674316406 2.7000000476837158203 2.7999999523162841797 3.2000000476837158203 3.5 3.5 3.2999999523162841797 3.2000000476837158203 3.2000000476837158203 3.2000000476837158203 3.2000000476837158203 3.2000000476837158203 3.0999999046325683594 2.9000000953674316406 2.7000000476837158203 2.5999999046325683594 2.5999999046325683594 2.5999999046325683594 2.5999999046325683594 3 2.9000000953674316406 2.7999999523162841797 2.7000000476837158203 2.7000000476837158203 2.7000000476837158203 2.5999999046325683594 2.4000000953674316406 2.0999999046325683594 1.8999999761581420898 2 1.8999999761581420898 2 2.2999999523162841797 2.2000000476837158203 2.2999999523162841797 2.9000000953674316406 2.2000000476837158203 2.2999999523162841797 2.4000000953674316406 2.4000000953674316406 2.2999999523162841797 2.4000000953674316406 2.0999999046325683594 1.8999999761581420898 1.7999999523162841797 1.7999999523162841797 1.6000000238418579102 1.1000000238418579102 0.89999997615814208984 1.2000000476837158203 1.2999999523162841797 1.3999999761581420898 1.2999999523162841797 1.2999999523162841797 1.3999999761581420898 1.2999999523162841797 1.1000000238418579102 1 1 1 1 0.5 0.40000000596046447754 0.5 1.2000000476837158203 1.2999999523162841797 0.80000001192092895508 0.30000001192092895508 0.20000000298023223877 0.20000000298023223877 0.80000001192092895508 1.7000000476837158203 2.2000000476837158203 2.2999999523162841797 2.0999999046325683594 2.2000000476837158203 2.2000000476837158203 2.2000000476837158203 3.2000000476837158203 2.2000000476837158203 1.7000000476837158203 1.5 0.40000000596046447754 0.5 0.60000002384185791016 1.2999999523162841797 1.7000000476837158203 2.5999999046325683594 2.9000000953674316406 3.0999999046325683594 3.4000000953674316406 3.0999999046325683594 2.4000000953674316406 2.5999999046325683594 2.4000000953674316406 2.7000000476837158203 3.2000000476837158203 4.6999998092651367188 4.6999998092651367188 4.5999999046325683594 4.8000001907348632812 5.1999998092651367188 5.1999998092651367188 5 4.8000001907348632812 -2.2999999523162841797 -2.2999999523162841797 -2.2999999523162841797 -2.2999999523162841797 -2.2999999523162841797 -2.2999999523162841797 -2.2999999523162841797 -2.2999999523162841797 -2.2999999523162841797 -2.2999999523162841797 -2.2999999523162841797 -2.2999999523162841797 -2.2999999523162841797 -2.2999999523162841797 -2.2999999523162841797 -2.2999999523162841797 -2.2999999523162841797 -2.2999999523162841797 -2.2999999523162841797 -2.2999999523162841797 -2.2999999523162841797 -2.2999999523162841797 -2.2999999523162841797 -2.2999999523162841797 -2.2999999523162841797 -2.2999999523162841797 -2.2999999523162841797 -2.2999999523162841797 -2.2999999523162841797 -2.2999999523162841797 3.5999999046325683594 5 5.0999999046325683594 4.9000000953674316406 4.4000000953674316406 4.3000001907348632812 3.9000000953674316406 3.7000000476837158203 3.5999999046325683594 3.5999999046325683594 4 4.3000001907348632812 4.4000000953674316406 4.5999999046325683594 4.6999998092651367188 5.4000000953674316406 6.3000001907348632812 7.3000001907348632812 6.9000000953674316406 7.4000000953674316406 8.3000001907348632812 9.6999998092651367188 10.199999809265136719 10.5 10.5 
-2.2999999523162841797 -2.2999999523162841797 -2.2999999523162841797 -2.2999999523162841797 5.9000000953674316406 7.4000000953674316406 6 5.6999998092651367188 5.5999999046325683594 5.5 5.5 4.9000000953674316406 4.6999998092651367188 4.5 4.1999998092651367188 4 4.1999998092651367188 3.9000000953674316406 4.0999999046325683594 4.4000000953674316406 4.1999998092651367188 3.9000000953674316406 3.7999999523162841797 3.4000000953674316406 3.7999999523162841797 3.5999999046325683594 3.2000000476837158203 2.9000000953674316406 2.5999999046325683594 2.7999999523162841797 3.2999999523162841797 3.5999999046325683594 3.7999999523162841797 3.7999999523162841797 3.4000000953674316406 3.2000000476837158203 3.2000000476837158203 3.0999999046325683594 3.2000000476837158203 3.2999999523162841797 2.7999999523162841797 2.4000000953674316406 2.5999999046325683594 3.2000000476837158203 3.5 3.2999999523162841797 3.2999999523162841797 3.2999999523162841797 3.2000000476837158203 3.0999999046325683594 3.4000000953674316406 3.2999999523162841797 3.0999999046325683594 2.9000000953674316406 2.7999999523162841797 2.7000000476837158203 2.7000000476837158203 2.7000000476837158203 2.7999999523162841797 3.0999999046325683594 3.0999999046325683594 2.9000000953674316406 2.7000000476837158203 2.5999999046325683594 2.5999999046325683594 2.5 2.2999999523162841797 1.5 1.7000000476837158203 1.6000000238418579102 1.7000000476837158203 1.7000000476837158203 1.5 1.8999999761581420898 3.5999999046325683594 3.0999999046325683594 1.8999999761581420898 2.0999999046325683594 2.4000000953674316406 1.3999999761581420898 2.4000000953674316406 2.4000000953674316406 2.2999999523162841797 2.0999999046325683594 2 2 1.7999999523162841797 1.6000000238418579102 0.89999997615814208984 1.2999999523162841797 1.8999999761581420898 1.7999999523162841797 1.3999999761581420898 1.2999999523162841797 2 1.3999999761581420898 1.5 1.1000000238418579102 0.60000002384185791016 0.89999997615814208984 1.2000000476837158203 1.1000000238418579102 1 0.80000001192092895508 1.6000000238418579102 10.199999809265136719 1.1000000238418579102 0.80000001192092895508 0.10000000149011611938 0.5 1.3999999761581420898 2.2999999523162841797 8.8000001907348632812 2.0999999046325683594 2.4000000953674316406 2.5999999046325683594 2.5999999046325683594 2.7000000476837158203 3.2000000476837158203 2.5999999046325683594 1.8999999761581420898 1.7000000476837158203 1.2999999523162841797 1.6000000238418579102 1.7000000476837158203 2.2999999523162841797 2.9000000953674316406 3.0999999046325683594 3 3.2000000476837158203 3.0999999046325683594 2.7999999523162841797 2.7999999523162841797 3 3.0999999046325683594 2.9000000953674316406 3.0999999046325683594 4.6999998092651367188 4.6999998092651367188 4.5999999046325683594 4.6999998092651367188 4.9000000953674316406 4.9000000953674316406 4.9000000953674316406 4.5999999046325683594 4.0999999046325683594 3.7999999523162841797 -2.2999999523162841797 -2.2999999523162841797 -2.2999999523162841797 -2.2999999523162841797 -2.2999999523162841797 -2.2999999523162841797 -2.2999999523162841797 -2.2999999523162841797 -2.2999999523162841797 -2.2999999523162841797 -2.2999999523162841797 -2.2999999523162841797 -2.2999999523162841797 -2.2999999523162841797 -2.2999999523162841797 -2.2999999523162841797 -2.2999999523162841797 -2.2999999523162841797 -2.2999999523162841797 -2.2999999523162841797 -2.2999999523162841797 -2.2999999523162841797 -2.2999999523162841797 -2.2999999523162841797 -2.2999999523162841797 -2.2999999523162841797 5.5 4.9000000953674316406 4.4000000953674316406 4.5 4.8000001907348632812 4.5 4.5999999046325683594 4.3000001907348632812 4.5 4.1999998092651367188 3.7999999523162841797 3.5 4.1999998092651367188 4.5999999046325683594 5 5.1999998092651367188 5.5 6.6999998092651367188 7.6999998092651367188 8.8999996185302734375 9.1000003814697265625 10.100000381469726562 11.199999809265136719 11.699999809265136719 12.199999809265136719 12.199999809265136719 13.300000190734863281 
-2.2999999523162841797 -2.2999999523162841797 -2.2999999523162841797 3 6.6999998092651367188 6.5 5.5999999046325683594 5.5 5.5 5.6999998092651367188 5.6999998092651367188 5.0999999046325683594 4.6999998092651367188 4.9000000953674316406 4.4000000953674316406 4.4000000953674316406 4.0999999046325683594 3.9000000953674316406 3.7000000476837158203 3.4000000953674316406 0.69999998807907104492 3.5 3.2000000476837158203 3.2000000476837158203 3.5999999046325683594 3.2999999523162841797 3 2.5999999046325683594 2.5999999046325683594 2.7999999523162841797 3.4000000953674316406 3.9000000953674316406 3.7999999523162841797 3.5999999046325683594 3.4000000953674316406 3.4000000953674316406 3.2999999523162841797 3.0999999046325683594 2.7000000476837158203 2.9000000953674316406 2.9000000953674316406 2.2999999523162841797 2.7000000476837158203 3.0999999046325683594 3.2999999523162841797 3.4000000953674316406 3.4000000953674316406 3.2999999523162841797 3.2000000476837158203 3.0999999046325683594 3.5999999046325683594 3.5 3.0999999046325683594 2.7999999523162841797 2.7999999523162841797 2.7999999523162841797 2.7999999523162841797 2.7999999523162841797 2.7999999523162841797 3 2.9000000953674316406 2.5999999046325683594 2.4000000953674316406 2 2.2000000476837158203 2.4000000953674316406 2.2000000476837158203 1.7999999523162841797 1.7999999523162841797 1.7000000476837158203 1.7000000476837158203 1.7000000476837158203 1.7000000476837158203 2.2999999523162841797 3.0999999046325683594 2.4000000953674316406 2 2.2000000476837158203 2.5 0.89999997615814208984 1 2.0999999046325683594 2.4000000953674316406 2.4000000953674316406 2.2000000476837158203 2 1.6000000238418579102 1.5 1.5 2 2.7999999523162841797 2.5999999046325683594 2.2000000476837158203 2.0999999046325683594 2.9000000953674316406 2.5999999046325683594 2.5999999046325683594 1.8999999761581420898 1.5 1.2000000476837158203 1.5 1.8999999761581420898 1.3999999761581420898 1.2000000476837158203 4 3 1.7999999523162841797 1.2999999523162841797 0.80000001192092895508 0.5 1.6000000238418579102 2.0999999046325683594 3 5.5 3.0999999046325683594 2.7000000476837158203 2.7000000476837158203 2.7999999523162841797 5 2.7999999523162841797 2.2999999523162841797 2.7999999523162841797 2.7999999523162841797 2.4000000953674316406 2.5 2.9000000953674316406 3.0999999046325683594 3.0999999046325683594 3 3 2.9000000953674316406 2.9000000953674316406 3.0999999046325683594 3.2999999523162841797 3.5 3.4000000953674316406 3 4.5999999046325683594 5.0999999046325683594 5 4.8000001907348632812 4.8000001907348632812 4.9000000953674316406 5 4.5999999046325683594 4.8000001907348632812 4.8000001907348632812 4.8000001907348632812 -2.2999999523162841797 -2.2999999523162841797 -2.2999999523162841797 -2.2999999523162841797 -2.2999999523162841797 -2.2999999523162841797 -2.2999999523162841797 -2.2999999523162841797 -2.2999999523162841797 -2.2999999523162841797 -2.2999999523162841797 -2.2999999523162841797 -2.2999999523162841797 -2.2999999523162841797 -2.2999999523162841797 -2.2999999523162841797 -2.2999999523162841797 -2.2999999523162841797 -2.2999999523162841797 -2.2999999523162841797 -2.2999999523162841797 -2.2999999523162841797 -2.2999999523162841797 3.7000000476837158203 4 4.5 4.1999998092651367188 4.4000000953674316406 4.8000001907348632812 4.8000001907348632812 5 5.1999998092651367188 5.3000001907348632812 4.9000000953674316406 4.1999998092651367188 3.7000000476837158203 3.0999999046325683594 2.9000000953674316406 3.4000000953674316406 5.0999999046325683594 5.8000001907348632812 6.3000001907348632812 7.4000000953674316406 9.8999996185302734375 10.699999809265136719 11.100000381469726562 11.899999618530273438 13 13.5 14.800000190734863281 13.5 11.300000190734863281 
-2.2999999523162841797 -2.2999999523162841797 1.8999999761581420898 5.1999998092651367188 6.0999999046325683594 5.4000000953674316406 5.1999998092651367188 4.5999999046325683594 5 5.5 5.5 4.3000001907348632812 4.0999999046325683594 4.5 4.3000001907348632812 4.1999998092651367188 4.0999999046325683594 3.7999999523162841797 3.7000000476837158203 3.4000000953674316406 0.60000002384185791016 3.7000000476837158203 3.5 3.4000000953674316406 3.4000000953674316406 3.4000000953674316406 3.2000000476837158203 2.9000000953674316406 3.0999999046325683594 3.4000000953674316406 3.7000000476837158203 3.5 3.5999999046325683594 3.5 3.4000000953674316406 3.2999999523162841797 3.2000000476837158203 3 2.9000000953674316406 2.7999999523162841797 2.5999999046325683594 2.4000000953674316406 2.7999999523162841797 3 3.2000000476837158203 2.9000000953674316406 3 3.2999999523162841797 3.2000000476837158203 3.0999999046325683594 3.5 3.5999999046325683594 3.5999999046325683594 3 2.7000000476837158203 2.9000000953674316406 2.9000000953674316406 3 2.7999999523162841797 2.7000000476837158203 2.5999999046325683594 2.4000000953674316406 2.2000000476837158203 1.7999999523162841797 1.7000000476837158203 2.2999999523162841797 4.4000000953674316406 2.9000000953674316406 1.7000000476837158203 1.7000000476837158203 1.7000000476837158203 1.7999999523162841797 2 2.2999999523162841797 2.7999999523162841797 2.5 2.0999999046325683594 2.4000000953674316406 2.7000000476837158203 2.0999999046325683594 1.7999999523162841797 1.8999999761581420898 1.8999999761581420898 2.2000000476837158203 2.5 2.5999999046325683594 2.2000000476837158203 2.0999999046325683594 2.5999999046325683594 3.2000000476837158203 3.4000000953674316406 3.2000000476837158203 3 3 3.4000000953674316406 3 3.5 3.2999999523162841797 2.9000000953674316406 3.7000000476837158203 3.2999999523162841797 3 2.2000000476837158203 1.7000000476837158203 2.7999999523162841797 2.5999999046325683594 1.7000000476837158203 2 1.8999999761581420898 1.7000000476837158203 1.8999999761581420898 2.5 2.0999999046325683594 2.0999999046325683594 2.2999999523162841797 2.4000000953674316406 2.5999999046325683594 2.7999999523162841797 3.5 3 3.2999999523162841797 4 3.4000000953674316406 2.7000000476837158203 2.5 2.5 2.9000000953674316406 2.9000000953674316406 2.7999999523162841797 2.9000000953674316406 2.7999999523162841797 3.0999999046325683594 3.4000000953674316406 3.5999999046325683594 3.2000000476837158203 4.1999998092651367188 3.9000000953674316406 3.7999999523162841797 4.3000001907348632812 4.4000000953674316406 4.6999998092651367188 4.9000000953674316406 5 5.0999999046325683594 4.8000001907348632812 5.0999999046325683594 5.1999998092651367188 4.9000000953674316406 4.9000000953674316406 3.9000000953674316406 4.8000001907348632812 -2.2999999523162841797 -2.2999999523162841797 -2.2999999523162841797 -2.2999999523162841797 -2.2999999523162841797 -2.2999999523162841797 -2.2999999523162841797 -2.2999999523162841797 -2.2999999523162841797 -2.2999999523162841797 -2.2999999523162841797 -2.2999999523162841797 -2.2999999523162841797 -2.2999999523162841797 -2.2999999523162841797 -2.2999999523162841797 -2.2999999523162841797 -2.2999999523162841797 5 4.5999999046325683594 4.8000001907348632812 4.8000001907348632812 4.8000001907348632812 5 5.0999999046325683594 5.3000001907348632812 5.5 5.8000001907348632812 6 6.0999999046325683594 6 4.5999999046325683594 3.4000000953674316406 3.2999999523162841797 3 2.5999999046325683594 3.5999999046325683594 6.0999999046325683594 6.9000000953674316406 7.5 10.399999618530273438 12 11.899999618530273438 8.8999996185302734375 14.5 22.700000762939453125 21.100000381469726562 24.399999618530273438 27.600000381469726562 
-2.2999999523162841797 -2.2999999523162841797 5.3000001907348632812 6.1999998092651367188 5 4.3000001907348632812 4.5 4.3000001907348632812 4.5999999046325683594 5.0999999046325683594 4.8000001907348632812 4.1999998092651367188 4 4.0999999046325683594 4.0999999046325683594 4.0999999046325683594 4 3.7000000476837158203 3.2999999523162841797 6.0999999046325683594 -0.89999997615814208984 0.69999998807907104492 3.5999999046325683594 3.5 3.2999999523162841797 3.2999999523162841797 3.2999999523162841797 3.2000000476837158203 3.4000000953674316406 3.5 3.2000000476837158203 2.9000000953674316406 2.7999999523162841797 3.4000000953674316406 3.2999999523162841797 3.2000000476837158203 3.0999999046325683594 3 3.2000000476837158203 3 2.5999999046325683594 2.5999999046325683594 3 3.2999999523162841797 3.0999999046325683594 2.5999999046325683594 2.5 3 3.0999999046325683594 3.2000000476837158203 3.2000000476837158203 3.2000000476837158203 3.7999999523162841797 3.5 3.0999999046325683594 3 3 3 3.2000000476837158203 3 2.7000000476837158203 2.4000000953674316406 2.2999999523162841797 2.5 6 3.5 5.6999998092651367188 1.7000000476837158203 1.7000000476837158203 2.2000000476837158203 2 2 2.0999999046325683594 2.2000000476837158203 2.2999999523162841797 2.2999999523162841797 1.8999999761581420898 2.2999999523162841797 2.5999999046325683594 1.6000000238418579102 0.30000001192092895508 1.5 1.5 1.7999999523162841797 2.0999999046325683594 2.7000000476837158203 2.7999999523162841797 2.7999999523162841797 3.2999999523162841797 3.2000000476837158203 2.9000000953674316406 3 2.2999999523162841797 2.5999999046325683594 3.2000000476837158203 4.0999999046325683594 4.1999998092651367188 4.3000001907348632812 3.7000000476837158203 2.7999999523162841797 2.2999999523162841797 1.7000000476837158203 1.7999999523162841797 1.7999999523162841797 2.5999999046325683594 2.0999999046325683594 2 2.7999999523162841797 2.5 2.5 3.5 2.5999999046325683594 2.5 2.2000000476837158203 8.6999998092651367188 2.2000000476837158203 2.7000000476837158203 3.2000000476837158203 5.5999999046325683594 6.4000000953674316406 3.5 3.7000000476837158203 3.7000000476837158203 3.4000000953674316406 2.7000000476837158203 2.4000000953674316406 2.2999999523162841797 2.5999999046325683594 2.7000000476837158203 2.7999999523162841797 3.0999999046325683594 3.5999999046325683594 3.7000000476837158203 3.7000000476837158203 3.2999999523162841797 3.9000000953674316406 4.1999998092651367188 4.0999999046325683594 4.1999998092651367188 4.3000001907348632812 4.8000001907348632812 5 5.0999999046325683594 5.0999999046325683594 5.3000001907348632812 5.3000001907348632812 5.1999998092651367188 5.3000001907348632812 5.5999999046325683594 5.4000000953674316406 5.9000000953674316406 5.6999998092651367188 -2.2999999523162841797 -2.2999999523162841797 -2.2999999523162841797 -2.2999999523162841797 -2.2999999523162841797 -2.2999999523162841797 -2.2999999523162841797 -2.2999999523162841797 -2.2999999523162841797 -2.2999999523162841797 -2.2999999523162841797 -2.2999999523162841797 -2.2999999523162841797 -2.2999999523162841797 4.5999999046325683594 4.9000000953674316406 5.0999999046325683594 5.0999999046325683594 5 5.3000001907348632812 5.8000001907348632812 5.5999999046325683594 6 6.3000001907348632812 6 6.1999998092651367188 6.5 6.8000001907348632812 7.0999999046325683594 6.8000001907348632812 4.3000001907348632812 3.9000000953674316406 4.0999999046325683594 4.1999998092651367188 3.9000000953674316406 4.4000000953674316406 7.3000001907348632812 7.6999998092651367188 8.1999998092651367188 19.399999618530273438 18.5 15.300000190734863281 19.299999237060546875 29.700000762939453125 31.700000762939453125 29.100000381469726562 30.299999237060546875 39.59999847412109375 
3.4000000953674316406 4.4000000953674316406 4.8000001907348632812 4.5999999046325683594 4.5 4.5 4.4000000953674316406 4.0999999046325683594 4.1999998092651367188 3.7999999523162841797 4.1999998092651367188 4.4000000953674316406 4.4000000953674316406 4.1999998092651367188 4.0999999046325683594 4 3.7000000476837158203 3.5999999046325683594 3.2000000476837158203 3.7000000476837158203 4.0999999046325683594 4 3.5999999046325683594 3.5 3.2999999523162841797 3.2000000476837158203 3.2000000476837158203 3.2999999523162841797 3.2999999523162841797 3.2999999523162841797 3 2.7000000476837158203 2.7000000476837158203 3.2000000476837158203 3.2000000476837158203 3.2000000476837158203 3.0999999046325683594 3.2000000476837158203 3.2999999523162841797 3 2.7999999523162841797 3 3.2000000476837158203 3.0999999046325683594 3 2.7000000476837158203 2.2999999523162841797 2.5999999046325683594 2.5999999046325683594 2.7000000476837158203 2.7000000476837158203 2.5 2.9000000953674316406 3 2.7999999523162841797 3 2.7999999523162841797 2.7999999523162841797 2.7000000476837158203 2.5999999046325683594 2.5999999046325683594 2.4000000953674316406 2.7000000476837158203 2.7000000476837158203 4.8000001907348632812 2.9000000953674316406 2.4000000953674316406 2.4000000953674316406 2.5 2.7000000476837158203 2.0999999046325683594 2 2.0999999046325683594 2.0999999046325683594 2.2999999523162841797 2.4000000953674316406 1.8999999761581420898 2.0999999046325683594 3.2000000476837158203 2.7999999523162841797 1.7999999523162841797 1.7000000476837158203 1.8999999761581420898 2.0999999046325683594 2.2000000476837158203 2.5999999046325683594 2.7999999523162841797 3.0999999046325683594 3.5999999046325683594 3.5 2.7999999523162841797 2.4000000953674316406 2.7000000476837158203 2.2000000476837158203 3.2000000476837158203 4.0999999046325683594 4.4000000953674316406 4.3000001907348632812 4 3.2999999523162841797 2.5 1.6000000238418579102 1.6000000238418579102 1.7999999523162841797 2.0999999046325683594 1.8999999761581420898 1.7999999523162841797 2.5999999046325683594 1.7000000476837158203 1.7999999523162841797 3.2000000476837158203 4.3000001907348632812 2.9000000953674316406 3.2000000476837158203 4 2.2000000476837158203 2.7999999523162841797 3.0999999046325683594 7.4000000953674316406 8 4.5 2.5 3.5 3.5 2.5999999046325683594 2.7999999523162841797 2.4000000953674316406 2.7999999523162841797 2.7999999523162841797 2.9000000953674316406 3.4000000953674316406 3.5999999046325683594 4 3.7000000476837158203 3.7999999523162841797 4.0999999046325683594 3.5999999046325683594 4.1999998092651367188 4.5999999046325683594 4.5 4.9000000953674316406 4.9000000953674316406 5 4.8000001907348632812 5.1999998092651367188 5.4000000953674316406 4.9000000953674316406 5.0999999046325683594 5.3000001907348632812 5.5 5.6999998092651367188 5.8000001907348632812 4.5 -2.2999999523162841797 -2.2999999523162841797 4.5999999046325683594 3.7999999523162841797 2.2999999523162841797 5 4.6999998092651367188 2.2999999523162841797 2.5999999046325683594 3.0999999046325683594 3.2999999523162841797 5 4.4000000953674316406 4.8000001907348632812 5.0999999046325683594 5.1999998092651367188 5 5.1999998092651367188 5.6999998092651367188 6.6999998092651367188 6.4000000953674316406 6.8000001907348632812 6.6999998092651367188 6.9000000953674316406 7.4000000953674316406 7.4000000953674316406 8 8.3000001907348632812 3.9000000953674316406 5.1999998092651367188 5.6999998092651367188 7.0999999046325683594 7.8000001907348632812 7.6999998092651367188 9.6000003814697265625 11.899999618530273438 18.100000381469726562 23.700000762939453125 24.5 24.100000381469726562 23.299999237060546875 24.600000381469726562 28.5 32.40000152587890625 33.59999847412109375 38.200000762939453125 39.200000762939453125 
4 4.1999998092651367188 4.3000001907348632812 4.4000000953674316406 4.4000000953674316406 4.4000000953674316406 4.5 4.5 4.1999998092651367188 4.1999998092651367188 4.5 4.8000001907348632812 4.5 4.3000001907348632812 4.1999998092651367188 3.7000000476837158203 3.2999999523162841797 3.5999999046325683594 3.5 3.5999999046325683594 4 3.7999999523162841797 3.5999999046325683594 3.5 3.4000000953674316406 3.2000000476837158203 3.0999999046325683594 3.2999999523162841797 3.0999999046325683594 3.0999999046325683594 2.9000000953674316406 2.5999999046325683594 2.7999999523162841797 3 3.0999999046325683594 3.0999999046325683594 3.0999999046325683594 3.2999999523162841797 3.2999999523162841797 2.9000000953674316406 2.9000000953674316406 3.0999999046325683594 3.0999999046325683594 3 2.9000000953674316406 2.7000000476837158203 2.4000000953674316406 2.5 2.9000000953674316406 2.5 2.5999999046325683594 2.2999999523162841797 2.4000000953674316406 2.5 2.9000000953674316406 2.9000000953674316406 2.7000000476837158203 2.5999999046325683594 2.4000000953674316406 2.2999999523162841797 2.5 2.7999999523162841797 2.7000000476837158203 3 3.5 3.5999999046325683594 3.2999999523162841797 4.3000001907348632812 3.5999999046325683594 2.5999999046325683594 2.2999999523162841797 2.0999999046325683594 2 2.0999999046325683594 2.4000000953674316406 2.5 2.0999999046325683594 2.0999999046325683594 4.3000001907348632812 3.5 2.2000000476837158203 2 2.2000000476837158203 2.4000000953674316406 2.5 2.5999999046325683594 2.9000000953674316406 3.0999999046325683594 3.2000000476837158203 3.5999999046325683594 3.2000000476837158203 2.7999999523162841797 2.7999999523162841797 2.5999999046325683594 2.5 4.6999998092651367188 4.5999999046325683594 4.1999998092651367188 3.5999999046325683594 3.0999999046325683594 2.4000000953674316406 1.8999999761581420898 1.5 1.7999999523162841797 1.7999999523162841797 2.0999999046325683594 3.5999999046325683594 2.0999999046325683594 1.7000000476837158203 2.2999999523162841797 4.1999998092651367188 7.6999998092651367188 3 3.2999999523162841797 4 8.6000003814697265625 2.9000000953674316406 2.9000000953674316406 6.8000001907348632812 8 5.0999999046325683594 2.4000000953674316406 2.0999999046325683594 2.4000000953674316406 3.2000000476837158203 2.7000000476837158203 2.7000000476837158203 3.2000000476837158203 3 3 3.2000000476837158203 3.5 4.1999998092651367188 4.4000000953674316406 4.3000001907348632812 4.3000001907348632812 3.7999999523162841797 4.0999999046325683594 4.5 5 5.0999999046325683594 5.0999999046325683594 4.9000000953674316406 4.8000001907348632812 5.3000001907348632812 5.6999998092651367188 5.5 5.4000000953674316406 5.3000001907348632812 5.0999999046325683594 5.4000000953674316406 5.9000000953674316406 5 -2.2999999523162841797 -2.2999999523162841797 3.2999999523162841797 4.5999999046325683594 4.5999999046325683594 3.7999999523162841797 5.0999999046325683594 4.3000001907348632812 3.2000000476837158203 3.5999999046325683594 3.7000000476837158203 3.7999999523162841797 4.3000001907348632812 4.6999998092651367188 5.0999999046325683594 5.3000001907348632812 5.5 5.8000001907348632812 5.6999998092651367188 7.1999998092651367188 7.5 7.9000000953674316406 8.6999998092651367188 8.8000001907348632812 9.5 10 10.199999809265136719 11.100000381469726562 12 13.100000381469726562 7.9000000953674316406 8.6000003814697265625 9.3999996185302734375 8.6000003814697265625 8.5 11 24.799999237060546875 32.799999237060546875 29.700000762939453125 26.700000762939453125 26.799999237060546875 27.600000381469726562 32.40000152587890625 37.200000762939453125 39 40.200000762939453125 39.799999237060546875 
3.0999999046325683594 3.7000000476837158203 3.9000000953674316406 4.3000001907348632812 4.3000001907348632812 4.3000001907348632812 4.3000001907348632812 4.3000001907348632812 4.1999998092651367188 4.6999998092651367188 4.9000000953674316406 4.4000000953674316406 4.1999998092651367188 4.1999998092651367188 4.1999998092651367188 4.1999998092651367188 3.9000000953674316406 3.7000000476837158203 3.7999999523162841797 3.9000000953674316406 3.7999999523162841797 3.5999999046325683594 3.5 3.2999999523162841797 3.2999999523162841797 3.0999999046325683594 3.0999999046325683594 3.4000000953674316406 3.0999999046325683594 2.9000000953674316406 2.7000000476837158203 2.4000000953674316406 2.5999999046325683594 2.7999999523162841797 2.7999999523162841797 2.9000000953674316406 3 3.0999999046325683594 3.2999999523162841797 3 2.9000000953674316406 2.7999999523162841797 2.9000000953674316406 3 2.7999999523162841797 2.5999999046325683594 2.7000000476837158203 2.5999999046325683594 2.5999999046325683594 2.5999999046325683594 2.5 2.2999999523162841797 2.5 2.7000000476837158203 3.0999999046325683594 2.9000000953674316406 2.7000000476837158203 2.5 2.2999999523162841797 2.2000000476837158203 2.0999999046325683594 2.2999999523162841797 2.2999999523162841797 2.7999999523162841797 3.2999999523162841797 3.4000000953674316406 3.5 5.6999998092651367188 7.6999998092651367188 2.5999999046325683594 2.7999999523162841797 2.9000000953674316406 2.5999999046325683594 2.2000000476837158203 2.5 2.5 2.5 2.2999999523162841797 5.6999998092651367188 4 2.9000000953674316406 3.4000000953674316406 3.7999999523162841797 3.7999999523162841797 3 3.2000000476837158203 2.9000000953674316406 2.9000000953674316406 2.9000000953674316406 2.9000000953674316406 3.5999999046325683594 3.5 3.4000000953674316406 3.0999999046325683594 1.7000000476837158203 4.0999999046325683594 4.5 4 3.2000000476837158203 2.9000000953674316406 2.5 2.4000000953674316406 2 1.6000000238418579102 1.7999999523162841797 2.2000000476837158203 4.3000001907348632812 2.4000000953674316406 1.7999999523162841797 2.4000000953674316406 4.6999998092651367188 12.300000190734863281 4.0999999046325683594 3.2999999523162841797 4.1999998092651367188 6.9000000953674316406 3.2000000476837158203 2.9000000953674316406 3.7000000476837158203 8 3.2999999523162841797 2.2999999523162841797 6.5999999046325683594 2.2000000476837158203 2.2000000476837158203 2.5999999046325683594 3.2999999523162841797 4.0999999046325683594 3.7999999523162841797 3.5 3.2000000476837158203 3.7999999523162841797 4.0999999046325683594 4.0999999046325683594 4.4000000953674316406 3.7000000476837158203 3.5999999046325683594 3.5999999046325683594 4.1999998092651367188 4.6999998092651367188 5 4.6999998092651367188 4.8000001907348632812 5.0999999046325683594 5.5 5.3000001907348632812 5.8000001907348632812 5.5999999046325683594 5.4000000953674316406 5.0999999046325683594 4.9000000953674316406 4.8000001907348632812 4.5999999046325683594 4.3000001907348632812 -2.2999999523162841797 -2.2999999523162841797 -2.2999999523162841797 3.7999999523162841797 5.0999999046325683594 4.5999999046325683594 3.5999999046325683594 3 3.0999999046325683594 3.0999999046325683594 3.5 3.9000000953674316406 4.4000000953674316406 4.9000000953674316406 5.5 6.0999999046325683594 6.3000001907348632812 6.6999998092651367188 7.6999998092651367188 8.1000003814697265625 8.6999998092651367188 9 9.1999998092651367188 9.3999996185302734375 9.6999998092651367188 10.699999809265136719 11.899999618530273438 13.399999618530273438 14.699999809265136719 16 21.200000762939453125 26.100000381469726562 22.100000381469726562 14.399999618530273438 31.899999618530273438 38.5 37.09999847412109375 32.90000152587890625 29.700000762939453125 30.799999237060546875 32.700000762939453125 36.90000152587890625 39.09999847412109375 39.90000152587890625 40.59999847412109375 39.700000762939453125 
2.5999999046325683594 3.0999999046325683594 3.5999999046325683594 4.0999999046325683594 4.1999998092651367188 4.1999998092651367188 4.0999999046325683594 4.0999999046325683594 3.9000000953674316406 4.6999998092651367188 4.5999999046325683594 4.0999999046325683594 4 4 4 4.0999999046325683594 4 4 3.9000000953674316406 3.7999999523162841797 3.5999999046325683594 3.5 3.5999999046325683594 3.4000000953674316406 3.2999999523162841797 3.0999999046325683594 3.2999999523162841797 3.5 3.2000000476837158203 2.9000000953674316406 2.5999999046325683594 2.4000000953674316406 2.2999999523162841797 2.4000000953674316406 2.5999999046325683594 2.9000000953674316406 2.9000000953674316406 3.0999999046325683594 3.2999999523162841797 3.0999999046325683594 3 2.9000000953674316406 2.7999999523162841797 2.9000000953674316406 2.7999999523162841797 2.5999999046325683594 2.9000000953674316406 3.2000000476837158203 3 2.7999999523162841797 2.7000000476837158203 2.7000000476837158203 2.2000000476837158203 2.7000000476837158203 2.7000000476837158203 2.9000000953674316406 3 3.5 2.7999999523162841797 2.5999999046325683594 2.2000000476837158203 2.5999999046325683594 2.5999999046325683594 2.5999999046325683594 3 2.5999999046325683594 2.7000000476837158203 3.2999999523162841797 3.7000000476837158203 3.4000000953674316406 3.4000000953674316406 3.4000000953674316406 3.0999999046325683594 2.7999999523162841797 2.5999999046325683594 2.7000000476837158203 2.9000000953674316406 3 5.5 5.3000001907348632812 4.5999999046325683594 4.5999999046325683594 4.5999999046325683594 4.8000001907348632812 3.7000000476837158203 3.2999999523162841797 2.9000000953674316406 2.7999999523162841797 2.7999999523162841797 2.7999999523162841797 2.7000000476837158203 3.4000000953674316406 3.5999999046325683594 3.2000000476837158203 3.2000000476837158203 3.2000000476837158203 4.0999999046325683594 4.3000001907348632812 3.2000000476837158203 2.9000000953674316406 2.5999999046325683594 2.4000000953674316406 1.8999999761581420898 1.5 2.2000000476837158203 2.5999999046325683594 3.4000000953674316406 2.2000000476837158203 1.8999999761581420898 2.2000000476837158203 7.0999999046325683594 11 9.3000001907348632812 4.3000001907348632812 4.5 5.4000000953674316406 8.6000003814697265625 3.5999999046325683594 8 8 3.5 2.9000000953674316406 2.5 2.2999999523162841797 2.2999999523162841797 5.5 6.0999999046325683594 5.8000001907348632812 11.199999809265136719 4.1999998092651367188 3.5999999046325683594 3.2000000476837158203 3.2999999523162841797 3.4000000953674316406 3.5 3.7000000476837158203 3.5999999046325683594 3.2999999523162841797 3.9000000953674316406 4.5 5.0999999046325683594 5.3000001907348632812 5.4000000953674316406 5.6999998092651367188 6.0999999046325683594 5.4000000953674316406 5.6999998092651367188 5.9000000953674316406 5.0999999046325683594 4.5 4.1999998092651367188 3.7000000476837158203 3.2999999523162841797 4 3.7000000476837158203 3.4000000953674316406 -2.2999999523162841797 3.2999999523162841797 3 4.5999999046325683594 3.7000000476837158203 3.5 3.4000000953674316406 3.4000000953674316406 3.7000000476837158203 4.4000000953674316406 4.9000000953674316406 5.3000001907348632812 5.8000001907348632812 5.8000001907348632812 6.6999998092651367188 7.8000001907348632812 8.1999998092651367188 8.5 9.3000001907348632812 9.8000001907348632812 10 9.8000001907348632812 10.100000381469726562 12.899999618530273438 14.5 16.899999618530273438 17.5 20.600000381469726562 26.399999618530273438 29 30.600000381469726562 40.90000152587890625 40.799999237060546875 39 38 35.90000152587890625 34.200000762939453125 35.200000762939453125 37.200000762939453125 39 40.09999847412109375 40.40000152587890625 40.40000152587890625 39.40000152587890625 
2.4000000953674316406 2.7999999523162841797 3.2999999523162841797 3.7000000476837158203 3.4000000953674316406 3.5 3.5999999046325683594 3.7999999523162841797 3.7999999523162841797 4.0999999046325683594 4.1999998092651367188 3.7999999523162841797 3.9000000953674316406 4.1999998092651367188 4.1999998092651367188 4.0999999046325683594 4 3.9000000953674316406 3.7999999523162841797 3.5999999046325683594 3.5 3.7000000476837158203 3.5999999046325683594 3.7000000476837158203 3.7000000476837158203 3.4000000953674316406 3.4000000953674316406 3.5 3.4000000953674316406 3 3.0999999046325683594 2.7000000476837158203 2.5 2.5 2.7000000476837158203 2.9000000953674316406 2.7999999523162841797 3 3.2000000476837158203 3.0999999046325683594 3 2.7999999523162841797 2.9000000953674316406 2.9000000953674316406 2.7999999523162841797 2.5999999046325683594 2.9000000953674316406 3.0999999046325683594 3 2.7999999523162841797 2.7000000476837158203 2.9000000953674316406 3.4000000953674316406 3.7999999523162841797 4.9000000953674316406 7.1999998092651367188 4 4.9000000953674316406 4 3.5 2.5 2.7999999523162841797 2.7000000476837158203 2.7000000476837158203 3.0999999046325683594 2.7000000476837158203 2.9000000953674316406 3 2.9000000953674316406 2.7999999523162841797 2.7000000476837158203 2.5999999046325683594 2.2999999523162841797 2.2999999523162841797 2.2000000476837158203 1.7999999523162841797 2.5 3.2000000476837158203 4.6999998092651367188 4.9000000953674316406 5.1999998092651367188 5 4.9000000953674316406 4.5999999046325683594 3.9000000953674316406 3.5 3.2000000476837158203 2.7000000476837158203 2.7999999523162841797 2.7999999523162841797 2.7999999523162841797 2.9000000953674316406 3.7000000476837158203 3.2999999523162841797 3.2000000476837158203 3.4000000953674316406 3.5 3.4000000953674316406 3.5 2.7999999523162841797 2.5999999046325683594 2.4000000953674316406 2.0999999046325683594 1.6000000238418579102 2.0999999046325683594 2.7999999523162841797 3.2000000476837158203 1.8999999761581420898 1.6000000238418579102 2.5 8.8999996185302734375 9.1000003814697265625 10 5 4 4.5 6.4000000953674316406 4.3000001907348632812 8.3999996185302734375 8 2.9000000953674316406 2.7000000476837158203 2.5999999046325683594 2.5999999046325683594 2.5999999046325683594 3 3.2999999523162841797 3.2999999523162841797 6.3000001907348632812 5.5999999046325683594 4.1999998092651367188 3.4000000953674316406 3.4000000953674316406 3.9000000953674316406 4.1999998092651367188 4.5 4.0999999046325683594 3.7000000476837158203 4.1999998092651367188 4.5 5.3000001907348632812 5.5 5 4.9000000953674316406 5.4000000953674316406 5.5 5.6999998092651367188 5.9000000953674316406 4.0999999046325683594 4.0999999046325683594 3.7999999523162841797 3.2999999523162841797 3.0999999046325683594 4 4.0999999046325683594 4.5 -2.2999999523162841797 4.1999998092651367188 5.4000000953674316406 4.5999999046325683594 4.3000001907348632812 4.1999998092651367188 4.0999999046325683594 4.1999998092651367188 4.6999998092651367188 4.6999998092651367188 5.5 6.0999999046325683594 6.5999999046325683594 7.3000001907348632812 7.3000001907348632812 7.9000000953674316406 8.8999996185302734375 9.6999998092651367188 11 11.100000381469726562 10.899999618530273438 10.600000381469726562 13.100000381469726562 15.800000190734863281 18.799999237060546875 21.299999237060546875 22.399999618530273438 24.200000762939453125 28 32.200000762939453125 34.90000152587890625 40.90000152587890625 40.799999237060546875 40.200000762939453125 39.200000762939453125 37.5 37.200000762939453125 37.799999237060546875 39.59999847412109375 39.200000762939453125 40 40.09999847412109375 40.200000762939453125 39.799999237060546875 
2.5 2.7999999523162841797 3.0999999046325683594 3.2000000476837158203 3.4000000953674316406 3.7000000476837158203 3.7000000476837158203 3.7000000476837158203 3.2999999523162841797 3.7000000476837158203 3.7000000476837158203 3.9000000953674316406 4.1999998092651367188 4.0999999046325683594 3.7999999523162841797 3.7999999523162841797 3.9000000953674316406 3.7999999523162841797 3.5999999046325683594 3.4000000953674316406 3.5999999046325683594 3.7000000476837158203 3.5 3.7999999523162841797 4.1999998092651367188 4 3.7999999523162841797 3.5999999046325683594 3.7999999523162841797 3.2999999523162841797 3.5 3 2.7000000476837158203 2.7000000476837158203 2.5 2.5999999046325683594 2.7000000476837158203 3 3 3 2.9000000953674316406 2.9000000953674316406 3 2.9000000953674316406 2.7000000476837158203 2.5999999046325683594 2.7999999523162841797 3 3.0999999046325683594 5.5999999046325683594 6.9000000953674316406 4.1999998092651367188 4.3000001907348632812 3.9000000953674316406 3.4000000953674316406 3.5 3.4000000953674316406 3.0999999046325683594 3.0999999046325683594 2.9000000953674316406 2.7000000476837158203 2.5 2.5 3.4000000953674316406 3.7999999523162841797 3.9000000953674316406 2.4000000953674316406 2.2000000476837158203 2.2000000476837158203 2.5999999046325683594 2.2999999523162841797 2.0999999046325683594 2 2 1.8999999761581420898 1.7999999523162841797 1.7999999523162841797 2.7999999523162841797 4 4.5 4.8000001907348632812 4.5999999046325683594 4.4000000953674316406 4.5 4.4000000953674316406 4.3000001907348632812 3.7000000476837158203 3 2.7999999523162841797 3 3.2000000476837158203 3.0999999046325683594 3.9000000953674316406 3.7000000476837158203 3.2999999523162841797 3 2.4000000953674316406 2.5 2.9000000953674316406 2.2999999523162841797 2.0999999046325683594 2.2000000476837158203 2.2000000476837158203 2.2000000476837158203 2.2999999523162841797 2.7999999523162841797 3.2000000476837158203 2 1.8999999761581420898 7.5 5.1999998092651367188 5.1999998092651367188 5.6999998092651367188 4.9000000953674316406 4.5 3.5 6 8.6000003814697265625 8.3999996185302734375 8.1000003814697265625 6.6999998092651367188 3.0999999046325683594 2.4000000953674316406 2.2999999523162841797 2.4000000953674316406 2.5999999046325683594 3 3.0999999046325683594 3.7000000476837158203 9.6000003814697265625 4.4000000953674316406 4.0999999046325683594 3.9000000953674316406 4.3000001907348632812 4.5 4.6999998092651367188 4.6999998092651367188 4.5 4.1999998092651367188 4.5 4.8000001907348632812 5.4000000953674316406 5.5999999046325683594 5.4000000953674316406 5.5 5.6999998092651367188 6.5 5.5999999046325683594 5.1999998092651367188 4.5 4.1999998092651367188 4.0999999046325683594 4.0999999046325683594 4.0999999046325683594 4.3000001907348632812 4.6999998092651367188 -2.2999999523162841797 5.1999998092651367188 4.6999998092651367188 4.4000000953674316406 4.3000001907348632812 4.9000000953674316406 4.9000000953674316406 4.9000000953674316406 5.5 5.5 6.0999999046325683594 6.8000001907348632812 7.0999999046325683594 8.1999998092651367188 7.6999998092651367188 8.6000003814697265625 9.6000003814697265625 10.899999618530273438 12 12.199999809265136719 12.699999809265136719 14.199999809265136719 16.799999237060546875 19.600000381469726562 23.100000381469726562 29.899999618530273438 30 31.799999237060546875 30.899999618530273438 37.09999847412109375 40.09999847412109375 41.299999237060546875 41.200000762939453125 41.09999847412109375 40.700000762939453125 39.59999847412109375 40.09999847412109375 40.59999847412109375 40.40000152587890625 40.200000762939453125 39.90000152587890625 40 40.200000762939453125 39.799999237060546875 
3 2.9000000953674316406 2.9000000953674316406 3.2999999523162841797 3.5 3.9000000953674316406 4.1999998092651367188 4 3.5999999046325683594 3.4000000953674316406 3.4000000953674316406 3.5999999046325683594 3.9000000953674316406 3.9000000953674316406 3.7999999523162841797 3.5 3.7000000476837158203 3.5999999046325683594 3.4000000953674316406 3.5 3.5999999046325683594 3.7999999523162841797 3.5 4 4.6999998092651367188 4.5999999046325683594 4.4000000953674316406 4.0999999046325683594 3.9000000953674316406 3.4000000953674316406 3.5 3.0999999046325683594 2.9000000953674316406 2.7999999523162841797 2.2999999523162841797 2.5 2.7000000476837158203 2.7000000476837158203 2.7999999523162841797 3 2.9000000953674316406 2.9000000953674316406 2.7999999523162841797 2.7999999523162841797 2.5999999046325683594 2.7000000476837158203 2.7000000476837158203 3.0999999046325683594 3.2000000476837158203 3.5 3.4000000953674316406 3.2999999523162841797 3.0999999046325683594 3 3.0999999046325683594 3.2000000476837158203 3 2.7000000476837158203 2.5 2.5 2.4000000953674316406 2.2999999523162841797 2.4000000953674316406 2.9000000953674316406 2.2999999523162841797 2.5 2.2000000476837158203 2.2000000476837158203 1.8999999761581420898 2.2000000476837158203 2.0999999046325683594 2.0999999046325683594 2.2000000476837158203 2.2999999523162841797 2.0999999046325683594 2.0999999046325683594 2.0999999046325683594 2.2999999523162841797 3.2999999523162841797 4.0999999046325683594 4.4000000953674316406 4.3000001907348632812 4.4000000953674316406 4.4000000953674316406 4.5999999046325683594 4.5999999046325683594 4 3.4000000953674316406 3.0999999046325683594 2.9000000953674316406 3.0999999046325683594 3.2000000476837158203 3.5999999046325683594 4.3000001907348632812 4 3.5 3.0999999046325683594 2.5999999046325683594 2.2000000476837158203 2.4000000953674316406 1.8999999761581420898 2 2 2.0999999046325683594 2.2999999523162841797 3.7000000476837158203 3.5999999046325683594 3.5 7.5999999046325683594 5.5 4 2.5 2.7999999523162841797 3.4000000953674316406 4.4000000953674316406 3.4000000953674316406 3.7999999523162841797 9.1000003814697265625 8.5 8.5 7.6999998092651367188 3.9000000953674316406 2.4000000953674316406 2.2000000476837158203 2.2999999523162841797 2.5999999046325683594 3 3.2999999523162841797 3.5999999046325683594 4.5 5.1999998092651367188 5.4000000953674316406 4.3000001907348632812 4.5999999046325683594 4.8000001907348632812 4.9000000953674316406 4.6999998092651367188 4.5 4.8000001907348632812 5.0999999046325683594 5.0999999046325683594 5.4000000953674316406 5.5999999046325683594 5.3000001907348632812 5 5.5999999046325683594 6.1999998092651367188 6.6999998092651367188 6 5.4000000953674316406 5.3000001907348632812 4.8000001907348632812 4.5999999046325683594 4.6999998092651367188 4.6999998092651367188 3.9000000953674316406 -2.2999999523162841797 4.6999998092651367188 4.3000001907348632812 3.7999999523162841797 4.0999999046325683594 4.9000000953674316406 5.5999999046325683594 5.5999999046325683594 6 6.4000000953674316406 6.6999998092651367188 7.1999998092651367188 7.6999998092651367188 8.5 9.3000001907348632812 9.3999996185302734375 10.300000190734863281 11.300000190734863281 12.5 13.5 14.100000381469726562 16.399999618530273438 18.200000762939453125 22.700000762939453125 34.700000762939453125 39.700000762939453125 38.09999847412109375 38.90000152587890625 34.90000152587890625 38.09999847412109375 40.5 41.59999847412109375 42.09999847412109375 42 41.09999847412109375 40.59999847412109375 41.200000762939453125 41.59999847412109375 41.299999237060546875 40.90000152587890625 40.5 40.299999237060546875 40.40000152587890625 39.700000762939453125 
3.2000000476837158203 2.7000000476837158203 2.7999999523162841797 3.4000000953674316406 3.9000000953674316406 4.3000001907348632812 4.5999999046325683594 4.5 4.0999999046325683594 3.7000000476837158203 3.5 3.5 3.5999999046325683594 3.5999999046325683594 3.5999999046325683594 4 3.9000000953674316406 3.9000000953674316406 3.7999999523162841797 3.5 3.5999999046325683594 3.9000000953674316406 4.0999999046325683594 4.6999998092651367188 4.8000001907348632812 4.6999998092651367188 4.5 4 3.7000000476837158203 3.0999999046325683594 3 3.2999999523162841797 3.0999999046325683594 2.9000000953674316406 2.7000000476837158203 2.7999999523162841797 2.4000000953674316406 2.7999999523162841797 2.9000000953674316406 2.9000000953674316406 2.7999999523162841797 2.5999999046325683594 2.7000000476837158203 2.7000000476837158203 2.9000000953674316406 2.9000000953674316406 2.7999999523162841797 3 3.2000000476837158203 3.0999999046325683594 3.0999999046325683594 2.9000000953674316406 2.7999999523162841797 3 3 2.9000000953674316406 2.7999999523162841797 2.5999999046325683594 2.5 2.4000000953674316406 2.2000000476837158203 2.2000000476837158203 2.4000000953674316406 2.5999999046325683594 2.7000000476837158203 2.4000000953674316406 2.4000000953674316406 2.4000000953674316406 2.2999999523162841797 2 2 2 2.2000000476837158203 2.2999999523162841797 2.4000000953674316406 2.4000000953674316406 2.2999999523162841797 2.7999999523162841797 3.2000000476837158203 3.4000000953674316406 4.1999998092651367188 4.1999998092651367188 4.3000001907348632812 4.4000000953674316406 4.4000000953674316406 4.5999999046325683594 4.0999999046325683594 3.5 3.0999999046325683594 3 3.0999999046325683594 3.2999999523162841797 3.2999999523162841797 3.9000000953674316406 3.2000000476837158203 3.2000000476837158203 3.0999999046325683594 3 2.2000000476837158203 2.2999999523162841797 2.0999999046325683594 1.8999999761581420898 1.8999999761581420898 2 3.2999999523162841797 6.5999999046325683594 4.5999999046325683594 6.4000000953674316406 3.2999999523162841797 3.2999999523162841797 2.7999999523162841797 2.7999999523162841797 3.0999999046325683594 3.2000000476837158203 3.5999999046325683594 3.5 3.7000000476837158203 6.1999998092651367188 8.6000003814697265625 8.6000003814697265625 8 4.5 2.7000000476837158203 2.2000000476837158203 2.2000000476837158203 2.4000000953674316406 3 3.4000000953674316406 3.7000000476837158203 3.2999999523162841797 8.6999998092651367188 7.9000000953674316406 4.6999998092651367188 4.4000000953674316406 4.6999998092651367188 5 4.8000001907348632812 4.5999999046325683594 5.3000001907348632812 5.3000001907348632812 5.5 5.3000001907348632812 5.8000001907348632812 5.8000001907348632812 5.1999998092651367188 5 5.5 6.4000000953674316406 6.3000001907348632812 5.5999999046325683594 5.3000001907348632812 5 4.9000000953674316406 -2.2999999523162841797 -2.2999999523162841797 -2.2999999523162841797 4.6999998092651367188 3.7000000476837158203 4 3.9000000953674316406 4.5 4.8000001907348632812 5.5 6.3000001907348632812 6.8000001907348632812 3.9000000953674316406 7.3000001907348632812 7.6999998092651367188 8.3000001907348632812 9.3000001907348632812 10.300000190734863281 10.800000190734863281 11.800000190734863281 12.800000190734863281 13.600000381469726562 14.5 15.5 16.899999618530273438 19.5 22 30.100000381469726562 35 40.90000152587890625 40.5 40.59999847412109375 39.90000152587890625 40.90000152587890625 42 42.5 42 41.700000762939453125 41.700000762939453125 41.700000762939453125 41.90000152587890625 41.09999847412109375 41 40.90000152587890625 40.700000762939453125 40.200000762939453125 39.59999847412109375 
3.2999999523162841797 2.9000000953674316406 3.2000000476837158203 3.9000000953674316406 4.5999999046325683594 4.9000000953674316406 4.5999999046325683594 4.5 4.5 4.1999998092651367188 3.9000000953674316406 3.7999999523162841797 3.9000000953674316406 4 4.3000001907348632812 4.4000000953674316406 4.1999998092651367188 4.3000001907348632812 4.1999998092651367188 4 3.7000000476837158203 4.0999999046325683594 4.5999999046325683594 5.0999999046325683594 5 4.6999998092651367188 4.5 3.9000000953674316406 3.5 2.9000000953674316406 3.0999999046325683594 3.4000000953674316406 3.4000000953674316406 3.0999999046325683594 3.2000000476837158203 3.4000000953674316406 2.5999999046325683594 2.7999999523162841797 2.9000000953674316406 2.9000000953674316406 2.9000000953674316406 2.7999999523162841797 2.7999999523162841797 3 3.2000000476837158203 3.0999999046325683594 3.2000000476837158203 3.2999999523162841797 3.2000000476837158203 3.0999999046325683594 3 2.9000000953674316406 2.9000000953674316406 3 3.0999999046325683594 3.5 3.5 2.7000000476837158203 2.7999999523162841797 2.7999999523162841797 2.5 2 2 2 2.0999999046325683594 2.2000000476837158203 2.2999999523162841797 2.5 2.2000000476837158203 1.7000000476837158203 1.8999999761581420898 2 2.2999999523162841797 2.5 2.7999999523162841797 2.5999999046325683594 2.7999999523162841797 3.2999999523162841797 3.2000000476837158203 3 4 4 4 4.0999999046325683594 4.1999998092651367188 4.3000001907348632812 4.1999998092651367188 3.5 3 3.0999999046325683594 3.2000000476837158203 2.9000000953674316406 2.9000000953674316406 2.9000000953674316406 2.7999999523162841797 2.7000000476837158203 3 3.0999999046325683594 2.7999999523162841797 2.7000000476837158203 2.4000000953674316406 2.5999999046325683594 1.7000000476837158203 2.5999999046325683594 3.7000000476837158203 9.6000003814697265625 4.4000000953674316406 3.5999999046325683594 3.2999999523162841797 2.7999999523162841797 2.4000000953674316406 2.5 2.4000000953674316406 2.7000000476837158203 2.7999999523162841797 3.2999999523162841797 3.2999999523162841797 3.7000000476837158203 9.3999996185302734375 8.6000003814697265625 8.6000003814697265625 5.5999999046325683594 3.0999999046325683594 2 2.0999999046325683594 2.2999999523162841797 3.0999999046325683594 3.4000000953674316406 3.5 4 5.5999999046325683594 4.8000001907348632812 4.5999999046325683594 4.5 4.5999999046325683594 4.9000000953674316406 4.8000001907348632812 4.9000000953674316406 5.0999999046325683594 5.0999999046325683594 5.4000000953674316406 5.4000000953674316406 5.6999998092651367188 5.9000000953674316406 5.5999999046325683594 5.4000000953674316406 5.5999999046325683594 5.9000000953674316406 6.1999998092651367188 6 5.5 4.9000000953674316406 5 -2.2999999523162841797 2.4000000953674316406 4.5 3.5999999046325683594 3.7999999523162841797 3.9000000953674316406 4.3000001907348632812 4.9000000953674316406 5.1999998092651367188 5.5 6.6999998092651367188 7.5 7.6999998092651367188 7.9000000953674316406 8.1000003814697265625 9.1000003814697265625 10.199999809265136719 11.100000381469726562 12.300000190734863281 13.399999618530273438 14.300000190734863281 15.199999809265136719 16.200000762939453125 18.5 20 23.299999237060546875 22.299999237060546875 22.700000762939453125 26.200000762939453125 32.40000152587890625 39.59999847412109375 38.299999237060546875 39.40000152587890625 40.700000762939453125 42.40000152587890625 42.59999847412109375 42.40000152587890625 42.200000762939453125 42.09999847412109375 41.299999237060546875 41.299999237060546875 41.200000762939453125 41.200000762939453125 41.200000762939453125 40.799999237060546875 40.299999237060546875 39.90000152587890625 
3.2000000476837158203 3.5999999046325683594 3.7999999523162841797 4.5 5.0999999046325683594 5.0999999046325683594 4.8000001907348632812 4.5 4.5 4.5999999046325683594 4.1999998092651367188 4.0999999046325683594 4.1999998092651367188 4.3000001907348632812 4.5999999046325683594 4.5 4.4000000953674316406 4.5999999046325683594 4.5999999046325683594 4.3000001907348632812 4.0999999046325683594 4.3000001907348632812 4.9000000953674316406 5.4000000953674316406 5.5999999046325683594 5.5 3.9000000953674316406 3.2999999523162841797 2.9000000953674316406 3.5 3.2000000476837158203 3.4000000953674316406 3.5999999046325683594 4.0999999046325683594 3.5999999046325683594 3.5999999046325683594 3.2000000476837158203 3.2000000476837158203 3.5 3.2000000476837158203 3 3 2.9000000953674316406 3.2000000476837158203 3.2999999523162841797 3.2999999523162841797 3.4000000953674316406 3.4000000953674316406 3.2999999523162841797 3.2999999523162841797 3.0999999046325683594 3.2000000476837158203 3.0999999046325683594 3.0999999046325683594 3.0999999046325683594 3.0999999046325683594 3.0999999046325683594 2.7999999523162841797 2.7000000476837158203 2.9000000953674316406 2.7000000476837158203 2.2000000476837158203 2 2 2.2000000476837158203 2.2000000476837158203 2.2000000476837158203 2.2999999523162841797 2.0999999046325683594 2.4000000953674316406 2.5999999046325683594 2.5999999046325683594 2.5999999046325683594 2.9000000953674316406 2.9000000953674316406 2.9000000953674316406 3.2000000476837158203 3.9000000953674316406 3.7999999523162841797 3.5 3.9000000953674316406 3.7999999523162841797 3.7999999523162841797 4.0999999046325683594 4.3000001907348632812 4.5 4.0999999046325683594 3.7000000476837158203 3.0999999046325683594 3.2000000476837158203 3.2000000476837158203 2.9000000953674316406 2.5999999046325683594 2.5999999046325683594 2.5999999046325683594 2.5999999046325683594 2.7000000476837158203 3 2.9000000953674316406 2.9000000953674316406 2.7000000476837158203 2.7999999523162841797 2.5999999046325683594 3.2999999523162841797 3.7000000476837158203 5 3.7000000476837158203 3.2000000476837158203 3.4000000953674316406 2.7000000476837158203 2.7000000476837158203 2.7000000476837158203 2.7000000476837158203 2.7000000476837158203 2.9000000953674316406 2.7000000476837158203 2.9000000953674316406 3.7000000476837158203 3.5 8.6000003814697265625 8.6000003814697265625 6.3000001907348632812 4.0999999046325683594 1.7999999523162841797 1.8999999761581420898 2.4000000953674316406 3.0999999046325683594 3.4000000953674316406 3.2999999523162841797 3.4000000953674316406 4.1999998092651367188 6.0999999046325683594 4.6999998092651367188 4.6999998092651367188 4.5999999046325683594 5.0999999046325683594 5.1999998092651367188 5.1999998092651367188 5 4.9000000953674316406 5.1999998092651367188 5.4000000953674316406 5.4000000953674316406 5.4000000953674316406 5.5 5.5999999046325683594 5.6999998092651367188 5.9000000953674316406 5.5999999046325683594 5.5 4.6999998092651367188 4.4000000953674316406 4.1999998092651367188 -2.2999999523162841797 3.7000000476837158203 3.7000000476837158203 3.7000000476837158203 3.9000000953674316406 4.0999999046325683594 4.5999999046325683594 5.1999998092651367188 5.6999998092651367188 6 7.5 7.6999998092651367188 8 8.6999998092651367188 9.5 10.300000190734863281 11.100000381469726562 12.100000381469726562 13.399999618530273438 14.800000190734863281 15.899999618530273438 17 19.299999237060546875 22.200000762939453125 25.299999237060546875 26.5 27.299999237060546875 27.399999618530273438 29.100000381469726562 29.600000381469726562 33.40000152587890625 36.700000762939453125 41 42.90000152587890625 43.200000762939453125 43.700000762939453125 43.09999847412109375 42.90000152587890625 42.59999847412109375 42.200000762939453125 42.09999847412109375 41.799999237060546875 41.40000152587890625 41.299999237060546875 41 40.5 40.200000762939453125 
3.0999999046325683594 3.5 4.3000001907348632812 5 5.1999998092651367188 5.1999998092651367188 5 4.8000001907348632812 4.9000000953674316406 4.6999998092651367188 4.4000000953674316406 4.3000001907348632812 4.3000001907348632812 4.4000000953674316406 4.8000001907348632812 4.6999998092651367188 4.5999999046325683594 4.4000000953674316406 4.3000001907348632812 4.3000001907348632812 4.1999998092651367188 4.5999999046325683594 5.0999999046325683594 5.4000000953674316406 5.5999999046325683594 5.1999998092651367188 3.9000000953674316406 3.2000000476837158203 3.7999999523162841797 3.7000000476837158203 3.2000000476837158203 3.2999999523162841797 3.2999999523162841797 3.7999999523162841797 3.5 3.5 3.2999999523162841797 3.2999999523162841797 3.5999999046325683594 3.4000000953674316406 3.2000000476837158203 3.2000000476837158203 3.0999999046325683594 3.2999999523162841797 3.4000000953674316406 3.2000000476837158203 3.2999999523162841797 3.4000000953674316406 3.2999999523162841797 3.2999999523162841797 3.2999999523162841797 3.4000000953674316406 3.4000000953674316406 3.2000000476837158203 3.2000000476837158203 3.2000000476837158203 3.0999999046325683594 2.9000000953674316406 2.7999999523162841797 2.9000000953674316406 2.7000000476837158203 2.5 2.2000000476837158203 2.2999999523162841797 2.2999999523162841797 2.2000000476837158203 2.2000000476837158203 2.2999999523162841797 2.7000000476837158203 2.9000000953674316406 2.9000000953674316406 2.9000000953674316406 3 3.2000000476837158203 3.2000000476837158203 3.0999999046325683594 3.2000000476837158203 3 3.2000000476837158203 3.4000000953674316406 3.5 3.5999999046325683594 4 4.3000001907348632812 4.5 4.4000000953674316406 4 3.5999999046325683594 3.2999999523162841797 3.5 3.2000000476837158203 2.7999999523162841797 2.7999999523162841797 2.7000000476837158203 2.5999999046325683594 2.7000000476837158203 2.7999999523162841797 2.9000000953674316406 3 3.2999999523162841797 3.0999999046325683594 3.0999999046325683594 3.2000000476837158203 3.2000000476837158203 3.4000000953674316406 3.0999999046325683594 3.0999999046325683594 3.2000000476837158203 3.4000000953674316406 3.4000000953674316406 3.0999999046325683594 2.7999999523162841797 2.7000000476837158203 2.7999999523162841797 2.9000000953674316406 2.7999999523162841797 2.7000000476837158203 3.0999999046325683594 3.2999999523162841797 8.1000003814697265625 8.6000003814697265625 7.5 4.6999998092651367188 2.7000000476837158203 1.8999999761581420898 2.2999999523162841797 2.9000000953674316406 3.5 3.7000000476837158203 3.5999999046325683594 3.5999999046325683594 4.9000000953674316406 5.6999998092651367188 5.1999998092651367188 5.0999999046325683594 5.4000000953674316406 5.5 5.3000001907348632812 5.0999999046325683594 5 5.5 5.3000001907348632812 5.3000001907348632812 5.3000001907348632812 5.4000000953674316406 5.9000000953674316406 5.4000000953674316406 5.6999998092651367188 4.9000000953674316406 4.9000000953674316406 4.6999998092651367188 4.3000001907348632812 3.7000000476837158203 -2.2999999523162841797 4.5999999046325683594 3.7000000476837158203 3.9000000953674316406 4.0999999046325683594 4.3000001907348632812 4.4000000953674316406 4.6999998092651367188 6.3000001907348632812 7.3000001907348632812 8 8 8.3999996185302734375 9.1999998092651367188 10.800000190734863281 11.699999809265136719 12.5 13.399999618530273438 14.699999809265136719 16.100000381469726562 17.299999237060546875 19.5 24.799999237060546875 33 36.40000152587890625 37.59999847412109375 37 34.799999237060546875 35.299999237060546875 34.59999847412109375 38.5 43 44 43.90000152587890625 43.90000152587890625 43.09999847412109375 43.299999237060546875 43.299999237060546875 42.799999237060546875 42.700000762939453125 42.5 42.09999847412109375 41.799999237060546875 41.5 41.200000762939453125 40.799999237060546875 40.40000152587890625 
2.9000000953674316406 3.4000000953674316406 4.6999998092651367188 5.4000000953674316406 5.5 5.1999998092651367188 5.0999999046325683594 5 4.9000000953674316406 4.6999998092651367188 4.5 4.3000001907348632812 4.3000001907348632812 4.6999998092651367188 4.8000001907348632812 4.9000000953674316406 4.8000001907348632812 4.5999999046325683594 4.1999998092651367188 4.0999999046325683594 4.5 4.5999999046325683594 5.0999999046325683594 5 5.5999999046325683594 4.5999999046325683594 4.4000000953674316406 3.7000000476837158203 4.0999999046325683594 3.7999999523162841797 3.2999999523162841797 3.2999999523162841797 3.4000000953674316406 3.5 3.5 3.4000000953674316406 3.2999999523162841797 3.2999999523162841797 3.4000000953674316406 3.4000000953674316406 3.4000000953674316406 3.5999999046325683594 3.7000000476837158203 3.4000000953674316406 3.4000000953674316406 3.0999999046325683594 3.2000000476837158203 3.2000000476837158203 3.2000000476837158203 3.2000000476837158203 3.2000000476837158203 3.2999999523162841797 3.4000000953674316406 3.2999999523162841797 3.2999999523162841797 3.0999999046325683594 3.0999999046325683594 3.0999999046325683594 3 2.7999999523162841797 2.7000000476837158203 2.5999999046325683594 2.5 2.4000000953674316406 2.4000000953674316406 2.2000000476837158203 2.0999999046325683594 2.4000000953674316406 2.7000000476837158203 3.0999999046325683594 3.2999999523162841797 3.2000000476837158203 3.2000000476837158203 3.2999999523162841797 3.2999999523162841797 3.2000000476837158203 3.2000000476837158203 3.0999999046325683594 3.2999999523162841797 3.2999999523162841797 3.4000000953674316406 3.5999999046325683594 3.5999999046325683594 3.7999999523162841797 3.9000000953674316406 4 3.7000000476837158203 3.5999999046325683594 3.5 3.2999999523162841797 2.9000000953674316406 2.5999999046325683594 2.9000000953674316406 2.9000000953674316406 2.7999999523162841797 2.7000000476837158203 2.7999999523162841797 2.9000000953674316406 3 3.0999999046325683594 3.0999999046325683594 3.0999999046325683594 3.0999999046325683594 3.0999999046325683594 3.0999999046325683594 2.9000000953674316406 2.7999999523162841797 2.9000000953674316406 3.2000000476837158203 3.4000000953674316406 3.2999999523162841797 3 2.7000000476837158203 2.7000000476837158203 2.7999999523162841797 2.7999999523162841797 2.7000000476837158203 2.9000000953674316406 3 3.7000000476837158203 8.6000003814697265625 8.3000001907348632812 6.4000000953674316406 4.4000000953674316406 2.7000000476837158203 2.4000000953674316406 2.9000000953674316406 3.5999999046325683594 4.0999999046325683594 4 4.0999999046325683594 4.5 8.3000001907348632812 6 5.8000001907348632812 5.6999998092651367188 5.5 5.4000000953674316406 5 5.1999998092651367188 5.9000000953674316406 5.6999998092651367188 5.5 5.6999998092651367188 6 6.4000000953674316406 5.5999999046325683594 5.1999998092651367188 4.1999998092651367188 4.3000001907348632812 4.5 4.4000000953674316406 -2.2999999523162841797 -2.2999999523162841797 4.4000000953674316406 3.5 7.9000000953674316406 7.5999999046325683594 7.0999999046325683594 6 5.5999999046325683594 6.5 7.8000001907348632812 8.6000003814697265625 8.3999996185302734375 9.1999998092651367188 10 11.100000381469726562 12.699999809265136719 14.199999809265136719 15.199999809265136719 16.299999237060546875 17.799999237060546875 19.200000762939453125 20.600000381469726562 27.5 38.700000762939453125 47.700000762939453125 46.40000152587890625 45.09999847412109375 44.09999847412109375 40.200000762939453125 39.40000152587890625 42.799999237060546875 44.799999237060546875 44.59999847412109375 44.299999237060546875 43.90000152587890625 43.09999847412109375 42.700000762939453125 43 42.09999847412109375 42.299999237060546875 42.5 42.200000762939453125 41.700000762939453125 41.299999237060546875 40.90000152587890625 40.59999847412109375 40.40000152587890625 
2.7000000476837158203 3.7999999523162841797 5.0999999046325683594 5.5999999046325683594 5.8000001907348632812 5.5 5.1999998092651367188 5 4.5999999046325683594 4.9000000953674316406 4.6999998092651367188 4.5 4.4000000953674316406 4.6999998092651367188 4.6999998092651367188 4.8000001907348632812 4.9000000953674316406 4.3000001907348632812 4.1999998092651367188 4.0999999046325683594 4.5999999046325683594 4.6999998092651367188 4.8000001907348632812 5 5.5999999046325683594 5 4.5999999046325683594 4 3.9000000953674316406 3.9000000953674316406 3.7999999523162841797 3.5999999046325683594 3.7000000476837158203 3.7999999523162841797 3.5999999046325683594 3.4000000953674316406 3.2999999523162841797 3.4000000953674316406 3.5999999046325683594 3.5999999046325683594 3.5 3.5999999046325683594 3.2999999523162841797 3.2999999523162841797 3.0999999046325683594 3 3.0999999046325683594 3.2000000476837158203 3.2999999523162841797 3.2999999523162841797 3.2000000476837158203 3.2999999523162841797 3.2000000476837158203 3.2000000476837158203 3.2999999523162841797 3.0999999046325683594 3.0999999046325683594 3.2000000476837158203 3.0999999046325683594 2.7000000476837158203 2.5 2.5 2.5999999046325683594 2.5 2.5 2.2999999523162841797 2.2000000476837158203 2.2999999523162841797 2.9000000953674316406 3.2999999523162841797 3.4000000953674316406 3.4000000953674316406 3.4000000953674316406 3.5 3.4000000953674316406 3.2999999523162841797 3.2999999523162841797 3.2000000476837158203 3.0999999046325683594 3.2999999523162841797 3.5 3.7000000476837158203 3.7000000476837158203 3.7999999523162841797 3.7999999523162841797 3.5999999046325683594 3.7999999523162841797 3.7000000476837158203 3.5999999046325683594 3.4000000953674316406 3 3.0999999046325683594 3 3 3 2.9000000953674316406 2.9000000953674316406 2.7999999523162841797 3 3.0999999046325683594 3.0999999046325683594 3.0999999046325683594 3.2000000476837158203 3.2999999523162841797 2.9000000953674316406 2.7000000476837158203 2.7999999523162841797 2.9000000953674316406 3.0999999046325683594 3.2000000476837158203 3.2999999523162841797 3.2000000476837158203 2.9000000953674316406 2.7000000476837158203 2.5999999046325683594 2.5999999046325683594 2.7000000476837158203 2.9000000953674316406 3.0999999046325683594 3.5999999046325683594 7.8000001907348632812 8.6000003814697265625 7.3000001907348632812 5.5999999046325683594 4.0999999046325683594 3.7000000476837158203 3.5999999046325683594 3.9000000953674316406 4.3000001907348632812 4.5 4.6999998092651367188 4.9000000953674316406 6.8000001907348632812 6.4000000953674316406 5.9000000953674316406 5.9000000953674316406 5.6999998092651367188 5.5 5 5.5 6.0999999046325683594 6.3000001907348632812 6.0999999046325683594 6.4000000953674316406 6.3000001907348632812 6.1999998092651367188 6 5.3000001907348632812 4.3000001907348632812 3.7000000476837158203 3.7000000476837158203 4.5 -2.2999999523162841797 -2.2999999523162841797 4 4.1999998092651367188 4.4000000953674316406 4.4000000953674316406 4.8000001907348632812 6 6.5 6.8000001907348632812 7.9000000953674316406 8.8999996185302734375 9.3999996185302734375 10.199999809265136719 11 12.100000381469726562 14 16.299999237060546875 17.600000381469726562 19.100000381469726562 20.799999237060546875 23.899999618530273438 26.899999618530273438 27.799999237060546875 32.299999237060546875 37.90000152587890625 47.59999847412109375 46.700000762939453125 45.799999237060546875 43.59999847412109375 43.90000152587890625 45.299999237060546875 45.299999237060546875 44.799999237060546875 44.200000762939453125 43.700000762939453125 43.09999847412109375 42.59999847412109375 42.700000762939453125 42.40000152587890625 41.5 41.90000152587890625 41.200000762939453125 40.799999237060546875 41.09999847412109375 40.799999237060546875 40.59999847412109375 40.299999237060546875 
3.0999999046325683594 4.5999999046325683594 5.5 5.9000000953674316406 5.9000000953674316406 5.5999999046325683594 5.4000000953674316406 5.0999999046325683594 4.9000000953674316406 4.6999998092651367188 4.8000001907348632812 4.5999999046325683594 4.5999999046325683594 4.6999998092651367188 4.8000001907348632812 4.6999998092651367188 4.5999999046325683594 4.3000001907348632812 4.8000001907348632812 4.6999998092651367188 4.3000001907348632812 4.4000000953674316406 4.5 5.0999999046325683594 5.5 4.5 4.0999999046325683594 3.7000000476837158203 4.3000001907348632812 4.3000001907348632812 4 4 4 4 3.5999999046325683594 3.5 3.2999999523162841797 3.2999999523162841797 3.4000000953674316406 3.7999999523162841797 3.7999999523162841797 3.5999999046325683594 3.4000000953674316406 3.0999999046325683594 3.0999999046325683594 3 3.0999999046325683594 3.2999999523162841797 3.4000000953674316406 3.4000000953674316406 3.2000000476837158203 3.0999999046325683594 2.9000000953674316406 2.7999999523162841797 2.7999999523162841797 2.9000000953674316406 2.9000000953674316406 2.7000000476837158203 2.7000000476837158203 2.5 2.2999999523162841797 3 2.7000000476837158203 2.5999999046325683594 2.5999999046325683594 2.5 2.4000000953674316406 2.5 3.0999999046325683594 3.5999999046325683594 3.5999999046325683594 3.5 3.5999999046325683594 3.5999999046325683594 3.4000000953674316406 3.7999999523162841797 4 3.5999999046325683594 3.2000000476837158203 3.5999999046325683594 3.7999999523162841797 3.7999999523162841797 3.9000000953674316406 3.9000000953674316406 3.2999999523162841797 3.5999999046325683594 3.9000000953674316406 3.7999999523162841797 3.7000000476837158203 3.5 3.2999999523162841797 3.2999999523162841797 3.0999999046325683594 3.0999999046325683594 3.0999999046325683594 3.0999999046325683594 3 3 3 3 3 3 3 3.2000000476837158203 3 3.2999999523162841797 3.0999999046325683594 2.9000000953674316406 3 3.2000000476837158203 3.0999999046325683594 3.0999999046325683594 3 2.7999999523162841797 2.5999999046325683594 2.7000000476837158203 2.7999999523162841797 3 3.0999999046325683594 3.9000000953674316406 7.5 8.5 7.6999998092651367188 4.6999998092651367188 4.4000000953674316406 4.8000001907348632812 4.5 4.5 4.6999998092651367188 4.9000000953674316406 5.0999999046325683594 5.3000001907348632812 5.3000001907348632812 8.3000001907348632812 6.1999998092651367188 6.0999999046325683594 6 5.5999999046325683594 5.8000001907348632812 5.8000001907348632812 5.9000000953674316406 5.6999998092651367188 5.9000000953674316406 6.4000000953674316406 6.1999998092651367188 5.6999998092651367188 5.6999998092651367188 4.8000001907348632812 4.0999999046325683594 3.7000000476837158203 4 4.8000001907348632812 -2.2999999523162841797 4.0999999046325683594 4 4.5999999046325683594 4.9000000953674316406 4.5999999046325683594 5.5 6.5 6.9000000953674316406 7.3000001907348632812 8.3999996185302734375 9.3999996185302734375 10.399999618530273438 11.300000190734863281 12.100000381469726562 13.399999618530273438 15.600000381469726562 17.899999618530273438 20.299999237060546875 22.200000762939453125 25.200000762939453125 31.299999237060546875 36.5 37.299999237060546875 34.799999237060546875 36 44.59999847412109375 45.40000152587890625 45.799999237060546875 44.700000762939453125 44.90000152587890625 45.09999847412109375 45.200000762939453125 44.700000762939453125 44.299999237060546875 43.59999847412109375 42.5 42.700000762939453125 42.700000762939453125 42.40000152587890625 40.700000762939453125 41.200000762939453125 41.700000762939453125 41.700000762939453125 40.299999237060546875 39.40000152587890625 40.5 40.299999237060546875 
3.7000000476837158203 5.0999999046325683594 5.6999998092651367188 6 6 5.8000001907348632812 5.5 5.1999998092651367188 5 4.6999998092651367188 4.8000001907348632812 4.8000001907348632812 4.8000001907348632812 4.8000001907348632812 4.9000000953674316406 4.9000000953674316406 4.8000001907348632812 4.5999999046325683594 5.0999999046325683594 4.5 4.3000001907348632812 4.4000000953674316406 4.5 5.3000001907348632812 5.3000001907348632812 4.1999998092651367188 3.7000000476837158203 3.7000000476837158203 4.3000001907348632812 4.5999999046325683594 4.3000001907348632812 4.0999999046325683594 4.1999998092651367188 4.0999999046325683594 3.7999999523162841797 3.5999999046325683594 3.5 3.5 3.5999999046325683594 3.5 3.2000000476837158203 3 3.2999999523162841797 3.5 3.2000000476837158203 3 3.2999999523162841797 3 3.5 3.5 3.2000000476837158203 3 2.9000000953674316406 2.7999999523162841797 2.7000000476837158203 2.7000000476837158203 2.7000000476837158203 2.7000000476837158203 2.5 2.2999999523162841797 2.4000000953674316406 2.5 2.5999999046325683594 2.5999999046325683594 2.7000000476837158203 2.7000000476837158203 2.5999999046325683594 2.4000000953674316406 3 3.7999999523162841797 3.7999999523162841797 3.7000000476837158203 3.7000000476837158203 3.7999999523162841797 3.7000000476837158203 3.9000000953674316406 4.0999999046325683594 3.5999999046325683594 3.5999999046325683594 4 3.7000000476837158203 4.0999999046325683594 4 4 3.7000000476837158203 3.7000000476837158203 3.9000000953674316406 3.9000000953674316406 3.9000000953674316406 3.5999999046325683594 3.2999999523162841797 3.4000000953674316406 3.2000000476837158203 3.2000000476837158203 3.0999999046325683594 3.0999999046325683594 3 3.0999999046325683594 3.2000000476837158203 3.2000000476837158203 3 3 3 3.0999999046325683594 3.2000000476837158203 3.5 3.2000000476837158203 3.2000000476837158203 2.9000000953674316406 2.9000000953674316406 3 2.7999999523162841797 2.7999999523162841797 2.7999999523162841797 2.7000000476837158203 2.7000000476837158203 2.9000000953674316406 3.0999999046325683594 3.4000000953674316406 3.5999999046325683594 7.8000001907348632812 8 8.1999998092651367188 5.5999999046325683594 4.1999998092651367188 4.6999998092651367188 5.0999999046325683594 4.9000000953674316406 5 5.0999999046325683594 5.4000000953674316406 5.8000001907348632812 6 7.5999999046325683594 7.5 6.3000001907348632812 6.3000001907348632812 6.3000001907348632812 6.1999998092651367188 6 5.6999998092651367188 5.5 5.3000001907348632812 5.5999999046325683594 5.4000000953674316406 5.4000000953674316406 5.4000000953674316406 5.0999999046325683594 4.5999999046325683594 3.9000000953674316406 4.5 -2.2999999523162841797 -2.2999999523162841797 4.8000001907348632812 4.3000001907348632812 4.9000000953674316406 5.5999999046325683594 5.9000000953674316406 6.5 6.6999998092651367188 7.3000001907348632812 7.8000001907348632812 9 10.100000381469726562 11.300000190734863281 12.5 13.300000190734863281 14.300000190734863281 16.899999618530273438 20.200000762939453125 23.399999618530273438 25.5 33.299999237060546875 43.09999847412109375 41.700000762939453125 43.200000762939453125 41.09999847412109375 40.200000762939453125 41.5 44.09999847412109375 44.90000152587890625 44.90000152587890625 44.90000152587890625 44.799999237060546875 45 44.59999847412109375 44.09999847412109375 43.299999237060546875 42.59999847412109375 42.5 42.5 42.299999237060546875 41.40000152587890625 39.200000762939453125 34.90000152587890625 36.700000762939453125 38.700000762939453125 39.59999847412109375 40.59999847412109375 40.200000762939453125 
4.3000001907348632812 5.3000001907348632812 5.9000000953674316406 6 6.0999999046325683594 6.0999999046325683594 5.5999999046325683594 5.0999999046325683594 4.6999998092651367188 4.6999998092651367188 4.8000001907348632812 4.9000000953674316406 5 5.0999999046325683594 5.0999999046325683594 5 4.9000000953674316406 5 5 4.6999998092651367188 4.5 4.5999999046325683594 4.6999998092651367188 5.5 4.8000001907348632812 3.5999999046325683594 3.5999999046325683594 4 4.1999998092651367188 4.5999999046325683594 4.4000000953674316406 4.3000001907348632812 4.3000001907348632812 4.3000001907348632812 4.0999999046325683594 3.7999999523162841797 3.7000000476837158203 3.7000000476837158203 3.2999999523162841797 3.0999999046325683594 3.2000000476837158203 3.2999999523162841797 3.4000000953674316406 3.7000000476837158203 3.4000000953674316406 2.9000000953674316406 3.2000000476837158203 2.7000000476837158203 3.2000000476837158203 3.7999999523162841797 3.2999999523162841797 3.0999999046325683594 2.9000000953674316406 2.7999999523162841797 2.7000000476837158203 2.7000000476837158203 2.5999999046325683594 2.5 2.5 2.5 2.5 2.4000000953674316406 2.4000000953674316406 2.5 2.7000000476837158203 2.9000000953674316406 2.9000000953674316406 3 3.2999999523162841797 3.7999999523162841797 3.7999999523162841797 3.7999999523162841797 3.7999999523162841797 4 4 4.0999999046325683594 4.3000001907348632812 4 3.7999999523162841797 4.5999999046325683594 5 5.5999999046325683594 4.3000001907348632812 4.3000001907348632812 4.4000000953674316406 4 3.5999999046325683594 3.5999999046325683594 3.7000000476837158203 3.7000000476837158203 3.5 3.4000000953674316406 3.5999999046325683594 3.5999999046325683594 3.5 3.2999999523162841797 3.2000000476837158203 3.2999999523162841797 3.4000000953674316406 3.2000000476837158203 3.0999999046325683594 3.0999999046325683594 3.2000000476837158203 3.2999999523162841797 3.4000000953674316406 3.4000000953674316406 3.2000000476837158203 3.4000000953674316406 3.4000000953674316406 3 2.9000000953674316406 3 3 2.9000000953674316406 2.9000000953674316406 3.0999999046325683594 3.2999999523162841797 3.5 3.9000000953674316406 3.5999999046325683594 8 8.3999996185302734375 8.1000003814697265625 7.5 5.5999999046325683594 5.8000001907348632812 5.9000000953674316406 6 6 5.6999998092651367188 5.9000000953674316406 6.5 7 7.0999999046325683594 7.5999999046325683594 6.6999998092651367188 6.6999998092651367188 6.5999999046325683594 6.4000000953674316406 6.0999999046325683594 6 5.9000000953674316406 5.5999999046325683594 5.5999999046325683594 6 5.5 5.5999999046325683594 5.9000000953674316406 4.9000000953674316406 3.5999999046325683594 -2.2999999523162841797 -2.2999999523162841797 4.6999998092651367188 4.3000001907348632812 4.3000001907348632812 4.6999998092651367188 5.9000000953674316406 6.4000000953674316406 6.6999998092651367188 6.9000000953674316406 7.4000000953674316406 8.6000003814697265625 10 11 12.300000190734863281 13.699999809265136719 14.199999809265136719 15.199999809265136719 18.200000762939453125 22.899999618530273438 26.899999618530273438 29.899999618530273438 31.600000381469726562 42 44.5 45.40000152587890625 44.90000152587890625 45.09999847412109375 44.799999237060546875 44.59999847412109375 44.799999237060546875 44.90000152587890625 44.90000152587890625 44.799999237060546875 44.799999237060546875 43.799999237060546875 43.200000762939453125 43.299999237060546875 42.799999237060546875 42.40000152587890625 42.40000152587890625 42.299999237060546875 42.299999237060546875 39 39 40 41.5 40.700000762939453125 40.299999237060546875 40.09999847412109375 
4.9000000953674316406 5.5999999046325683594 6 6 6.0999999046325683594 6 5.5 5 4.8000001907348632812 4.9000000953674316406 4.9000000953674316406 5 5.1999998092651367188 5.1999998092651367188 5.0999999046325683594 5.0999999046325683594 5.0999999046325683594 5.0999999046325683594 4.9000000953674316406 4.5999999046325683594 4.6999998092651367188 4.8000001907348632812 5 5.5 4.5999999046325683594 3.5 3.9000000953674316406 4.4000000953674316406 4.5 4.5999999046325683594 4.6999998092651367188 4.6999998092651367188 4.6999998092651367188 4.5 4.3000001907348632812 4 3.9000000953674316406 3.9000000953674316406 3.5 3.4000000953674316406 3.2999999523162841797 3.4000000953674316406 3.4000000953674316406 3.2000000476837158203 3 3 2.9000000953674316406 2.9000000953674316406 3.2999999523162841797 3.7999999523162841797 3.5999999046325683594 3.2000000476837158203 3 2.9000000953674316406 2.7999999523162841797 2.7000000476837158203 2.4000000953674316406 2.7000000476837158203 2.5999999046325683594 2.5999999046325683594 2.5 2.5999999046325683594 2.5 2.5999999046325683594 3 3.0999999046325683594 3.2000000476837158203 3.2000000476837158203 3.5 4 4.0999999046325683594 4 4.1999998092651367188 4.5 4.9000000953674316406 4.8000001907348632812 4.6999998092651367188 4.5 4.5999999046325683594 5.1999998092651367188 5.5 5.5 4.9000000953674316406 4.5999999046325683594 4.6999998092651367188 4.4000000953674316406 4 3.9000000953674316406 3.7999999523162841797 3.7000000476837158203 3.7000000476837158203 3.5999999046325683594 3.5 4.0999999046325683594 3.9000000953674316406 3.7999999523162841797 3.7000000476837158203 3.7000000476837158203 3.5999999046325683594 3.4000000953674316406 3.2999999523162841797 3.2999999523162841797 3.4000000953674316406 3.4000000953674316406 3.5 3.2999999523162841797 3.2999999523162841797 3.5 3.4000000953674316406 3.2999999523162841797 3.4000000953674316406 3.5 3.7000000476837158203 3.5999999046325683594 3.2000000476837158203 3.5 3.7000000476837158203 3.9000000953674316406 4 4.1999998092651367188 7.6999998092651367188 8.5 8.6999998092651367188 8.1000003814697265625 7 6.9000000953674316406 8 8.6999998092651367188 8.8000001907348632812 9.6999998092651367188 8.5 8.8000001907348632812 9.6999998092651367188 8.8000001907348632812 7.6999998092651367188 9 8.3999996185302734375 8 7.5 6.5999999046325683594 6.5 6.3000001907348632812 6.1999998092651367188 6.4000000953674316406 6.3000001907348632812 5.1999998092651367188 5.4000000953674316406 5.6999998092651367188 2.7000000476837158203 3.2999999523162841797 -2.2999999523162841797 -2.2999999523162841797 4.5999999046325683594 4.4000000953674316406 4.6999998092651367188 5.5 6.1999998092651367188 6.5 7 7.1999998092651367188 8.1000003814697265625 9.3999996185302734375 11.100000381469726562 12.699999809265136719 14.399999618530273438 15.699999809265136719 15.399999618530273438 15.899999618530273438 17.799999237060546875 23.5 30.200000762939453125 33.90000152587890625 41.09999847412109375 38.90000152587890625 44.700000762939453125 46 46.5 46.59999847412109375 46.59999847412109375 45.59999847412109375 45.200000762939453125 44.90000152587890625 44.90000152587890625 44.700000762939453125 44.299999237060546875 43.09999847412109375 42.09999847412109375 42.59999847412109375 42.59999847412109375 42.200000762939453125 42.299999237060546875 42.09999847412109375 42 41 40.299999237060546875 40.200000762939453125 38.700000762939453125 40.299999237060546875 40.299999237060546875 40.5 
5.1999998092651367188 5.6999998092651367188 6 6.0999999046325683594 6.0999999046325683594 5.8000001907348632812 5.5 5.1999998092651367188 5.0999999046325683594 5.1999998092651367188 5.0999999046325683594 5.1999998092651367188 5.3000001907348632812 5.3000001907348632812 5.3000001907348632812 5.1999998092651367188 5.1999998092651367188 5.1999998092651367188 4.9000000953674316406 4.5999999046325683594 4.6999998092651367188 5 5.3000001907348632812 5.5999999046325683594 4.5 3.2999999523162841797 4 4.6999998092651367188 4.5999999046325683594 4.8000001907348632812 4.9000000953674316406 4.8000001907348632812 4.8000001907348632812 4.8000001907348632812 4.5 4.3000001907348632812 4.0999999046325683594 4.0999999046325683594 3.9000000953674316406 3.9000000953674316406 3.7999999523162841797 3.5999999046325683594 3.5999999046325683594 3.2999999523162841797 3.2999999523162841797 3.2000000476837158203 3.2000000476837158203 3.4000000953674316406 3.4000000953674316406 3.7000000476837158203 3.7000000476837158203 3.0999999046325683594 2.7999999523162841797 2.9000000953674316406 2.9000000953674316406 2.5999999046325683594 2 2.5999999046325683594 2.7999999523162841797 2.5999999046325683594 2.5 2.5 2.5999999046325683594 2.7000000476837158203 3.2000000476837158203 3.2999999523162841797 3.4000000953674316406 3.5 3.7999999523162841797 3.9000000953674316406 4 4.3000001907348632812 4.6999998092651367188 4.8000001907348632812 4.9000000953674316406 5 5.1999998092651367188 5.0999999046325683594 5.5 5.6999998092651367188 5.4000000953674316406 5.3000001907348632812 5.3000001907348632812 5.0999999046325683594 4.9000000953674316406 4.6999998092651367188 4.5 4.4000000953674316406 4.1999998092651367188 4.0999999046325683594 3.7999999523162841797 3.5 3.7000000476837158203 4.5999999046325683594 4.3000001907348632812 4.0999999046325683594 4.0999999046325683594 4 3.7999999523162841797 3.7000000476837158203 3.5999999046325683594 3.5999999046325683594 3.5999999046325683594 3.5999999046325683594 3.7000000476837158203 3.7999999523162841797 3.9000000953674316406 3.7999999523162841797 3.7999999523162841797 3.7999999523162841797 3.7000000476837158203 4.1999998092651367188 3.7999999523162841797 4.0999999046325683594 3.7999999523162841797 3.7000000476837158203 3.9000000953674316406 4.0999999046325683594 4.4000000953674316406 4.8000001907348632812 5.5999999046325683594 7.8000001907348632812 8.3999996185302734375 8.1000003814697265625 8.1000003814697265625 8.5 10.399999618530273438 11.600000381469726562 13.600000381469726562 14.300000190734863281 13.600000381469726562 12.600000381469726562 12.300000190734863281 11.899999618530273438 11.800000190734863281 8.3000001907348632812 10.899999618530273438 10.199999809265136719 9.3000001907348632812 7.8000001907348632812 7.4000000953674316406 6.5999999046325683594 6 6.5 6 5 5.1999998092651367188 5.1999998092651367188 5.1999998092651367188 -2.2999999523162841797 -2.2999999523162841797 5.5 4.6999998092651367188 4.6999998092651367188 5.0999999046325683594 5.5999999046325683594 6.1999998092651367188 6.8000001907348632812 7.0999999046325683594 7.3000001907348632812 8.8000001907348632812 10.5 12.600000381469726562 14.399999618530273438 16.299999237060546875 18.5 19.299999237060546875 19.299999237060546875 19.100000381469726562 20.799999237060546875 25 36.90000152587890625 40.700000762939453125 41.700000762939453125 44.700000762939453125 46 46.59999847412109375 47.299999237060546875 48.90000152587890625 46.200000762939453125 45.59999847412109375 45.09999847412109375 44.700000762939453125 44.5 43.799999237060546875 42.700000762939453125 41.700000762939453125 42.40000152587890625 42.799999237060546875 42.299999237060546875 42.5 42.09999847412109375 41.700000762939453125 41.299999237060546875 41.200000762939453125 40.59999847412109375 40.5 40.700000762939453125 40.59999847412109375 40.59999847412109375 
5.4000000953674316406 5.6999998092651367188 5.9000000953674316406 6 5.9000000953674316406 5.6999998092651367188 5.3000001907348632812 5.8000001907348632812 5.3000001907348632812 5.4000000953674316406 5.4000000953674316406 5.4000000953674316406 5.5 5.5 5.4000000953674316406 5.4000000953674316406 5.5999999046325683594 5.5 5.1999998092651367188 4.9000000953674316406 5 5.3000001907348632812 5.4000000953674316406 5.5999999046325683594 4.6999998092651367188 3.9000000953674316406 4.3000001907348632812 4.6999998092651367188 4.4000000953674316406 4.5 4.8000001907348632812 4.5999999046325683594 4.5 4.5999999046325683594 4.5999999046325683594 4.5 4.4000000953674316406 4.4000000953674316406 4.4000000953674316406 4.4000000953674316406 4.1999998092651367188 4 3.9000000953674316406 3.7999999523162841797 3.5999999046325683594 3.5999999046325683594 3.7000000476837158203 3.7000000476837158203 3.2999999523162841797 3.7000000476837158203 3.7999999523162841797 3.4000000953674316406 3.0999999046325683594 2.9000000953674316406 2.9000000953674316406 2 1.8999999761581420898 2.5 2.9000000953674316406 2.7999999523162841797 2.7000000476837158203 2.7000000476837158203 2.7999999523162841797 2.9000000953674316406 3.2999999523162841797 3.4000000953674316406 3.5 3.7000000476837158203 3.9000000953674316406 4.0999999046325683594 4 4.5999999046325683594 5.1999998092651367188 5 4.9000000953674316406 4.8000001907348632812 5 5.3000001907348632812 5.4000000953674316406 5.5 5.5 5.3000001907348632812 5.3000001907348632812 5.4000000953674316406 5.0999999046325683594 4.9000000953674316406 4.9000000953674316406 4.6999998092651367188 4.5 4.4000000953674316406 4.1999998092651367188 3.5 4.3000001907348632812 4.5999999046325683594 4.5 4.1999998092651367188 4.1999998092651367188 4.1999998092651367188 4 4 3.9000000953674316406 3.9000000953674316406 3.9000000953674316406 3.7999999523162841797 3.7999999523162841797 3.7999999523162841797 4 4.0999999046325683594 4.0999999046325683594 4.3000001907348632812 4.3000001907348632812 5.5 4.0999999046325683594 4.1999998092651367188 4.3000001907348632812 4.0999999046325683594 4.5 5 5.4000000953674316406 5.8000001907348632812 6.3000001907348632812 7.5 8.8000001907348632812 8.1000003814697265625 9.8000001907348632812 10.399999618530273438 12 13 14.699999809265136719 15.5 16.200000762939453125 15.899999618530273438 14.899999618530273438 14 13.399999618530273438 10.800000190734863281 14 12.800000190734863281 12 9.6000003814697265625 7.9000000953674316406 7.3000001907348632812 7.1999998092651367188 6.5 5.6999998092651367188 5.1999998092651367188 5.3000001907348632812 5.1999998092651367188 6.4000000953674316406 6.1999998092651367188 5.9000000953674316406 5.6999998092651367188 4.8000001907348632812 4.8000001907348632812 4.5999999046325683594 5.8000001907348632812 6.5 7.1999998092651367188 7.5999999046325683594 8 9.8999996185302734375 12.100000381469726562 14.899999618530273438 17.200000762939453125 19.5 22.600000381469726562 24.100000381469726562 26 27.799999237060546875 25.100000381469726562 23.5 26.600000381469726562 32.59999847412109375 42.200000762939453125 45.700000762939453125 46.09999847412109375 46.200000762939453125 46.40000152587890625 46.09999847412109375 45.700000762939453125 45.5 45.09999847412109375 44.59999847412109375 44.200000762939453125 43.5 43 42.09999847412109375 43 43.09999847412109375 42.90000152587890625 42.40000152587890625 41.799999237060546875 41.40000152587890625 41.299999237060546875 41.09999847412109375 41 40.799999237060546875 40.799999237060546875 40.799999237060546875 40.799999237060546875 
5.3000001907348632812 5.5 5.6999998092651367188 5.8000001907348632812 5.6999998092651367188 5.3000001907348632812 5 5 5.4000000953674316406 5.4000000953674316406 5.5999999046325683594 5.6999998092651367188 5.6999998092651367188 5.5999999046325683594 5.5999999046325683594 5.5999999046325683594 5.8000001907348632812 5.8000001907348632812 5.5 5.3000001907348632812 5.3000001907348632812 5.6999998092651367188 5.6999998092651367188 5.5999999046325683594 5.0999999046325683594 4.9000000953674316406 4.9000000953674316406 5.0999999046325683594 4.5999999046325683594 5 4.8000001907348632812 4.4000000953674316406 4.5999999046325683594 5 5.0999999046325683594 5 5 5.1999998092651367188 5.5 5.5999999046325683594 5.5 5.4000000953674316406 4.6999998092651367188 4.3000001907348632812 4.0999999046325683594 3.9000000953674316406 3.5 3.7999999523162841797 4.0999999046325683594 4.1999998092651367188 4.0999999046325683594 3.7999999523162841797 3.5 3.2999999523162841797 3 2.7999999523162841797 2.5999999046325683594 3 3 2.7999999523162841797 3.2000000476837158203 3 3.2000000476837158203 3.2999999523162841797 3.4000000953674316406 3.5999999046325683594 3.7000000476837158203 3.7999999523162841797 4 4.0999999046325683594 4.1999998092651367188 4.5999999046325683594 5.3000001907348632812 5.4000000953674316406 5.1999998092651367188 4.8000001907348632812 5.0999999046325683594 5.1999998092651367188 5.4000000953674316406 5.3000001907348632812 5.5 5.3000001907348632812 5.1999998092651367188 5.1999998092651367188 5.3000001907348632812 5.0999999046325683594 5.1999998092651367188 5 4.8000001907348632812 4.9000000953674316406 5 4.6999998092651367188 4.5 4.4000000953674316406 4.4000000953674316406 4.4000000953674316406 4.4000000953674316406 4.4000000953674316406 4.3000001907348632812 4.1999998092651367188 4.1999998092651367188 4.1999998092651367188 4.1999998092651367188 4.1999998092651367188 4.0999999046325683594 4 4.1999998092651367188 4.3000001907348632812 4.3000001907348632812 4.1999998092651367188 4.6999998092651367188 5 4.5 4.8000001907348632812 4.8000001907348632812 4.8000001907348632812 5.3000001907348632812 5.6999998092651367188 6.0999999046325683594 6.5 7.0999999046325683594 8.3999996185302734375 9.1999998092651367188 11.100000381469726562 11.800000190734863281 11.899999618530273438 12.699999809265136719 14.5 16.200000762939453125 17.100000381469726562 18 18.299999237060546875 17.700000762939453125 16.799999237060546875 16.100000381469726562 15.800000190734863281 9.3999996185302734375 14.600000381469726562 12.899999618530273438 11.5 9 7.9000000953674316406 7.4000000953674316406 6.8000001907348632812 6 5.8000001907348632812 5.3000001907348632812 5.3000001907348632812 6.8000001907348632812 5.3000001907348632812 5.4000000953674316406 5.8000001907348632812 4.8000001907348632812 4.6999998092651367188 5.4000000953674316406 6.0999999046325683594 6.8000001907348632812 7.5 8.3000001907348632812 9.5 11.399999618530273438 14.5 17.600000381469726562 19.899999618530273438 23.299999237060546875 27.200000762939453125 30 31.700000762939453125 30.5 30.299999237060546875 32.09999847412109375 32.700000762939453125 31.100000381469726562 37.59999847412109375 45.700000762939453125 46.40000152587890625 46.5 46.5 46 45.59999847412109375 45.5 45.09999847412109375 44.59999847412109375 44.200000762939453125 44 43.700000762939453125 43.299999237060546875 43.59999847412109375 43.200000762939453125 42.90000152587890625 42.40000152587890625 41.59999847412109375 40.799999237060546875 40.59999847412109375 40.40000152587890625 41 40.90000152587890625 40.90000152587890625 40.90000152587890625 41.09999847412109375 
5.3000001907348632812 5.5 5.6999998092651367188 5.8000001907348632812 5.6999998092651367188 5.3000001907348632812 4.8000001907348632812 4.8000001907348632812 5.3000001907348632812 5.5 5.6999998092651367188 5.9000000953674316406 6 5.6999998092651367188 5.8000001907348632812 6 6.1999998092651367188 6 5.6999998092651367188 5.3000001907348632812 5.6999998092651367188 6 5.8000001907348632812 5.5999999046325683594 5.5 5.5999999046325683594 5.6999998092651367188 5.8000001907348632812 5.5 5.5 5 4.5 5.0999999046325683594 5.6999998092651367188 5.8000001907348632812 5.8000001907348632812 5.9000000953674316406 6.0999999046325683594 6.8000001907348632812 7.0999999046325683594 6.9000000953674316406 6.5 5.8000001907348632812 5.1999998092651367188 4.6999998092651367188 4.0999999046325683594 3.5999999046325683594 3.9000000953674316406 4.0999999046325683594 4.1999998092651367188 4.3000001907348632812 4.1999998092651367188 3.9000000953674316406 3.5999999046325683594 3.5 3.4000000953674316406 3.2000000476837158203 3.5999999046325683594 3.5999999046325683594 3.2000000476837158203 3.0999999046325683594 3.5 3.7999999523162841797 3.9000000953674316406 4 4.0999999046325683594 4.0999999046325683594 4.0999999046325683594 4.1999998092651367188 4.3000001907348632812 4.4000000953674316406 4.5999999046325683594 5.1999998092651367188 5.5999999046325683594 5.5 4.9000000953674316406 5.5 5.5999999046325683594 5.6999998092651367188 5.9000000953674316406 6.0999999046325683594 6.0999999046325683594 6 5.6999998092651367188 5.3000001907348632812 5.4000000953674316406 5.5999999046325683594 5.1999998092651367188 5.1999998092651367188 5.1999998092651367188 5.3000001907348632812 5.0999999046325683594 4.9000000953674316406 4.8000001907348632812 4.8000001907348632812 4.6999998092651367188 4.6999998092651367188 4.5999999046325683594 4.5999999046325683594 4.5999999046325683594 4.5999999046325683594 4.5 4.5 4.5 4.4000000953674316406 4.3000001907348632812 4.5 4.6999998092651367188 4.6999998092651367188 4.6999998092651367188 5.0999999046325683594 5 5.1999998092651367188 5.4000000953674316406 5.4000000953674316406 5.4000000953674316406 5.9000000953674316406 6.0999999046325683594 6.5999999046325683594 7.1999998092651367188 7.8000001907348632812 8.8000001907348632812 9.8999996185302734375 11 8.1000003814697265625 13.399999618530273438 14.100000381469726562 15.800000190734863281 17.700000762939453125 19.200000762939453125 20.100000381469726562 20.5 19.799999237060546875 19.5 18.700000762939453125 18.100000381469726562 16.600000381469726562 15.699999809265136719 14.399999618530273438 11.899999618530273438 9.5 8.3000001907348632812 7.8000001907348632812 7.3000001907348632812 6.5 5.6999998092651367188 5.3000001907348632812 5 2.7000000476837158203 5.6999998092651367188 5.9000000953674316406 5.8000001907348632812 5 4.9000000953674316406 5.9000000953674316406 6.5999999046325683594 7.1999998092651367188 7.6999998092651367188 8.8999996185302734375 11.699999809265136719 13 16.899999618530273438 26.399999618530273438 29.299999237060546875 30.200000762939453125 33.200000762939453125 38 41.09999847412109375 40.299999237060546875 37.40000152587890625 38.59999847412109375 39.200000762939453125 37.09999847412109375 37 44.700000762939453125 46.299999237060546875 46.59999847412109375 46.700000762939453125 46.09999847412109375 45.59999847412109375 45.59999847412109375 45.299999237060546875 44.90000152587890625 44.59999847412109375 44.299999237060546875 43.90000152587890625 43.90000152587890625 43.90000152587890625 43.40000152587890625 42.90000152587890625 42.299999237060546875 41.5 40.40000152587890625 39.5 39.90000152587890625 40.59999847412109375 40.700000762939453125 40.5 40.700000762939453125 41.200000762939453125 
5.3000001907348632812 5.5999999046325683594 5.6999998092651367188 5.8000001907348632812 5.5999999046325683594 5.5 5.1999998092651367188 5.1999998092651367188 5.3000001907348632812 5.5 5.6999998092651367188 5.9000000953674316406 5.9000000953674316406 5.8000001907348632812 6.0999999046325683594 6.3000001907348632812 6.1999998092651367188 6.0999999046325683594 5.6999998092651367188 5.5999999046325683594 5.9000000953674316406 6.1999998092651367188 5.6999998092651367188 5.5999999046325683594 5.6999998092651367188 5.5 5.9000000953674316406 6.4000000953674316406 6.4000000953674316406 6.0999999046325683594 5.6999998092651367188 5 5 6 6.3000001907348632812 6.5999999046325683594 6.8000001907348632812 7.4000000953674316406 8.1000003814697265625 8 7.8000001907348632812 7.5999999046325683594 7.0999999046325683594 6.6999998092651367188 6.1999998092651367188 5.1999998092651367188 4.5 4 4 4.0999999046325683594 4.1999998092651367188 4.3000001907348632812 4.1999998092651367188 3.9000000953674316406 3.7999999523162841797 3.7999999523162841797 3.7999999523162841797 4 4.0999999046325683594 3.5 3.7000000476837158203 4.0999999046325683594 4.4000000953674316406 4.5999999046325683594 4.8000001907348632812 4.8000001907348632812 4.5 4.5 4.5 4.5999999046325683594 4.6999998092651367188 4.8000001907348632812 5.0999999046325683594 5.5 5.8000001907348632812 5.0999999046325683594 5.8000001907348632812 6.5999999046325683594 6.9000000953674316406 6.6999998092651367188 6.3000001907348632812 5.9000000953674316406 5.8000001907348632812 5.5999999046325683594 5.5 5.6999998092651367188 5.9000000953674316406 5.3000001907348632812 5.1999998092651367188 5.0999999046325683594 5.0999999046325683594 5.1999998092651367188 5.3000001907348632812 5.3000001907348632812 5.1999998092651367188 5 4.9000000953674316406 4.9000000953674316406 4.9000000953674316406 4.8000001907348632812 4.8000001907348632812 4.8000001907348632812 4.6999998092651367188 4.8000001907348632812 4.8000001907348632812 4.8000001907348632812 5 5.1999998092651367188 5.1999998092651367188 5.3000001907348632812 5.4000000953674316406 6.1999998092651367188 5.9000000953674316406 6 6 6.4000000953674316406 6.5999999046325683594 6.8000001907348632812 7.5 8.1999998092651367188 8.8999996185302734375 9.6000003814697265625 10.600000381469726562 11.300000190734863281 8.3999996185302734375 14.300000190734863281 15.399999618530273438 17.5 19.299999237060546875 21 21.5 21.299999237060546875 21.399999618530273438 21.399999618530273438 21.200000762939453125 20.100000381469726562 18.700000762939453125 9.6999998092651367188 15.100000381469726562 11.899999618530273438 9.8000001907348632812 8.8999996185302734375 8.3000001907348632812 7.6999998092651367188 7 6.0999999046325683594 5.4000000953674316406 5.4000000953674316406 5.3000001907348632812 5.6999998092651367188 5.1999998092651367188 5.6999998092651367188 6.9000000953674316406 6 6.5 7.6999998092651367188 7.9000000953674316406 8.1000003814697265625 9.6999998092651367188 12.5 13.699999809265136719 19.100000381469726562 24.899999618530273438 30.700000762939453125 42.09999847412109375 45.700000762939453125 46.5 43.799999237060546875 43.40000152587890625 43.59999847412109375 44.40000152587890625 44.200000762939453125 40.90000152587890625 40.299999237060546875 45.90000152587890625 46.299999237060546875 46.59999847412109375 46.90000152587890625 45.90000152587890625 45.299999237060546875 45.59999847412109375 45.40000152587890625 45.09999847412109375 45 44.799999237060546875 44.5 44.40000152587890625 44.200000762939453125 43.700000762939453125 43 42.299999237060546875 41.40000152587890625 40.40000152587890625 39.40000152587890625 39.799999237060546875 39.59999847412109375 39.799999237060546875 40.09999847412109375 40.40000152587890625 41.09999847412109375 
5.8000001907348632812 5.9000000953674316406 5.9000000953674316406 5.8000001907348632812 5.5999999046325683594 5.4000000953674316406 5.5 5.6999998092651367188 5.5 5.4000000953674316406 5.4000000953674316406 5.4000000953674316406 5.9000000953674316406 5.9000000953674316406 6.1999998092651367188 6.4000000953674316406 6.1999998092651367188 6.0999999046325683594 5.9000000953674316406 5.8000001907348632812 6.0999999046325683594 6.1999998092651367188 5.4000000953674316406 5.5999999046325683594 5.8000001907348632812 5.5999999046325683594 5.8000001907348632812 6.5999999046325683594 6.5999999046325683594 6.5999999046325683594 6 5.6999998092651367188 5.5 6.1999998092651367188 6.6999998092651367188 7.3000001907348632812 7.9000000953674316406 8.3999996185302734375 8.6000003814697265625 8.8999996185302734375 8.6999998092651367188 8.5 8.1999998092651367188 7.5 7 6.6999998092651367188 5.0999999046325683594 4.8000001907348632812 4.1999998092651367188 4 4 4.1999998092651367188 4.3000001907348632812 4.1999998092651367188 4.1999998092651367188 4.1999998092651367188 4.1999998092651367188 4.0999999046325683594 4 4.3000001907348632812 4.6999998092651367188 5 5.3000001907348632812 5.4000000953674316406 5.5999999046325683594 5.5999999046325683594 5.1999998092651367188 4.9000000953674316406 4.9000000953674316406 4.6999998092651367188 4.8000001907348632812 5.0999999046325683594 5.4000000953674316406 5.5999999046325683594 6.0999999046325683594 5.6999998092651367188 5.6999998092651367188 6.3000001907348632812 6.8000001907348632812 7.3000001907348632812 7 6 6 6 6 5.9000000953674316406 5.5999999046325683594 5.4000000953674316406 5.3000001907348632812 5.1999998092651367188 5.1999998092651367188 5.3000001907348632812 5.5 5.5 5.3000001907348632812 5.1999998092651367188 5.0999999046325683594 4.5 4.6999998092651367188 4.8000001907348632812 5 5 5.1999998092651367188 5.3000001907348632812 5.3000001907348632812 5.1999998092651367188 5.4000000953674316406 5.5999999046325683594 5.6999998092651367188 5.6999998092651367188 6 6.4000000953674316406 6.6999998092651367188 6.8000001907348632812 7.3000001907348632812 7.9000000953674316406 8.3000001907348632812 8.5 8.8999996185302734375 9.1999998092651367188 10.600000381469726562 11.199999809265136719 11.699999809265136719 12.300000190734863281 12.899999618530273438 15.199999809265136719 16.700000762939453125 19.200000762939453125 20.899999618530273438 22.200000762939453125 22.399999618530273438 22.600000381469726562 22.899999618530273438 22.899999618530273438 22.399999618530273438 21.399999618530273438 19.799999237060546875 17.799999237060546875 10.199999809265136719 12.199999809265136719 11.199999809265136719 10.5 9.3999996185302734375 8.3999996185302734375 7.5 6.8000001907348632812 6.0999999046325683594 5.4000000953674316406 5.6999998092651367188 5.5 5.4000000953674316406 5.5999999046325683594 5.4000000953674316406 6.4000000953674316406 8.8999996185302734375 9.6999998092651367188 10.5 10.199999809265136719 11.399999618530273438 13.100000381469726562 14.399999618530273438 16.799999237060546875 21.700000762939453125 30.799999237060546875 35.59999847412109375 39.299999237060546875 45.40000152587890625 43.09999847412109375 44.90000152587890625 46.5 46.40000152587890625 45.5 43.5 44.09999847412109375 46.09999847412109375 46.5 46.90000152587890625 46.799999237060546875 46.40000152587890625 46 45.40000152587890625 45.200000762939453125 45.09999847412109375 45.09999847412109375 45 45.09999847412109375 44.90000152587890625 44.5 43.90000152587890625 43.09999847412109375 42.299999237060546875 41.40000152587890625 40.200000762939453125 40.09999847412109375 39.299999237060546875 39.200000762939453125 38.700000762939453125 39.700000762939453125 40.09999847412109375 40.5 
6.3000001907348632812 6.0999999046325683594 6 5.8000001907348632812 5.5999999046325683594 5.5999999046325683594 5.5999999046325683594 5.5999999046325683594 5.5 5.8000001907348632812 5.3000001907348632812 5.5 5.8000001907348632812 6.0999999046325683594 6.4000000953674316406 6.6999998092651367188 6.5 6.3000001907348632812 6.1999998092651367188 6.1999998092651367188 6.1999998092651367188 6.3000001907348632812 5.4000000953674316406 5.6999998092651367188 5.8000001907348632812 6.0999999046325683594 6 6.4000000953674316406 6.3000001907348632812 6.5 6.0999999046325683594 5.9000000953674316406 6.1999998092651367188 6.6999998092651367188 7.3000001907348632812 7.9000000953674316406 8 8.6999998092651367188 9.1000003814697265625 9.3000001907348632812 9.1000003814697265625 8.8000001907348632812 8.6000003814697265625 8.3000001907348632812 11.399999618530273438 6.9000000953674316406 6 5.5 5 4.9000000953674316406 4.9000000953674316406 4.6999998092651367188 4.6999998092651367188 4.6999998092651367188 4.8000001907348632812 4.6999998092651367188 4.6999998092651367188 4.6999998092651367188 4.9000000953674316406 5.1999998092651367188 5.5999999046325683594 5.9000000953674316406 6.0999999046325683594 6.3000001907348632812 6.5 6.4000000953674316406 6.0999999046325683594 5.9000000953674316406 5.4000000953674316406 5.3000001907348632812 5.1999998092651367188 5.5999999046325683594 6.0999999046325683594 6.5 6.5 6.5 6.5 6.5 6.5 6.5999999046325683594 6.8000001907348632812 6.5 6.4000000953674316406 6.5999999046325683594 6.5999999046325683594 6.8000001907348632812 6.5999999046325683594 6.4000000953674316406 5.9000000953674316406 5.9000000953674316406 5.9000000953674316406 5.6999998092651367188 5.6999998092651367188 5.6999998092651367188 5.5999999046325683594 5.4000000953674316406 5.5999999046325683594 4.9000000953674316406 5 4.8000001907348632812 4.9000000953674316406 5.3000001907348632812 5.6999998092651367188 5.8000001907348632812 5.6999998092651367188 5.6999998092651367188 5.8000001907348632812 6 6.1999998092651367188 6.0999999046325683594 6.5 7.5 8 8.1999998092651367188 8.8999996185302734375 9.5 10 9.5 9.1999998092651367188 9.3999996185302734375 9.1999998092651367188 13 13.199999809265136719 13.600000381469726562 14 10.399999618530273438 18.5 26.299999237060546875 22.299999237060546875 23.200000762939453125 23.399999618530273438 23.600000381469726562 23.5 23.5 22.399999618530273438 21.600000381469726562 19.600000381469726562 16.899999618530273438 14.5 13.699999809265136719 13.600000381469726562 12.5 11 9.3999996185302734375 8.1000003814697265625 7.4000000953674316406 6.6999998092651367188 6 5.9000000953674316406 5.6999998092651367188 5.6999998092651367188 5.4000000953674316406 5.0999999046325683594 4.6999998092651367188 5.1999998092651367188 9.8000001907348632812 10.600000381469726562 11 12.399999618530273438 13.899999618530273438 15.399999618530273438 17.799999237060546875 20.700000762939453125 25.100000381469726562 34.700000762939453125 32.59999847412109375 36.799999237060546875 42.299999237060546875 45.09999847412109375 45.90000152587890625 46 45.700000762939453125 45.299999237060546875 45.700000762939453125 46.200000762939453125 46.700000762939453125 47 47.299999237060546875 47.200000762939453125 47.200000762939453125 46.09999847412109375 45.5 45.200000762939453125 44.90000152587890625 45.59999847412109375 45.700000762939453125 45.200000762939453125 44.59999847412109375 43.90000152587890625 43 42.09999847412109375 41.200000762939453125 40.40000152587890625 40 39.200000762939453125 38.5 37.700000762939453125 38.59999847412109375 39.5 39.799999237060546875 
6.3000001907348632812 6.1999998092651367188 6 5.8000001907348632812 5.6999998092651367188 5.6999998092651367188 5.6999998092651367188 5.6999998092651367188 5.5999999046325683594 5.8000001907348632812 5.9000000953674316406 6 6.4000000953674316406 6.5999999046325683594 6.6999998092651367188 6.8000001907348632812 6.9000000953674316406 6.5999999046325683594 6.3000001907348632812 6.1999998092651367188 6.0999999046325683594 6.1999998092651367188 5.5999999046325683594 5.8000001907348632812 5.8000001907348632812 6 6.3000001907348632812 6.1999998092651367188 6.0999999046325683594 6.1999998092651367188 6.3000001907348632812 6.4000000953674316406 6.5999999046325683594 7.3000001907348632812 7.9000000953674316406 8 8.1000003814697265625 8.3999996185302734375 9.1999998092651367188 9.5 9.3000001907348632812 9.3000001907348632812 9.1999998092651367188 11.300000190734863281 7.6999998092651367188 6.9000000953674316406 6.6999998092651367188 6.3000001907348632812 6 5.8000001907348632812 6.0999999046325683594 5.8000001907348632812 5.5999999046325683594 5.5 5.5 5.5999999046325683594 5.5999999046325683594 5.8000001907348632812 6 6.3000001907348632812 6.5 6.6999998092651367188 6.9000000953674316406 7.0999999046325683594 7.3000001907348632812 7.3000001907348632812 7.3000001907348632812 7 6.5999999046325683594 6.3000001907348632812 6 6.1999998092651367188 6.4000000953674316406 6.6999998092651367188 6.6999998092651367188 6.6999998092651367188 6.6999998092651367188 7 7 7.0999999046325683594 7.4000000953674316406 7.5999999046325683594 7.4000000953674316406 7.1999998092651367188 7.3000001907348632812 7.6999998092651367188 7.5999999046325683594 7.4000000953674316406 6.5 6.5 6.3000001907348632812 6.1999998092651367188 6.1999998092651367188 6.0999999046325683594 5.9000000953674316406 5.6999998092651367188 5.8000001907348632812 5.3000001907348632812 5.5999999046325683594 12.100000381469726562 5.1999998092651367188 5.9000000953674316406 6.1999998092651367188 6.0999999046325683594 6.0999999046325683594 6.0999999046325683594 6.0999999046325683594 6.4000000953674316406 7 6.9000000953674316406 7.0999999046325683594 8 9.3000001907348632812 10.199999809265136719 11.100000381469726562 12.399999618530273438 12.5 13.199999809265136719 9.5 9.5 15.600000381469726562 14.899999618530273438 15.5 16 16.399999618530273438 11.300000190734863281 19.600000381469726562 27.799999237060546875 27 24.700000762939453125 24 23.399999618530273438 23.299999237060546875 23.299999237060546875 21.600000381469726562 19.899999618530273438 18.299999237060546875 15.399999618530273438 13.800000190734863281 15.5 16.100000381469726562 14.899999618530273438 12.699999809265136719 10.100000381469726562 8.5 7.9000000953674316406 7.3000001907348632812 6.5999999046325683594 6 3.2000000476837158203 6.0999999046325683594 5.5999999046325683594 5.1999998092651367188 4.9000000953674316406 5.9000000953674316406 6.9000000953674316406 10.199999809265136719 11.199999809265136719 13 14 15.300000190734863281 17 20.299999237060546875 23 26.5 28.200000762939453125 45.299999237060546875 46.5 47 46.299999237060546875 46.59999847412109375 45.90000152587890625 45.90000152587890625 45.90000152587890625 45.799999237060546875 46 46.299999237060546875 47.09999847412109375 47.40000152587890625 47.40000152587890625 47 46.59999847412109375 46.5 45.799999237060546875 45.799999237060546875 45.200000762939453125 44.700000762939453125 44.200000762939453125 43.59999847412109375 42.700000762939453125 41.90000152587890625 41 40.40000152587890625 39.700000762939453125 38.59999847412109375 37.700000762939453125 37.200000762939453125 37.5 38.59999847412109375 39.40000152587890625 
6.3000001907348632812 6.1999998092651367188 6.0999999046325683594 6 6 6 6 5.9000000953674316406 5.6999998092651367188 5.8000001907348632812 6.0999999046325683594 6.1999998092651367188 6.5999999046325683594 6.6999998092651367188 6.8000001907348632812 6.9000000953674316406 6.9000000953674316406 6.6999998092651367188 6.5 6.4000000953674316406 6.3000001907348632812 6.1999998092651367188 6 6 5.8000001907348632812 6.0999999046325683594 6.5999999046325683594 6.1999998092651367188 6.1999998092651367188 6.0999999046325683594 6.3000001907348632812 6.5 6.8000001907348632812 7.3000001907348632812 8.1000003814697265625 8.1999998092651367188 8.3000001907348632812 8.5 9.3000001907348632812 9.5 9.1999998092651367188 9.1000003814697265625 9.8999996185302734375 7.6999998092651367188 7.4000000953674316406 6.9000000953674316406 6.8000001907348632812 7 7.0999999046325683594 7.4000000953674316406 6.8000001907348632812 6.4000000953674316406 6.0999999046325683594 6.0999999046325683594 6.0999999046325683594 6.1999998092651367188 6.5 7 7.3000001907348632812 7.3000001907348632812 7.4000000953674316406 7.5 7.6999998092651367188 7.9000000953674316406 8.1000003814697265625 8.1999998092651367188 8.3000001907348632812 8.1999998092651367188 7.9000000953674316406 7.5999999046325683594 7.5 7.5999999046325683594 7.3000001907348632812 7 7 6.9000000953674316406 6.9000000953674316406 7.3000001907348632812 7.5 7.6999998092651367188 8 8.1000003814697265625 7.8000001907348632812 7.3000001907348632812 7.5999999046325683594 8 8.1000003814697265625 7.5999999046325683594 6.6999998092651367188 6.8000001907348632812 6.5999999046325683594 6.6999998092651367188 6.6999998092651367188 6.5999999046325683594 6.3000001907348632812 6 5.9000000953674316406 5.1999998092651367188 10.199999809265136719 5.5 6.3000001907348632812 6.8000001907348632812 6.6999998092651367188 6.4000000953674316406 6.4000000953674316406 6.9000000953674316406 7.3000001907348632812 7.5 8 7.9000000953674316406 7.9000000953674316406 8.8999996185302734375 10.100000381469726562 11.699999809265136719 13.800000190734863281 15.399999618530273438 15.699999809265136719 15.800000190734863281 16.299999237060546875 16.5 16.799999237060546875 17.299999237060546875 18.299999237060546875 18.799999237060546875 20.100000381469726562 16.600000381469726562 13.199999809265136719 30.899999618530273438 29.299999237060546875 25.5 23.700000762939453125 23.299999237060546875 21.899999618530273438 21.600000381469726562 19.700000762939453125 17.899999618530273438 16.600000381469726562 15.800000190734863281 15.300000190734863281 17.700000762939453125 18.899999618530273438 18.200000762939453125 14.5 11.300000190734863281 9 8.3000001907348632812 7.6999998092651367188 7.0999999046325683594 6.3000001907348632812 6 6.5999999046325683594 5.8000001907348632812 5.1999998092651367188 5.1999998092651367188 5.6999998092651367188 6.0999999046325683594 9.6000003814697265625 12 13.800000190734863281 14.399999618530273438 15.600000381469726562 18.799999237060546875 22.799999237060546875 22.200000762939453125 26.700000762939453125 27.399999618530273438 44.700000762939453125 46.799999237060546875 46.700000762939453125 46.799999237060546875 46.90000152587890625 46.200000762939453125 46.40000152587890625 46.40000152587890625 46.59999847412109375 46.700000762939453125 46.5 47.200000762939453125 47.09999847412109375 47 46.799999237060546875 46.09999847412109375 45.799999237060546875 45.59999847412109375 45.200000762939453125 44.59999847412109375 44.09999847412109375 43.700000762939453125 42.90000152587890625 42 41.59999847412109375 40.799999237060546875 40 39.200000762939453125 37.799999237060546875 36.90000152587890625 36.299999237060546875 37 38 38.700000762939453125 
6.5 6.4000000953674316406 6.3000001907348632812 6.3000001907348632812 6.3000001907348632812 6.3000001907348632812 6.1999998092651367188 6.0999999046325683594 5.9000000953674316406 6.1999998092651367188 6.5 6.3000001907348632812 6.8000001907348632812 7 7.0999999046325683594 7 7 6.9000000953674316406 6.9000000953674316406 6.6999998092651367188 6.5999999046325683594 6.4000000953674316406 6.4000000953674316406 6.4000000953674316406 6.1999998092651367188 6.5 6.5999999046325683594 6.3000001907348632812 6.3000001907348632812 6.0999999046325683594 6.3000001907348632812 6.5999999046325683594 6.9000000953674316406 7.4000000953674316406 8.3000001907348632812 8.6000003814697265625 8.6000003814697265625 9.1000003814697265625 9.6999998092651367188 9.5 9.3000001907348632812 8.8000001907348632812 9.1999998092651367188 7.0999999046325683594 7.3000001907348632812 7.4000000953674316406 7.4000000953674316406 7.8000001907348632812 8.3000001907348632812 8.3000001907348632812 7.4000000953674316406 7 6.5999999046325683594 6.5999999046325683594 6.6999998092651367188 6.8000001907348632812 7.0999999046325683594 7.3000001907348632812 7.6999998092651367188 8.1999998092651367188 8.3000001907348632812 8.3999996185302734375 8.5 8.8000001907348632812 8.8999996185302734375 9 9.5 9.6000003814697265625 9.6000003814697265625 9.1999998092651367188 8.8999996185302734375 8.8999996185302734375 8.6000003814697265625 8.3000001907348632812 7.6999998092651367188 7.3000001907348632812 7.1999998092651367188 7.5999999046325683594 7.6999998092651367188 7.9000000953674316406 7.8000001907348632812 8 7.9000000953674316406 7.6999998092651367188 8 8.3000001907348632812 8.3999996185302734375 7.8000001907348632812 7.3000001907348632812 7.3000001907348632812 7 7.0999999046325683594 7.0999999046325683594 7 6.6999998092651367188 6.4000000953674316406 5.5999999046325683594 8.3000001907348632812 7.8000001907348632812 7.4000000953674316406 7.4000000953674316406 7.4000000953674316406 6.6999998092651367188 7.1999998092651367188 7.1999998092651367188 8 8.6999998092651367188 8.8000001907348632812 9 9 9 10 10.899999618530273438 12.899999618530273438 16 18.100000381469726562 19.600000381469726562 19.799999237060546875 19.5 19.399999618530273438 20 20.700000762939453125 21.700000762939453125 23.799999237060546875 25.200000762939453125 21 13 15.699999809265136719 28 24 22.600000381469726562 21.600000381469726562 17.799999237060546875 17.299999237060546875 18 17.299999237060546875 15.800000190734863281 17.5 18.200000762939453125 19.600000381469726562 19.799999237060546875 18.899999618530273438 16.5 12.699999809265136719 9.6999998092651367188 8.8000001907348632812 8.3999996185302734375 7.3000001907348632812 6.5 6.3000001907348632812 3.2000000476837158203 6.4000000953674316406 5.5 5 5.3000001907348632812 5.6999998092651367188 8.8000001907348632812 13.100000381469726562 15.100000381469726562 16.100000381469726562 16.700000762939453125 17.100000381469726562 20.899999618530273438 21.100000381469726562 27.700000762939453125 41 43.59999847412109375 46.09999847412109375 46.90000152587890625 47 47.09999847412109375 47.200000762939453125 46.90000152587890625 46.700000762939453125 46.59999847412109375 46.799999237060546875 46.799999237060546875 46.700000762939453125 46.5 46.40000152587890625 46.09999847412109375 45.700000762939453125 45.40000152587890625 44.90000152587890625 44.40000152587890625 44.09999847412109375 43.59999847412109375 43 42.299999237060546875 41.40000152587890625 41 40.299999237060546875 39.59999847412109375 38.700000762939453125 37.299999237060546875 36.200000762939453125 35.59999847412109375 36.5 37.299999237060546875 38 
6.6999998092651367188 6.6999998092651367188 6.5999999046325683594 6.5999999046325683594 6.5999999046325683594 6.5999999046325683594 6.4000000953674316406 6.1999998092651367188 6.3000001907348632812 6.6999998092651367188 6.8000001907348632812 7 7.1999998092651367188 7.3000001907348632812 7.1999998092651367188 7.0999999046325683594 7.3000001907348632812 7.3000001907348632812 7.1999998092651367188 7 6.8000001907348632812 6.5999999046325683594 6.4000000953674316406 6.6999998092651367188 6.5999999046325683594 6.5999999046325683594 6.0999999046325683594 6.4000000953674316406 6.8000001907348632812 6.8000001907348632812 6.9000000953674316406 6.9000000953674316406 7.0999999046325683594 7.5 8.3999996185302734375 9.1000003814697265625 9.3999996185302734375 9.8000001907348632812 9.8000001907348632812 9.6999998092651367188 9.3000001907348632812 8.8000001907348632812 8.3000001907348632812 7.5999999046325683594 7.6999998092651367188 7.9000000953674316406 8 8.3999996185302734375 8.6000003814697265625 8.5 7.9000000953674316406 7.6999998092651367188 7.4000000953674316406 7.4000000953674316406 7.5 7.5999999046325683594 7.8000001907348632812 8.1999998092651367188 8.5 9.1000003814697265625 9.1000003814697265625 9.1999998092651367188 9.3000001907348632812 9.6000003814697265625 10 10.399999618530273438 11.100000381469726562 11.5 11.399999618530273438 10.899999618530273438 10.300000190734863281 10.199999809265136719 9.8999996185302734375 9.3999996185302734375 8.8000001907348632812 8.3000001907348632812 7.5 7.6999998092651367188 7.8000001907348632812 8.1999998092651367188 8.3999996185302734375 8.1999998092651367188 8.3999996185302734375 8.3000001907348632812 8.6000003814697265625 9.1000003814697265625 8.6999998092651367188 8.3999996185302734375 8.1000003814697265625 8 7.6999998092651367188 7.5 7.1999998092651367188 7.1999998092651367188 6.9000000953674316406 5.5 9.5 8.5 7.6999998092651367188 7.5 7.6999998092651367188 8 8.1000003814697265625 8.1000003814697265625 8.1999998092651367188 9 9.8999996185302734375 10.399999618530273438 10.600000381469726562 10.300000190734863281 10.5 11.100000381469726562 11.699999809265136719 14.100000381469726562 17.5 20.799999237060546875 23.799999237060546875 24 23.700000762939453125 23.600000381469726562 24.200000762939453125 25.299999237060546875 27.5 29.200000762939453125 30.299999237060546875 27.5 13.800000190734863281 15 26.299999237060546875 24.299999237060546875 22.299999237060546875 19.799999237060546875 16.899999618530273438 15.800000190734863281 16.100000381469726562 15.800000190734863281 15.899999618530273438 18.700000762939453125 20.700000762939453125 21 20.5 19.5 17.299999237060546875 14.5 10.600000381469726562 9.6999998092651367188 9.3000001907348632812 8.3999996185302734375 7.3000001907348632812 6.5999999046325683594 6 3.2000000476837158203 5.9000000953674316406 5.1999998092651367188 5 5.1999998092651367188 8.1999998092651367188 13 16.600000381469726562 18.100000381469726562 17.200000762939453125 17.600000381469726562 17.5 17.600000381469726562 18.700000762939453125 38.40000152587890625 42 44.299999237060546875 45.700000762939453125 47.09999847412109375 47.700000762939453125 47.799999237060546875 47.09999847412109375 46.799999237060546875 46.799999237060546875 46.700000762939453125 46.59999847412109375 46.09999847412109375 45.90000152587890625 45.59999847412109375 45.09999847412109375 44.59999847412109375 44.700000762939453125 44.09999847412109375 43.700000762939453125 43.40000152587890625 43 42.299999237060546875 41.59999847412109375 40.90000152587890625 40.299999237060546875 39.799999237060546875 39.09999847412109375 38.299999237060546875 37 35.59999847412109375 35.200000762939453125 35.5 36.200000762939453125 36.799999237060546875 
6.6999998092651367188 6.6999998092651367188 6.8000001907348632812 6.8000001907348632812 6.9000000953674316406 6.8000001907348632812 6.5999999046325683594 6.4000000953674316406 6.6999998092651367188 7 7.4000000953674316406 7.4000000953674316406 7.4000000953674316406 7.4000000953674316406 7.3000001907348632812 7.1999998092651367188 7.5999999046325683594 7.5 7.4000000953674316406 7.1999998092651367188 7.0999999046325683594 7 6.8000001907348632812 6.6999998092651367188 6.9000000953674316406 7 6.4000000953674316406 7.0999999046325683594 7.4000000953674316406 7.4000000953674316406 7.4000000953674316406 7.4000000953674316406 7.3000001907348632812 7.9000000953674316406 8.6000003814697265625 9.1000003814697265625 9.6999998092651367188 9.8999996185302734375 9.8999996185302734375 9.8000001907348632812 9.3999996185302734375 8.8000001907348632812 8.6000003814697265625 8.1999998092651367188 8.3000001907348632812 8.3000001907348632812 8.6000003814697265625 8.8999996185302734375 9 8.6999998092651367188 8.3999996185302734375 8.3999996185302734375 8.3999996185302734375 8.3000001907348632812 8.3999996185302734375 8.5 8.8000001907348632812 9.1000003814697265625 9.5 9.8999996185302734375 10.100000381469726562 10.399999618530273438 10.600000381469726562 10.699999809265136719 11.199999809265136719 11.899999618530273438 12.699999809265136719 13.399999618530273438 13.199999809265136719 12.699999809265136719 12.199999809265136719 11.600000381469726562 11.199999809265136719 10.600000381469726562 10 9.1999998092651367188 8.3999996185302734375 7.6999998092651367188 8.1000003814697265625 8.3999996185302734375 8.8000001907348632812 8.8999996185302734375 8.8999996185302734375 9 9.1999998092651367188 9.8999996185302734375 9.6999998092651367188 9.3999996185302734375 9 8.6999998092651367188 8.5 8.3999996185302734375 8.1999998092651367188 8.1999998092651367188 8.5 13.300000190734863281 8.6000003814697265625 8.1000003814697265625 7.9000000953674316406 8.1000003814697265625 8.6999998092651367188 8.8999996185302734375 8.8000001907348632812 8.8000001907348632812 9 9.8000001907348632812 10.800000190734863281 11.300000190734863281 11.300000190734863281 11.800000190734863281 11.600000381469726562 11.699999809265136719 12.899999618530273438 15.399999618530273438 19.100000381469726562 22.5 26.5 28 28.100000381469726562 29.299999237060546875 30.299999237060546875 32.5 34.299999237060546875 35.09999847412109375 35.90000152587890625 30 17.399999618530273438 15.100000381469726562 25.399999618530273438 25.100000381469726562 21.100000381469726562 17.899999618530273438 14.800000190734863281 15 14.600000381469726562 15.899999618530273438 18.700000762939453125 20.899999618530273438 22.100000381469726562 21.799999237060546875 20.799999237060546875 19.600000381469726562 16.200000762939453125 13.300000190734863281 9.1000003814697265625 10.699999809265136719 10.399999618530273438 9.8999996185302734375 8.6000003814697265625 7.5999999046325683594 6.9000000953674316406 5 3.2000000476837158203 5.0999999046325683594 4.6999998092651367188 5.0999999046325683594 6.9000000953674316406 11.899999618530273438 15.699999809265136719 18.600000381469726562 19.799999237060546875 19.200000762939453125 17.799999237060546875 21.799999237060546875 22.399999618530273438 35.40000152587890625 39.90000152587890625 41 43.59999847412109375 46.299999237060546875 48 47.90000152587890625 47.40000152587890625 47 46.799999237060546875 46.40000152587890625 46.200000762939453125 45.700000762939453125 45.200000762939453125 44.799999237060546875 44.40000152587890625 44 44 43.299999237060546875 42.90000152587890625 42.299999237060546875 41.40000152587890625 41.59999847412109375 40.59999847412109375 40.200000762939453125 39.700000762939453125 39.200000762939453125 38.5 37.799999237060546875 36.40000152587890625 34.799999237060546875 34 34.299999237060546875 34.799999237060546875 35.40000152587890625 
7 7.1999998092651367188 7.1999998092651367188 7.1999998092651367188 7.3000001907348632812 7.0999999046325683594 6.9000000953674316406 6.6999998092651367188 6.9000000953674316406 7.1999998092651367188 7.3000001907348632812 7.4000000953674316406 7.4000000953674316406 7.4000000953674316406 7.3000001907348632812 7.3000001907348632812 7.6999998092651367188 7.8000001907348632812 7.6999998092651367188 7.4000000953674316406 7.1999998092651367188 7.0999999046325683594 6.9000000953674316406 6.9000000953674316406 7.1999998092651367188 7.4000000953674316406 6.9000000953674316406 7.5 8 8 8 7.9000000953674316406 7.9000000953674316406 8.1999998092651367188 8.6999998092651367188 9.1000003814697265625 9.5 9.8999996185302734375 10 9.8000001907348632812 9.3999996185302734375 9 8.8000001907348632812 8.6999998092651367188 8.6999998092651367188 8.8000001907348632812 8.8999996185302734375 9.1000003814697265625 9.1000003814697265625 8.8000001907348632812 8.8000001907348632812 9 9.1999998092651367188 9.3000001907348632812 9.3999996185302734375 9.5 9.8000001907348632812 10.199999809265136719 10.600000381469726562 11 11.5 11.800000190734863281 11.899999618530273438 12 12.399999618530273438 13.5 14.699999809265136719 15.699999809265136719 15.699999809265136719 15.5 14.899999618530273438 14.100000381469726562 13.100000381469726562 12.199999809265136719 11.199999809265136719 10.300000190734863281 9.5 8.6999998092651367188 8.6999998092651367188 8.6999998092651367188 9.1999998092651367188 9.5 9.3000001907348632812 9.3000001907348632812 9.8000001907348632812 10.699999809265136719 10.699999809265136719 10.399999618530273438 10.199999809265136719 9.6999998092651367188 9.3000001907348632812 9.1999998092651367188 9.1999998092651367188 12.600000381469726562 11.600000381469726562 10.300000190734863281 9.8000001907348632812 8.8999996185302734375 8.8999996185302734375 9.1000003814697265625 9.6999998092651367188 9.8999996185302734375 9.6000003814697265625 9.8000001907348632812 10.100000381469726562 10.300000190734863281 11.5 11.699999809265136719 11.899999618530273438 12.899999618530273438 12.899999618530273438 13 13.699999809265136719 16.399999618530273438 19.700000762939453125 23.600000381469726562 27.700000762939453125 30.600000381469726562 32.59999847412109375 35.09999847412109375 37.200000762939453125 38.90000152587890625 39.700000762939453125 39.5 39.90000152587890625 32.09999847412109375 21.299999237060546875 16.899999618530273438 25.700000762939453125 24.899999618530273438 20.700000762939453125 17.5 14.100000381469726562 14.399999618530273438 15.300000190734863281 17.899999618530273438 20.700000762939453125 22.899999618530273438 23.399999618530273438 22.799999237060546875 21.299999237060546875 19.700000762939453125 16.5 14.100000381469726562 12.800000190734863281 9.6000003814697265625 12 11.899999618530273438 10.800000190734863281 9.1999998092651367188 7.4000000953674316406 5.3000001907348632812 4.5999999046325683594 4.8000001907348632812 4.5999999046325683594 4.9000000953674316406 6 10.399999618530273438 14.199999809265136719 17.899999618530273438 20.100000381469726562 19.799999237060546875 26.200000762939453125 28.399999618530273438 33.59999847412109375 35.5 36.200000762939453125 37.90000152587890625 42.09999847412109375 46 47.40000152587890625 47.799999237060546875 47.59999847412109375 47.09999847412109375 46.59999847412109375 46.200000762939453125 45.5 44.799999237060546875 44.299999237060546875 44 43.799999237060546875 43.59999847412109375 43.09999847412109375 42.59999847412109375 42.200000762939453125 34.40000152587890625 38.799999237060546875 40.09999847412109375 39.40000152587890625 39.09999847412109375 38.700000762939453125 38.59999847412109375 38 37.200000762939453125 35.799999237060546875 34.200000762939453125 33.200000762939453125 33 33.200000762939453125 33.59999847412109375 
7.3000001907348632812 7.4000000953674316406 7.5 7.5999999046325683594 7.5999999046325683594 7.4000000953674316406 7.0999999046325683594 6.9000000953674316406 6.9000000953674316406 7.0999999046325683594 7.3000001907348632812 7.4000000953674316406 7.5 7.6999998092651367188 7.6999998092651367188 7.8000001907348632812 8 7.6999998092651367188 7.6999998092651367188 7.5 7.1999998092651367188 7.1999998092651367188 7.0999999046325683594 7.0999999046325683594 7.1999998092651367188 7 7.1999998092651367188 7.8000001907348632812 8.1999998092651367188 8.3999996185302734375 8.3000001907348632812 8.3000001907348632812 8.3999996185302734375 8.5 8.8999996185302734375 9.1999998092651367188 9.5 9.8000001907348632812 9.8999996185302734375 9.6999998092651367188 9.5 9.3000001907348632812 9.1999998092651367188 9 9.1000003814697265625 9.1999998092651367188 9.3000001907348632812 9.3000001907348632812 9.1999998092651367188 9.1999998092651367188 9.3999996185302734375 9.8999996185302734375 10.199999809265136719 10.399999618530273438 10.399999618530273438 10.600000381469726562 11.100000381469726562 11.5 12.399999618530273438 13.300000190734863281 13.600000381469726562 13.5 13.5 13.600000381469726562 14.100000381469726562 15.100000381469726562 16.600000381469726562 18.200000762939453125 18.899999618530273438 18.399999618530273438 17.600000381469726562 16.700000762939453125 15.5 14.199999809265136719 12.899999618530273438 11.5 10.100000381469726562 9.3000001907348632812 9.1999998092651367188 9 9.5 9.8000001907348632812 9.8000001907348632812 9.8000001907348632812 10.600000381469726562 11.800000190734863281 11.800000190734863281 12.5 14.100000381469726562 15.399999618530273438 15.300000190734863281 9.6000003814697265625 9.6999998092651367188 10.300000190734863281 11.100000381469726562 11.600000381469726562 11.5 10.899999618530273438 10.399999618530273438 10.699999809265136719 11.199999809265136719 11.899999618530273438 11.300000190734863281 11.100000381469726562 11.199999809265136719 11.100000381469726562 11.5 12.100000381469726562 12.800000190734863281 13.699999809265136719 14.199999809265136719 14.199999809265136719 15.100000381469726562 16.5 19.700000762939453125 23.200000762939453125 27.100000381469726562 32.59999847412109375 36.200000762939453125 39.700000762939453125 42.5 43.200000762939453125 43.700000762939453125 43.200000762939453125 40.59999847412109375 35.299999237060546875 23.100000381469726562 14 25.299999237060546875 24.100000381469726562 20.799999237060546875 16.799999237060546875 15.199999809265136719 15.899999618530273438 18 20.700000762939453125 22.700000762939453125 24.399999618530273438 24.200000762939453125 23.5 22 20.299999237060546875 17.799999237060546875 15.100000381469726562 14.100000381469726562 14.800000190734863281 16.899999618530273438 10.800000190734863281 12.600000381469726562 12.800000190734863281 8.8999996185302734375 6.5999999046325683594 5.1999998092651367188 3.2999999523162841797 4.3000001907348632812 4.8000001907348632812 5.5 7.6999998092651367188 11.600000381469726562 15.300000190734863281 18.200000762939453125 21.600000381469726562 24.5 27.899999618530273438 30.399999618530273438 32.200000762939453125 33.299999237060546875 36.799999237060546875 40.90000152587890625 44.799999237060546875 46.799999237060546875 47.09999847412109375 47 46.5 45.90000152587890625 45.299999237060546875 44.59999847412109375 43.700000762939453125 42.799999237060546875 42.200000762939453125 42.5 42.700000762939453125 42.299999237060546875 41.799999237060546875 40.200000762939453125 34.40000152587890625 34.200000762939453125 39.200000762939453125 38.200000762939453125 37.59999847412109375 37.40000152587890625 37.90000152587890625 37.59999847412109375 36.799999237060546875 35.59999847412109375 34.09999847412109375 32.200000762939453125 32.09999847412109375 31.799999237060546875 32.200000762939453125 
7.3000001907348632812 7.5 7.8000001907348632812 7.8000001907348632812 7.6999998092651367188 7.5 7.3000001907348632812 7 7.0999999046325683594 7.4000000953674316406 7.5999999046325683594 7.5999999046325683594 7.5999999046325683594 8 8.1999998092651367188 8.3000001907348632812 8.3999996185302734375 7.8000001907348632812 7.5999999046325683594 7.5 7.3000001907348632812 7.1999998092651367188 7.0999999046325683594 7.0999999046325683594 7 6.5 7.1999998092651367188 7.9000000953674316406 8.3000001907348632812 8.5 8.5 8.8000001907348632812 8.8999996185302734375 8.8999996185302734375 9 9.3000001907348632812 9.6000003814697265625 9.8999996185302734375 9.8000001907348632812 9.5 9.3999996185302734375 9.3999996185302734375 9.3000001907348632812 9.1999998092651367188 9.3000001907348632812 9.3999996185302734375 9.3000001907348632812 9.1000003814697265625 9.3999996185302734375 9.6999998092651367188 10.199999809265136719 10.699999809265136719 11 11.199999809265136719 11.399999618530273438 11.899999618530273438 12.300000190734863281 13.300000190734863281 14.5 15.5 15.5 15.399999618530273438 15.199999809265136719 15.199999809265136719 15.899999618530273438 17.299999237060546875 19 20.399999618530273438 21.600000381469726562 21.700000762939453125 21 19.5 17.799999237060546875 16.100000381469726562 14 12.399999618530273438 11.399999618530273438 9.8999996185302734375 9.6000003814697265625 9.5 9.6999998092651367188 10 10.100000381469726562 10.300000190734863281 10.699999809265136719 14.399999618530273438 11.399999618530273438 11.600000381469726562 11.300000190734863281 10.5 9.8000001907348632812 10 10.399999618530273438 11.600000381469726562 12.199999809265136719 12.800000190734863281 12.800000190734863281 12.300000190734863281 12.300000190734863281 13.199999809265136719 13.100000381469726562 13.600000381469726562 13.100000381469726562 12.600000381469726562 12.100000381469726562 11.800000190734863281 11.600000381469726562 12.5 13.399999618530273438 14.199999809265136719 14.800000190734863281 15.300000190734863281 16.299999237060546875 17.700000762939453125 19.600000381469726562 23.299999237060546875 26.799999237060546875 32.09999847412109375 38.200000762939453125 43.40000152587890625 46.09999847412109375 46.59999847412109375 46.09999847412109375 44.40000152587890625 42 37.799999237060546875 27 14.300000190734863281 24.5 23.600000381469726562 20.299999237060546875 17.299999237060546875 16.399999618530273438 17.799999237060546875 20.100000381469726562 22 24.200000762939453125 25.399999618530273438 25 23.899999618530273438 22.899999618530273438 21.299999237060546875 19.5 16.799999237060546875 16 16.899999618530273438 19.100000381469726562 19.100000381469726562 11.199999809265136719 12 13 8.6999998092651367188 6.0999999046325683594 5.9000000953674316406 5.5 6.3000001907348632812 6.1999998092651367188 6.9000000953674316406 9.1000003814697265625 12.100000381469726562 15 19.200000762939453125 21.5 24.399999618530273438 26.600000381469726562 29 31.600000381469726562 35.5 39.299999237060546875 39.40000152587890625 38.799999237060546875 45 46 45.200000762939453125 44.200000762939453125 44.200000762939453125 43.5 42.40000152587890625 40.700000762939453125 40.09999847412109375 41.40000152587890625 41.5 41.5 41 40.5 39 34.5 37.200000762939453125 36.799999237060546875 36.09999847412109375 36.09999847412109375 36.799999237060546875 36.90000152587890625 36.40000152587890625 35.59999847412109375 34 31.100000381469726562 30.5 29.899999618530273438 30.100000381469726562 
7.6999998092651367188 7.8000001907348632812 7.9000000953674316406 7.9000000953674316406 7.8000001907348632812 7.5999999046325683594 7.5999999046325683594 7.5 7.4000000953674316406 7.6999998092651367188 7.5999999046325683594 7.6999998092651367188 7.6999998092651367188 8.1000003814697265625 8.3999996185302734375 8.6000003814697265625 8.5 7.9000000953674316406 8.1000003814697265625 7.9000000953674316406 7.5999999046325683594 7.3000001907348632812 7.0999999046325683594 7.3000001907348632812 7 6.9000000953674316406 7.3000001907348632812 7.8000001907348632812 8.1999998092651367188 8.3999996185302734375 8.5 8.6999998092651367188 8.8999996185302734375 9.3000001907348632812 9.3999996185302734375 9.6000003814697265625 9.6999998092651367188 10 9.8000001907348632812 9.5 9.3000001907348632812 9.3999996185302734375 9.3999996185302734375 9.3999996185302734375 9.3999996185302734375 9.6000003814697265625 9.3999996185302734375 9.5 10 10.399999618530273438 10.899999618530273438 11.600000381469726562 11.899999618530273438 12.199999809265136719 12.600000381469726562 13.100000381469726562 13.899999618530273438 15.300000190734863281 17 18.399999618530273438 19 18 17 17.100000381469726562 18.200000762939453125 19.799999237060546875 20.100000381469726562 20.299999237060546875 21.799999237060546875 23.700000762939453125 24.399999618530273438 22.700000762939453125 20.5 17.5 15.100000381469726562 13.199999809265136719 12.100000381469726562 10.699999809265136719 10.100000381469726562 10.199999809265136719 10.300000190734863281 10.300000190734863281 10.5 10.699999809265136719 10.899999618530273438 11 11.399999618530273438 11.300000190734863281 10.600000381469726562 10.300000190734863281 10.399999618530273438 10.399999618530273438 11.300000190734863281 12.300000190734863281 13.300000190734863281 13.5 13.300000190734863281 12.899999618530273438 13.300000190734863281 13.899999618530273438 14.600000381469726562 14.600000381469726562 14.199999809265136719 13.600000381469726562 12.800000190734863281 12.5 12.300000190734863281 13.100000381469726562 14 14.899999618530273438 15.5 16.600000381469726562 17.799999237060546875 19.600000381469726562 21 24.700000762939453125 28.299999237060546875 31.299999237060546875 38.59999847412109375 45.299999237060546875 47.700000762939453125 47.90000152587890625 46.799999237060546875 44.5 41.59999847412109375 36.700000762939453125 31 19.200000762939453125 24.899999618530273438 23.100000381469726562 20.200000762939453125 18.200000762939453125 17.399999618530273438 19.799999237060546875 22.700000762939453125 24.200000762939453125 25.700000762939453125 25.899999618530273438 25.700000762939453125 24.299999237060546875 23.600000381469726562 22.399999618530273438 21 18.899999618530273438 18.299999237060546875 19.600000381469726562 21 21.5 19.299999237060546875 14.300000190734863281 10.800000190734863281 11.300000190734863281 9.6999998092651367188 13.5 5.5999999046325683594 5.9000000953674316406 6.1999998092651367188 6.3000001907348632812 8 9.8000001907348632812 12.600000381469726562 15.899999618530273438 18.399999618530273438 20.600000381469726562 22 26.100000381469726562 29.899999618530273438 33 36 36.200000762939453125 38.59999847412109375 42.90000152587890625 42.5 42.59999847412109375 41.90000152587890625 40.90000152587890625 41.40000152587890625 41.40000152587890625 39.200000762939453125 37.700000762939453125 39.59999847412109375 40.40000152587890625 40.5 40.40000152587890625 39.799999237060546875 38.299999237060546875 37.799999237060546875 37.09999847412109375 36.5 35.299999237060546875 34.799999237060546875 35.299999237060546875 35.59999847412109375 36.700000762939453125 35.799999237060546875 33.700000762939453125 31.100000381469726562 29.299999237060546875 28 28.100000381469726562 
8.1999998092651367188 8 8.1000003814697265625 8 7.8000001907348632812 7.6999998092651367188 7.6999998092651367188 7.9000000953674316406 7.8000001907348632812 7.9000000953674316406 7.6999998092651367188 7.6999998092651367188 7.9000000953674316406 8 8.5 8.8000001907348632812 8.5 8 8.3000001907348632812 8.3000001907348632812 7.9000000953674316406 7.5999999046325683594 7.4000000953674316406 7.5 7.3000001907348632812 7.1999998092651367188 7.4000000953674316406 7.8000001907348632812 8.1000003814697265625 8.3000001907348632812 8.3000001907348632812 8.6000003814697265625 8.5 9.5 9.6999998092651367188 9.8000001907348632812 9.8999996185302734375 9.8000001907348632812 9.6000003814697265625 9.6000003814697265625 9.5 9.5 9.5 9.5 9.6999998092651367188 9.8999996185302734375 10.100000381469726562 10.5 10.899999618530273438 11.300000190734863281 11.800000190734863281 12.800000190734863281 13 13.300000190734863281 13.699999809265136719 14.5 15.899999618530273438 18.299999237060546875 20.5 21.5 22.899999618530273438 22.899999618530273438 15.5 20.200000762939453125 21.200000762939453125 21.899999618530273438 26.100000381469726562 27.700000762939453125 28.600000381469726562 26.5 19.399999618530273438 19.600000381469726562 17.799999237060546875 17.700000762939453125 14.899999618530273438 12.600000381469726562 11.300000190734863281 10.699999809265136719 10.5 10.699999809265136719 10.899999618530273438 11.100000381469726562 11.399999618530273438 11.600000381469726562 11.399999618530273438 11.399999618530273438 11.199999809265136719 11.199999809265136719 10.699999809265136719 10.5 10.5 11.100000381469726562 12.300000190734863281 13.100000381469726562 14.100000381469726562 15.300000190734863281 14.699999809265136719 14.100000381469726562 14.699999809265136719 14.600000381469726562 15.100000381469726562 15.199999809265136719 14.699999809265136719 14 13.300000190734863281 13.199999809265136719 13 13.800000190734863281 14.800000190734863281 15.699999809265136719 16.600000381469726562 18 20 22.399999618530273438 24.799999237060546875 28.5 31.700000762939453125 33.299999237060546875 39.700000762939453125 46.09999847412109375 48.299999237060546875 48.40000152587890625 47.09999847412109375 44.59999847412109375 40.299999237060546875 36.40000152587890625 30.899999618530273438 22.700000762939453125 25.200000762939453125 23.399999618530273438 20.299999237060546875 18.299999237060546875 18.399999618530273438 21 23.799999237060546875 25.5 26.799999237060546875 26.5 26.299999237060546875 25.200000762939453125 24.399999618530273438 23 21.799999237060546875 20.200000762939453125 19.700000762939453125 20.299999237060546875 21.600000381469726562 22.299999237060546875 22.100000381469726562 21.5 15.800000190734863281 12.899999618530273438 8.8000001907348632812 6.8000001907348632812 5.3000001907348632812 5.3000001907348632812 5.8000001907348632812 6.5999999046325683594 7.0999999046325683594 8.6999998092651367188 10.800000190734863281 12.899999618530273438 15.800000190734863281 17.700000762939453125 20.200000762939453125 24.799999237060546875 28.200000762939453125 30.299999237060546875 32.200000762939453125 34.59999847412109375 37.200000762939453125 37.799999237060546875 36.90000152587890625 36.700000762939453125 37.299999237060546875 36.799999237060546875 38.90000152587890625 39.299999237060546875 37.700000762939453125 35.799999237060546875 37.799999237060546875 39.299999237060546875 39 39.200000762939453125 38.799999237060546875 36.90000152587890625 39.40000152587890625 38.5 36.299999237060546875 34.59999847412109375 33.5 33.200000762939453125 33.200000762939453125 36.09999847412109375 36.200000762939453125 34.5 30.700000762939453125 28.5 26.600000381469726562 27.200000762939453125 
8.6999998092651367188 8.5 8.3999996185302734375 8.1999998092651367188 7.9000000953674316406 8 8.3000001907348632812 8.3000001907348632812 8.1999998092651367188 8.1000003814697265625 7.9000000953674316406 8 8.1000003814697265625 8.1999998092651367188 8.6000003814697265625 8.8999996185302734375 8.6000003814697265625 8 8.1999998092651367188 8.3000001907348632812 8.3000001907348632812 8 7.5 7.5 7.5999999046325683594 7.3000001907348632812 7.5999999046325683594 7.8000001907348632812 8.1000003814697265625 8.1000003814697265625 7.9000000953674316406 8.3999996185302734375 8.8000001907348632812 9.3999996185302734375 9.8000001907348632812 9.8000001907348632812 9.6999998092651367188 9.6000003814697265625 9.8000001907348632812 9.8999996185302734375 9.6999998092651367188 9.6000003814697265625 9.6999998092651367188 9.8999996185302734375 10.100000381469726562 10.399999618530273438 10.899999618530273438 11.600000381469726562 12 12.399999618530273438 12.899999618530273438 14 14.600000381469726562 14.699999809265136719 15.199999809265136719 16.399999618530273438 17.799999237060546875 19.600000381469726562 21 23.399999618530273438 23.799999237060546875 23.700000762939453125 23 23.200000762939453125 28.200000762939453125 30.899999618530273438 28.600000381469726562 29.799999237060546875 30.600000381469726562 29.399999618530273438 25 22.200000762939453125 20.799999237060546875 18.299999237060546875 16.700000762939453125 16.5 13.899999618530273438 12.100000381469726562 10.899999618530273438 10.800000190734863281 11 11.600000381469726562 12 12.300000190734863281 12.100000381469726562 11.899999618530273438 11.399999618530273438 11.300000190734863281 10.899999618530273438 10.699999809265136719 10.800000190734863281 11.5 12.399999618530273438 13.300000190734863281 14.100000381469726562 14.699999809265136719 14.600000381469726562 16 15.899999618530273438 15.699999809265136719 15.5 15.899999618530273438 15.199999809265136719 14.399999618530273438 13.800000190734863281 13.699999809265136719 13.800000190734863281 14.399999618530273438 15.199999809265136719 16.399999618530273438 18 20.5 22.200000762939453125 25.5 28.899999618530273438 32.90000152587890625 36.799999237060546875 39 43.799999237060546875 47.700000762939453125 48.299999237060546875 48.40000152587890625 46.799999237060546875 43.799999237060546875 39.299999237060546875 35.200000762939453125 31.399999618530273438 25.299999237060546875 21.700000762939453125 23.600000381469726562 21.299999237060546875 18.700000762939453125 19.200000762939453125 21.899999618530273438 24.700000762939453125 26.700000762939453125 27.5 27 26.700000762939453125 26.299999237060546875 25 23.600000381469726562 22.600000381469726562 21.799999237060546875 21.600000381469726562 21.600000381469726562 21.5 22.200000762939453125 21.200000762939453125 19.799999237060546875 17.899999618530273438 15.5 12.100000381469726562 10.699999809265136719 6.9000000953674316406 5.0999999046325683594 5.5 6.5 3.2000000476837158203 7.3000001907348632812 9 11.100000381469726562 13.399999618530273438 15.899999618530273438 18.200000762939453125 22.899999618530273438 25.100000381469726562 26.200000762939453125 29.799999237060546875 33.200000762939453125 35.799999237060546875 34 31.799999237060546875 31.5 32.299999237060546875 32.59999847412109375 34.799999237060546875 36.40000152587890625 36.200000762939453125 33.200000762939453125 34.200000762939453125 35.299999237060546875 36.09999847412109375 35.700000762939453125 34.09999847412109375 35.700000762939453125 39.200000762939453125 38.90000152587890625 36.700000762939453125 33.700000762939453125 32.200000762939453125 31.200000762939453125 30.299999237060546875 35.700000762939453125 31.799999237060546875 31.5 30.5 27 26.399999618530273438 26.799999237060546875 
9.3999996185302734375 9 9 8.3000001907348632812 8.6999998092651367188 9 8.6999998092651367188 8.6999998092651367188 8.8999996185302734375 8.6000003814697265625 8.6000003814697265625 8.6999998092651367188 8.6999998092651367188 8.6999998092651367188 8.8000001907348632812 8.6999998092651367188 8.3999996185302734375 8.1000003814697265625 7.9000000953674316406 8 8.1999998092651367188 7.9000000953674316406 7.4000000953674316406 7.4000000953674316406 7.0999999046325683594 7.5999999046325683594 8.1000003814697265625 8.1999998092651367188 8.1999998092651367188 8.3000001907348632812 8.5 8.8000001907348632812 9 9.3999996185302734375 9.8000001907348632812 10.199999809265136719 9.8000001907348632812 9.8000001907348632812 10 10.100000381469726562 10 10 10.100000381469726562 10.199999809265136719 10.600000381469726562 11.300000190734863281 11.800000190734863281 12.399999618530273438 13.199999809265136719 13.5 13.899999618530273438 15 16.100000381469726562 16.399999618530273438 17.399999618530273438 18.299999237060546875 19.799999237060546875 15.800000190734863281 19.200000762939453125 25.799999237060546875 25.200000762939453125 25.299999237060546875 25.899999618530273438 26.799999237060546875 29.799999237060546875 31.399999618530273438 30.600000381469726562 31.799999237060546875 32.299999237060546875 30.700000762939453125 27.600000381469726562 24.600000381469726562 21.899999618530273438 18.200000762939453125 17.299999237060546875 15.300000190734863281 13.600000381469726562 12 11.100000381469726562 10.899999618530273438 11.100000381469726562 11.600000381469726562 12.100000381469726562 12.5 11.899999618530273438 11.699999809265136719 11.600000381469726562 11.5 11.199999809265136719 11.300000190734863281 11.300000190734863281 11.899999618530273438 12.899999618530273438 13.800000190734863281 14.600000381469726562 14.800000190734863281 15 15.100000381469726562 16.5 21.299999237060546875 17.200000762939453125 16.700000762939453125 16.200000762939453125 15.399999618530273438 14.5 14.5 14.699999809265136719 16 17 17.899999618530273438 19.899999618530273438 22.799999237060546875 26.100000381469726562 28.799999237060546875 32.200000762939453125 36.59999847412109375 40.90000152587890625 43.700000762939453125 46.700000762939453125 47.5 48.09999847412109375 47.59999847412109375 46.40000152587890625 43 38.40000152587890625 35 30.299999237060546875 26.600000381469726562 19.799999237060546875 24 22.200000762939453125 19.200000762939453125 19.399999618530273438 22.600000381469726562 25.600000381469726562 27.399999618530273438 27.700000762939453125 27.600000381469726562 27.299999237060546875 27 25.299999237060546875 24 23.200000762939453125 22.799999237060546875 22.899999618530273438 22.600000381469726562 22.600000381469726562 20 21.299999237060546875 19 16.5 15.300000190734863281 14.100000381469726562 10 8.1000003814697265625 11.300000190734863281 5.5 5.4000000953674316406 5.5999999046325683594 6.3000001907348632812 7.6999998092651367188 9.3000001907348632812 12.199999809265136719 13.800000190734863281 15.699999809265136719 18.200000762939453125 20.5 22.799999237060546875 28.399999618530273438 32 33.40000152587890625 31.600000381469726562 29.299999237060546875 27.899999618530273438 27.899999618530273438 29 30.5 32.700000762939453125 36.299999237060546875 30.899999618530273438 30.100000381469726562 31 32.09999847412109375 29.700000762939453125 29.100000381469726562 32.90000152587890625 35.299999237060546875 35.700000762939453125 34.40000152587890625 32.40000152587890625 30.5 30.299999237060546875 27 31.399999618530273438 31 29.700000762939453125 29.100000381469726562 28.399999618530273438 28.100000381469726562 20.899999618530273438 
9.6999998092651367188 9.5 9.6000003814697265625 8.6999998092651367188 8.6000003814697265625 9.3999996185302734375 9.3999996185302734375 9.1000003814697265625 9.6999998092651367188 9.5 9.5 9.1999998092651367188 9.3000001907348632812 9.3000001907348632812 9.1999998092651367188 9.3000001907348632812 9 8.3999996185302734375 7.9000000953674316406 7.8000001907348632812 7.9000000953674316406 8.3000001907348632812 8.1999998092651367188 7.9000000953674316406 7.1999998092651367188 7.5 8.1999998092651367188 8.3000001907348632812 8.3000001907348632812 8.3999996185302734375 8.8999996185302734375 9 9.1999998092651367188 9.5 10.199999809265136719 10 9.8000001907348632812 9.8999996185302734375 10.199999809265136719 10.600000381469726562 10.5 10.5 10.5 10.899999618530273438 11.699999809265136719 12.199999809265136719 12.699999809265136719 13.300000190734863281 14 14.399999618530273438 15.199999809265136719 16.200000762939453125 17.299999237060546875 18.100000381469726562 19.899999618530273438 15.800000190734863281 20.700000762939453125 23.299999237060546875 26.100000381469726562 28 28.700000762939453125 28.899999618530273438 29.200000762939453125 30 31.200000762939453125 33.09999847412109375 32.90000152587890625 33.5 33.299999237060546875 31.299999237060546875 28.299999237060546875 24.5 21.100000381469726562 19.200000762939453125 16.799999237060546875 15.199999809265136719 13.800000190734863281 12.5 11.600000381469726562 11 11.399999618530273438 11.800000190734863281 12.300000190734863281 12.600000381469726562 12.5 12.5 12.399999618530273438 11.800000190734863281 11.699999809265136719 11.600000381469726562 11.600000381469726562 12.5 13.399999618530273438 14.399999618530273438 15.399999618530273438 15.600000381469726562 15.699999809265136719 15.699999809265136719 16.600000381469726562 16.600000381469726562 17 23.5 20.399999618530273438 16.5 15.600000381469726562 15.300000190734863281 17.100000381469726562 17.5 18.799999237060546875 20.5 22.700000762939453125 26 28.799999237060546875 32.200000762939453125 36.59999847412109375 41.90000152587890625 47.299999237060546875 48.40000152587890625 46.59999847412109375 46.200000762939453125 46.200000762939453125 45.59999847412109375 44.299999237060546875 42 37.799999237060546875 34.200000762939453125 29.799999237060546875 25.799999237060546875 18.899999618530273438 24.799999237060546875 23.600000381469726562 19.799999237060546875 20.100000381469726562 22.700000762939453125 26.100000381469726562 28 28 28.200000762939453125 27.5 26.700000762939453125 26.799999237060546875 25.100000381469726562 24.299999237060546875 24.700000762939453125 22.100000381469726562 24.5 25.700000762939453125 24.799999237060546875 23.799999237060546875 17.600000381469726562 15.199999809265136719 15.100000381469726562 12.199999809265136719 9.6999998092651367188 9.5 6.8000001907348632812 10.699999809265136719 6.3000001907348632812 5.8000001907348632812 5.6999998092651367188 6.5 8.6999998092651367188 10 12 12.899999618530273438 15.399999618530273438 17.200000762939453125 21.299999237060546875 26.600000381469726562 29.700000762939453125 30.700000762939453125 29.799999237060546875 27.100000381469726562 25 24.399999618530273438 25.899999618530273438 27.299999237060546875 30.100000381469726562 33.5 29.5 26.100000381469726562 26.5 27.299999237060546875 24.600000381469726562 24 26.799999237060546875 29.200000762939453125 29.600000381469726562 28.799999237060546875 27.299999237060546875 25.899999618530273438 25.100000381469726562 24.200000762939453125 23.600000381469726562 25.200000762939453125 24.899999618530273438 25.399999618530273438 20.399999618530273438 30.899999618530273438 30.299999237060546875 
10.100000381469726562 10.100000381469726562 10.199999809265136719 10.300000190734863281 10.100000381469726562 10 10.199999809265136719 10.199999809265136719 10.699999809265136719 10.5 10.199999809265136719 9.6000003814697265625 9.6999998092651367188 9.6999998092651367188 9.6000003814697265625 9.8000001907348632812 9.8000001907348632812 8.8999996185302734375 8.1000003814697265625 7.8000001907348632812 7.9000000953674316406 8 7.9000000953674316406 7.8000001907348632812 7.9000000953674316406 8.1999998092651367188 8.3999996185302734375 8.6000003814697265625 9.1000003814697265625 9.1000003814697265625 9.1999998092651367188 9.3000001907348632812 9.6000003814697265625 9.8999996185302734375 10.5 10.699999809265136719 10.600000381469726562 11.399999618530273438 11 11.600000381469726562 11.300000190734863281 11.300000190734863281 11.199999809265136719 11.800000190734863281 12.5 13.300000190734863281 14 14.399999618530273438 14.699999809265136719 15.699999809265136719 16.600000381469726562 17.700000762939453125 18.799999237060546875 19.299999237060546875 19.5 22.799999237060546875 24.100000381469726562 25.700000762939453125 28.799999237060546875 30.100000381469726562 30.600000381469726562 31.299999237060546875 32 32.40000152587890625 33.5 34.700000762939453125 35.200000762939453125 34.90000152587890625 33.700000762939453125 30.299999237060546875 27.700000762939453125 23.100000381469726562 20.399999618530273438 18.399999618530273438 16.799999237060546875 15.399999618530273438 14.100000381469726562 12.800000190734863281 12 11.300000190734863281 11.699999809265136719 12.199999809265136719 12.800000190734863281 12.800000190734863281 12.800000190734863281 13.600000381469726562 13.199999809265136719 12.399999618530273438 11.800000190734863281 11.600000381469726562 12.100000381469726562 13 14 15 16 16.299999237060546875 16.399999618530273438 16.399999618530273438 17.100000381469726562 17.100000381469726562 17.200000762939453125 17.200000762939453125 17.299999237060546875 17.799999237060546875 19.899999618530273438 26.100000381469726562 25.399999618530273438 22.899999618530273438 22 23.100000381469726562 25.899999618530273438 29.399999618530273438 31.899999618530273438 36.40000152587890625 39.299999237060546875 42.40000152587890625 45 45.40000152587890625 43.299999237060546875 41.799999237060546875 41 40.299999237060546875 39.90000152587890625 39 37.40000152587890625 33.90000152587890625 29.600000381469726562 26.299999237060546875 18.600000381469726562 23.399999618530273438 22.299999237060546875 19.700000762939453125 20.5 22.299999237060546875 26.100000381469726562 27.700000762939453125 28.5 28.899999618530273438 28.700000762939453125 27.5 26.700000762939453125 25 21.5 28.100000381469726562 27.700000762939453125 27 26.100000381469726562 25.5 20.5 15.300000190734863281 13.699999809265136719 12.300000190734863281 11.100000381469726562 9.1999998092651367188 8.3999996185302734375 11.5 6.5 6.5999999046325683594 9.1999998092651367188 6.8000001907348632812 7.3000001907348632812 3.2000000476837158203 8 10.600000381469726562 11.600000381469726562 12.399999618530273438 15.5 19.399999618530273438 23.200000762939453125 26.100000381469726562 28.100000381469726562 27.299999237060546875 25.100000381469726562 22.5 21.899999618530273438 23.700000762939453125 25.200000762939453125 25.700000762939453125 27 26.899999618530273438 21.899999618530273438 22.200000762939453125 22 19.799999237060546875 19.799999237060546875 21.200000762939453125 22.5 22.5 21.299999237060546875 21 20.799999237060546875 21.799999237060546875 22.100000381469726562 24.700000762939453125 19.600000381469726562 25.399999618530273438 26.899999618530273438 32 32.799999237060546875 32.59999847412109375 
10.399999618530273438 10.600000381469726562 11.199999809265136719 12 11.600000381469726562 11.399999618530273438 11 11.300000190734863281 11.699999809265136719 11.399999618530273438 10.800000190734863281 10.100000381469726562 10.199999809265136719 10.5 10.5 10.600000381469726562 10.300000190734863281 9.3999996185302734375 8.6000003814697265625 7.8000001907348632812 7.6999998092651367188 7.6999998092651367188 7.9000000953674316406 8.1999998092651367188 8.1000003814697265625 8.6999998092651367188 8.8999996185302734375 9.1000003814697265625 9.5 9.6999998092651367188 9.6000003814697265625 9.8000001907348632812 10 10.399999618530273438 10.899999618530273438 11.100000381469726562 11.699999809265136719 11.600000381469726562 11.600000381469726562 12.199999809265136719 12 12 12.199999809265136719 12.800000190734863281 13.5 15 15.600000381469726562 15.600000381469726562 15.600000381469726562 16.600000381469726562 18.100000381469726562 19.700000762939453125 19.100000381469726562 21.799999237060546875 21.899999618530273438 26.700000762939453125 28.100000381469726562 28.899999618530273438 30.299999237060546875 32.09999847412109375 32.799999237060546875 33.5 34.299999237060546875 35.09999847412109375 35.700000762939453125 36.700000762939453125 37.299999237060546875 35.700000762939453125 33.59999847412109375 30.399999618530273438 26 20.200000762939453125 19.5 18.5 17.100000381469726562 15.699999809265136719 14.399999618530273438 13.100000381469726562 12.399999618530273438 11.5 12.199999809265136719 12.800000190734863281 13.300000190734863281 13 12.800000190734863281 13.5 13.100000381469726562 12.300000190734863281 11.600000381469726562 11.600000381469726562 12.600000381469726562 13.5 14.699999809265136719 15.300000190734863281 16 16.799999237060546875 17 17.100000381469726562 17.600000381469726562 18.100000381469726562 17.899999618530273438 17.799999237060546875 17.899999618530273438 17.600000381469726562 17.299999237060546875 18.600000381469726562 19.899999618530273438 21.399999618530273438 22.600000381469726562 27.799999237060546875 28.899999618530273438 28.899999618530273438 29.600000381469726562 37.299999237060546875 39.299999237060546875 41.299999237060546875 41.90000152587890625 41.299999237060546875 38.90000152587890625 37.09999847412109375 35.5 35 35.5 36.700000762939453125 35.90000152587890625 32.700000762939453125 28.799999237060546875 26.299999237060546875 18.700000762939453125 24.200000762939453125 21.600000381469726562 19.799999237060546875 20.600000381469726562 22.700000762939453125 25.5 27.600000381469726562 28.600000381469726562 29.700000762939453125 29.5 28.299999237060546875 20.600000381469726562 28.899999618530273438 28.799999237060546875 28.700000762939453125 28.5 27.899999618530273438 27 26.200000762939453125 17.700000762939453125 14.5 13.5 17.799999237060546875 15.600000381469726562 9.1000003814697265625 8.3000001907348632812 11 6.5 6.6999998092651367188 6.0999999046325683594 9.3000001907348632812 13 6.5999999046325683594 6.5 9 9.3999996185302734375 10.399999618530273438 13.800000190734863281 17.200000762939453125 20.399999618530273438 23.200000762939453125 24.799999237060546875 24 22 19.600000381469726562 22.299999237060546875 21.700000762939453125 21.700000762939453125 21.799999237060546875 21.399999618530273438 21.200000762939453125 19.600000381469726562 17.600000381469726562 16.899999618530273438 17.100000381469726562 17.100000381469726562 17.299999237060546875 17.5 17.700000762939453125 17.799999237060546875 18.200000762939453125 21.799999237060546875 23 23.399999618530273438 24.799999237060546875 25.899999618530273438 27.200000762939453125 29.200000762939453125 32.700000762939453125 34.59999847412109375 34.5 
11.199999809265136719 12 13.100000381469726562 13.100000381469726562 12.5 12.199999809265136719 11.899999618530273438 12 12.199999809265136719 12.100000381469726562 11.5 11 11.100000381469726562 11.300000190734863281 11.100000381469726562 10.899999618530273438 10.600000381469726562 10.300000190734863281 9.6000003814697265625 8.8000001907348632812 8.1999998092651367188 8.5 8.5 8.5 8.8000001907348632812 9.1999998092651367188 9.3999996185302734375 9.6000003814697265625 9.8999996185302734375 9.8999996185302734375 10 10.199999809265136719 10.399999618530273438 10.800000190734863281 11.100000381469726562 11.399999618530273438 11.600000381469726562 12.399999618530273438 12.5 12.600000381469726562 12.699999809265136719 12.600000381469726562 13.300000190734863281 13.899999618530273438 14.800000190734863281 16.399999618530273438 16.700000762939453125 16.899999618530273438 16.700000762939453125 18.700000762939453125 18.799999237060546875 20.799999237060546875 22.600000381469726562 23.5 24.100000381469726562 26.899999618530273438 30.100000381469726562 32.09999847412109375 33 34 34.90000152587890625 35.59999847412109375 36.200000762939453125 36.700000762939453125 37.799999237060546875 38.90000152587890625 38.700000762939453125 35.90000152587890625 32.5 28.899999618530273438 24.700000762939453125 18.399999618530273438 19 18.700000762939453125 17.399999618530273438 16 14.699999809265136719 13.100000381469726562 12.199999809265136719 12.100000381469726562 12.800000190734863281 13.100000381469726562 13.600000381469726562 13.800000190734863281 13.600000381469726562 13.899999618530273438 13.300000190734863281 12.5 12.300000190734863281 12.300000190734863281 13.199999809265136719 14.100000381469726562 15.199999809265136719 16 16.399999618530273438 17.299999237060546875 17.600000381469726562 18 18.5 18.899999618530273438 18.799999237060546875 18.700000762939453125 18.5 18.299999237060546875 18.5 19.299999237060546875 20.5 22.600000381469726562 24.600000381469726562 27.200000762939453125 29.899999618530273438 31.5 30 29.200000762939453125 30.5 34.299999237060546875 37.299999237060546875 37.40000152587890625 35.799999237060546875 33.90000152587890625 32.5 31.600000381469726562 31.799999237060546875 32.700000762939453125 32.200000762939453125 30.200000762939453125 28.200000762939453125 25.600000381469726562 18.899999618530273438 23.299999237060546875 20.799999237060546875 21.100000381469726562 21.700000762939453125 23.200000762939453125 24.399999618530273438 27.700000762939453125 29.200000762939453125 21.200000762939453125 30.700000762939453125 30.100000381469726562 29.799999237060546875 29.600000381469726562 29.5 29.799999237060546875 29.600000381469726562 28.899999618530273438 28.399999618530273438 27.799999237060546875 17.399999618530273438 14.600000381469726562 14 20.100000381469726562 19 11.600000381469726562 8.8000001907348632812 8.6999998092651367188 7.3000001907348632812 6.5 6.0999999046325683594 5.8000001907348632812 5.9000000953674316406 12.800000190734863281 10.100000381469726562 8.5 8.3000001907348632812 9.3999996185302734375 11 15 18 20.200000762939453125 20.700000762939453125 19 16.899999618530273438 15.699999809265136719 21.200000762939453125 20.799999237060546875 20.700000762939453125 20.700000762939453125 20.600000381469726562 18.600000381469726562 15.600000381469726562 15.100000381469726562 17.700000762939453125 20.100000381469726562 21.700000762939453125 22.100000381469726562 22.600000381469726562 24.399999618530273438 25.399999618530273438 26.100000381469726562 26.399999618530273438 27.399999618530273438 28 28.700000762939453125 30 31.200000762939453125 32.5 34.09999847412109375 34.90000152587890625 35 
12.100000381469726562 13.199999809265136719 14.100000381469726562 13.600000381469726562 13 13 12.699999809265136719 12.699999809265136719 12.699999809265136719 12.600000381469726562 12.300000190734863281 12.100000381469726562 11.899999618530273438 11.699999809265136719 11.600000381469726562 11.300000190734863281 11 11.300000190734863281 10.100000381469726562 9.1000003814697265625 8.8000001907348632812 9.3000001907348632812 9 8.8000001907348632812 9.1999998092651367188 9.6000003814697265625 9.8000001907348632812 9.8999996185302734375 10.199999809265136719 10.300000190734863281 10.399999618530273438 10.5 10.899999618530273438 11.199999809265136719 11.399999618530273438 11.699999809265136719 11.800000190734863281 11.800000190734863281 12 12.199999809265136719 12.600000381469726562 13.600000381469726562 14.199999809265136719 14.800000190734863281 16 16.799999237060546875 17.600000381469726562 17.899999618530273438 18.399999618530273438 20.100000381469726562 20.700000762939453125 21.799999237060546875 23.399999618530273438 24.799999237060546875 27 28.799999237060546875 32.40000152587890625 34.299999237060546875 35.299999237060546875 35.799999237060546875 37 37.700000762939453125 38 38.299999237060546875 39.200000762939453125 39.09999847412109375 38.200000762939453125 36.200000762939453125 32.40000152587890625 28.5 24.899999618530273438 20.700000762939453125 20.100000381469726562 19.399999618530273438 18.299999237060546875 16.399999618530273438 14.600000381469726562 13.199999809265136719 12.399999618530273438 12.100000381469726562 13.5 13.699999809265136719 13.899999618530273438 14.5 14.800000190734863281 14.399999618530273438 13.699999809265136719 13.399999618530273438 13.100000381469726562 13.100000381469726562 14 15 16.299999237060546875 16.399999618530273438 16.799999237060546875 17.700000762939453125 18.5 18.899999618530273438 19.299999237060546875 19.600000381469726562 19.700000762939453125 19.600000381469726562 19.399999618530273438 19.200000762939453125 19.700000762939453125 20.899999618530273438 22.899999618530273438 25 27.100000381469726562 29.200000762939453125 31.200000762939453125 32.799999237060546875 34 32.700000762939453125 30.299999237060546875 33.200000762939453125 31 28.5 30 32.799999237060546875 30 29.399999618530273438 29.399999618530273438 28.600000381469726562 28.399999618530273438 27.799999237060546875 27.299999237060546875 25.200000762939453125 19.399999618530273438 23.100000381469726562 21.600000381469726562 22.799999237060546875 24.600000381469726562 23.799999237060546875 26.700000762939453125 29.299999237060546875 30.200000762939453125 30.799999237060546875 31 30.200000762939453125 30.299999237060546875 30.299999237060546875 30.299999237060546875 30.5 30.700000762939453125 30.299999237060546875 29.799999237060546875 29.200000762939453125 18.700000762939453125 14.699999809265136719 15.5 22.600000381469726562 21.100000381469726562 14.699999809265136719 9.5 7.6999998092651367188 7.1999998092651367188 6.1999998092651367188 6 5.8000001907348632812 6.0999999046325683594 9.3000001907348632812 6.4000000953674316406 8.5 8.5 8.8000001907348632812 9.3999996185302734375 10.899999618530273438 13.100000381469726562 14.5 14.300000190734863281 13.199999809265136719 13.300000190734863281 13.399999618530273438 16 19.399999618530273438 19.200000762939453125 19.700000762939453125 20.100000381469726562 27.5 28.100000381469726562 23.600000381469726562 23.799999237060546875 24.799999237060546875 27.200000762939453125 27.700000762939453125 28 28.5 28.799999237060546875 30 31.200000762939453125 31.5 32.200000762939453125 31.899999618530273438 33.299999237060546875 33.799999237060546875 34.09999847412109375 34.5 34.5 34.5 
12.899999618530273438 14.199999809265136719 14.600000381469726562 14 13.399999618530273438 13.399999618530273438 13.600000381469726562 13.600000381469726562 13.5 13.199999809265136719 13 12.800000190734863281 12.600000381469726562 12.399999618530273438 12.300000190734863281 12.100000381469726562 11.699999809265136719 11.600000381469726562 11.5 8.6999998092651367188 9.6000003814697265625 9.3000001907348632812 9.1000003814697265625 9.1000003814697265625 9.5 9.8000001907348632812 10 10.100000381469726562 10.699999809265136719 10.800000190734863281 10.800000190734863281 11.100000381469726562 11.399999618530273438 11.699999809265136719 12 12.300000190734863281 12.399999618530273438 12.199999809265136719 12.100000381469726562 12.399999618530273438 12.800000190734863281 14 15.199999809265136719 15.899999618530273438 17 18.700000762939453125 19 19.399999618530273438 20.899999618530273438 21.100000381469726562 22.200000762939453125 23.700000762939453125 24.299999237060546875 26.600000381469726562 29.100000381469726562 31.299999237060546875 34.299999237060546875 35.700000762939453125 36.799999237060546875 37.5 38.5 39.09999847412109375 39.5 39.700000762939453125 40.09999847412109375 39.40000152587890625 38.40000152587890625 36.299999237060546875 32.59999847412109375 29.100000381469726562 25.100000381469726562 22.399999618530273438 21.5 20.200000762939453125 19.100000381469726562 17.100000381469726562 14.899999618530273438 13.600000381469726562 13.5 13.600000381469726562 14.300000190734863281 14.199999809265136719 15.100000381469726562 15.600000381469726562 15.600000381469726562 15.199999809265136719 14.100000381469726562 13.899999618530273438 13.600000381469726562 14.199999809265136719 15.300000190734863281 16.399999618530273438 17.399999618530273438 17.600000381469726562 17.600000381469726562 17.899999618530273438 18.700000762939453125 19.5 20.100000381469726562 20.5 20.700000762939453125 20.799999237060546875 20.700000762939453125 20.700000762939453125 20.899999618530273438 22.5 25.5 27.399999618530273438 29.200000762939453125 31 32.40000152587890625 33.200000762939453125 34.09999847412109375 34.5 35.90000152587890625 30.600000381469726562 33.90000152587890625 32.40000152587890625 31.299999237060546875 31.700000762939453125 28.200000762939453125 27.200000762939453125 26.5 26 25.899999618530273438 25.200000762939453125 24.200000762939453125 23 20 21.100000381469726562 22.299999237060546875 23.100000381469726562 25.799999237060546875 27.799999237060546875 29.600000381469726562 30.700000762939453125 31.700000762939453125 31.700000762939453125 32.09999847412109375 31.299999237060546875 31.399999618530273438 31.899999618530273438 32 32.09999847412109375 32.299999237060546875 31.299999237060546875 30.100000381469726562 27.200000762939453125 21.299999237060546875 22.100000381469726562 23.899999618530273438 24.799999237060546875 22.5 20.899999618530273438 10.199999809265136719 8.3000001907348632812 7.5 6.9000000953674316406 6.5999999046325683594 5.8000001907348632812 6.4000000953674316406 6.4000000953674316406 6.6999998092651367188 8.6000003814697265625 9.1000003814697265625 8.6999998092651367188 8.1000003814697265625 8.8000001907348632812 9.6999998092651367188 10.5 11.899999618530273438 13.800000190734863281 15.899999618530273438 18.200000762939453125 20.799999237060546875 20.399999618530273438 20 23.200000762939453125 28.5 29.100000381469726562 29.299999237060546875 28.399999618530273438 29.899999618530273438 30.5 31.399999618530273438 31.100000381469726562 31.100000381469726562 31.700000762939453125 32.200000762939453125 32.799999237060546875 33.40000152587890625 33.5 33.59999847412109375 33 32.799999237060546875 32.799999237060546875 33.200000762939453125 33.59999847412109375 33.700000762939453125 33.40000152587890625 
13.699999809265136719 14.800000190734863281 14.800000190734863281 14.100000381469726562 13.5 13.899999618530273438 14.199999809265136719 14.300000190734863281 14.300000190734863281 14.199999809265136719 14 13.800000190734863281 13.600000381469726562 13.399999618530273438 13 12.800000190734863281 12.399999618530273438 12.100000381469726562 11.600000381469726562 11.100000381469726562 10.5 9.8999996185302734375 9.6000003814697265625 9.6999998092651367188 9.6999998092651367188 9.8999996185302734375 10.100000381469726562 10.699999809265136719 11.300000190734863281 10.800000190734863281 10.800000190734863281 11.399999618530273438 11.399999618530273438 12.199999809265136719 12.5 13.100000381469726562 13.399999618530273438 12.600000381469726562 12.699999809265136719 13.800000190734863281 14.300000190734863281 15 16 17.5 17.799999237060546875 18.200000762939453125 18.700000762939453125 20.399999618530273438 21.899999618530273438 23.299999237060546875 24.5 25.899999618530273438 27.299999237060546875 28.600000381469726562 30.700000762939453125 33.40000152587890625 35.90000152587890625 37.09999847412109375 38 38.799999237060546875 39.59999847412109375 40.299999237060546875 40.40000152587890625 40.90000152587890625 41 39.799999237060546875 38.59999847412109375 36.299999237060546875 32.200000762939453125 27.799999237060546875 24.899999618530273438 23.200000762939453125 21.299999237060546875 20.799999237060546875 19.399999618530273438 16.799999237060546875 15.399999618530273438 14.699999809265136719 14.399999618530273438 15.199999809265136719 15.600000381469726562 15.800000190734863281 16.200000762939453125 16.200000762939453125 15.699999809265136719 15.5 14.800000190734863281 14.199999809265136719 14.100000381469726562 14.800000190734863281 16.299999237060546875 17.299999237060546875 17.600000381469726562 18 18.5 19.299999237060546875 19.399999618530273438 20.299999237060546875 20.899999618530273438 21.5 21.899999618530273438 22 22.200000762939453125 22.200000762939453125 22.600000381469726562 25 27.700000762939453125 29.600000381469726562 31 32.700000762939453125 34.200000762939453125 34.09999847412109375 34.200000762939453125 34.200000762939453125 33.200000762939453125 32.299999237060546875 31.600000381469726562 31.600000381469726562 30.5 29.299999237060546875 28.200000762939453125 27.299999237060546875 27 26.600000381469726562 26.299999237060546875 24.5 23.200000762939453125 22.799999237060546875 21.200000762939453125 21.700000762939453125 21.399999618530273438 23.600000381469726562 27.200000762939453125 30 31.600000381469726562 32.09999847412109375 32.59999847412109375 33 32.90000152587890625 32.40000152587890625 32.90000152587890625 33.59999847412109375 33.90000152587890625 33.90000152587890625 33.90000152587890625 32 30.600000381469726562 29.399999618530273438 27.299999237060546875 27.799999237060546875 28.600000381469726562 29.299999237060546875 24.100000381469726562 21.899999618530273438 10.800000190734863281 9.1999998092651367188 13.100000381469726562 7.8000001907348632812 7.5 7.1999998092651367188 6.9000000953674316406 7.3000001907348632812 8.3999996185302734375 8.8000001907348632812 8.6999998092651367188 8.1000003814697265625 7.9000000953674316406 8.3999996185302734375 10.100000381469726562 11.300000190734863281 13.600000381469726562 16.5 18.200000762939453125 20.5 23.100000381469726562 24.399999618530273438 24.100000381469726562 25.399999618530273438 27.100000381469726562 29.600000381469726562 29.700000762939453125 31.299999237060546875 34.5 34.5 33.700000762939453125 33.299999237060546875 33.200000762939453125 33.200000762939453125 33.40000152587890625 33.5 33.5 33.40000152587890625 32.59999847412109375 31.600000381469726562 31.600000381469726562 31.799999237060546875 32.299999237060546875 32.59999847412109375 32.799999237060546875 32.299999237060546875 
14.199999809265136719 14.600000381469726562 14.199999809265136719 14.399999618530273438 13.600000381469726562 14.300000190734863281 15 15.199999809265136719 15.100000381469726562 15.199999809265136719 15 14.899999618530273438 14.899999618530273438 14.5 14 13.600000381469726562 13.100000381469726562 12.600000381469726562 12.100000381469726562 11.5 11 10.100000381469726562 9.6000003814697265625 9.8000001907348632812 10 10.199999809265136719 10.399999618530273438 10.899999618530273438 11.600000381469726562 11.399999618530273438 11.399999618530273438 11.800000190734863281 12.199999809265136719 12.699999809265136719 13.100000381469726562 13.199999809265136719 13.600000381469726562 13 13.5 14.699999809265136719 15 15.800000190734863281 16.799999237060546875 17.899999618530273438 18.700000762939453125 19.200000762939453125 19.700000762939453125 21.5 23 25.399999618530273438 26.700000762939453125 28.100000381469726562 29.899999618530273438 31 32.700000762939453125 35.299999237060546875 37 38.200000762939453125 39 39.59999847412109375 40.40000152587890625 40.799999237060546875 40.799999237060546875 41.5 41.200000762939453125 39.90000152587890625 38 33 29.399999618530273438 25.899999618530273438 23.200000762939453125 21.799999237060546875 20.5 19.799999237060546875 17.600000381469726562 15.899999618530273438 15.600000381469726562 16.700000762939453125 17 16.799999237060546875 16.899999618530273438 17.100000381469726562 17.399999618530273438 17.100000381469726562 16.600000381469726562 16.600000381469726562 15.899999618530273438 14.699999809265136719 14.600000381469726562 15.199999809265136719 17.100000381469726562 18 18.100000381469726562 18.399999618530273438 19 19.799999237060546875 20.200000762939453125 21.100000381469726562 21.899999618530273438 22.799999237060546875 23.399999618530273438 23.299999237060546875 23.200000762939453125 23.700000762939453125 24.600000381469726562 27 29.299999237060546875 31 33.09999847412109375 35.09999847412109375 36.299999237060546875 35.40000152587890625 33.799999237060546875 33.5 32.90000152587890625 31.799999237060546875 31.5 30.5 29.200000762939453125 28.600000381469726562 27.899999618530273438 27.200000762939453125 26.399999618530273438 25.799999237060546875 25.200000762939453125 24.200000762939453125 22.700000762939453125 22.700000762939453125 22.700000762939453125 21.399999618530273438 22 23.600000381469726562 27.799999237060546875 30.799999237060546875 32 33.09999847412109375 33.59999847412109375 34.200000762939453125 33.90000152587890625 33.5 34.5 35.09999847412109375 35.09999847412109375 35.299999237060546875 35.799999237060546875 33.700000762939453125 31.799999237060546875 30.600000381469726562 30.600000381469726562 30.399999618530273438 30.299999237060546875 28.100000381469726562 19.899999618530273438 15.199999809265136719 13.600000381469726562 11.600000381469726562 10.5 9 8.3999996185302734375 7.8000001907348632812 7.4000000953674316406 8.3000001907348632812 12.100000381469726562 7.5999999046325683594 7.6999998092651367188 7.9000000953674316406 8.1000003814697265625 8.6000003814697265625 10.199999809265136719 12.300000190734863281 15.5 18.200000762939453125 19.899999618530273438 22.100000381469726562 24.200000762939453125 25.700000762939453125 26.100000381469726562 27.399999618530273438 29 30.5 31.200000762939453125 32.299999237060546875 33.90000152587890625 34.700000762939453125 34.299999237060546875 33.799999237060546875 33.09999847412109375 33.40000152587890625 33.200000762939453125 33.09999847412109375 33.09999847412109375 32.59999847412109375 31.700000762939453125 30.299999237060546875 30.100000381469726562 30.5 30.899999618530273438 31.5 31.600000381469726562 31.200000762939453125 
13.5 14.100000381469726562 14.600000381469726562 14.699999809265136719 14.399999618530273438 14.300000190734863281 15.399999618530273438 15.699999809265136719 15.800000190734863281 15.800000190734863281 15.899999618530273438 16 15.899999618530273438 15.5 14.899999618530273438 14.100000381469726562 13.5 13.100000381469726562 12.199999809265136719 11.600000381469726562 10.899999618530273438 10.300000190734863281 9.8999996185302734375 10.100000381469726562 10.300000190734863281 10.5 10.800000190734863281 11.199999809265136719 11.699999809265136719 11.800000190734863281 11.800000190734863281 12.199999809265136719 12.199999809265136719 12.199999809265136719 12.699999809265136719 13.100000381469726562 13.5 13.699999809265136719 14.5 14.399999618530273438 15.699999809265136719 16.5 17.399999618530273438 18.799999237060546875 19.600000381469726562 20.399999618530273438 21.5 22.799999237060546875 24.799999237060546875 27.100000381469726562 28.899999618530273438 30.5 32.59999847412109375 33.799999237060546875 34.700000762939453125 37 38.299999237060546875 39.40000152587890625 40.09999847412109375 40.59999847412109375 41.09999847412109375 41.299999237060546875 40.5 39.5 39 37.200000762939453125 34.90000152587890625 29.899999618530273438 26.799999237060546875 23.5 21.5 20.200000762939453125 18.899999618530273438 17.700000762939453125 16.100000381469726562 15.800000190734863281 17.299999237060546875 18.5 18.700000762939453125 17.799999237060546875 18.100000381469726562 18.899999618530273438 18.299999237060546875 17.899999618530273438 18 17.700000762939453125 17.100000381469726562 15.800000190734863281 14.800000190734863281 15.800000190734863281 17.5 18.200000762939453125 18.299999237060546875 19.5 19.899999618530273438 20.399999618530273438 21.5 22.299999237060546875 23.100000381469726562 24.100000381469726562 24.5 24.600000381469726562 24.399999618530273438 25.299999237060546875 27 29.399999618530273438 31.700000762939453125 33.5 35.5 37.5 38.299999237060546875 36.5 34.299999237060546875 33.09999847412109375 32.40000152587890625 31.5 30.799999237060546875 30.899999618530273438 29.100000381469726562 28.100000381469726562 27.5 26.899999618530273438 26.5 26 24.799999237060546875 23.399999618530273438 22.600000381469726562 22.5 23.799999237060546875 22.5 22.899999618530273438 24.100000381469726562 28 30.799999237060546875 32.09999847412109375 33.200000762939453125 34.40000152587890625 35.09999847412109375 34.799999237060546875 34.799999237060546875 35.90000152587890625 36.200000762939453125 36.200000762939453125 36.200000762939453125 35.799999237060546875 34.5 33 31.700000762939453125 30.799999237060546875 30 29.299999237060546875 26.799999237060546875 23.799999237060546875 19.600000381469726562 14.800000190734863281 10.899999618530273438 9.8999996185302734375 9.6000003814697265625 8.8999996185302734375 8.3999996185302734375 8.1000003814697265625 8 12.199999809265136719 7.5999999046325683594 7.8000001907348632812 8.1000003814697265625 8.3000001907348632812 8.6999998092651367188 10.5 13.100000381469726562 15.600000381469726562 17.700000762939453125 20.5 22.399999618530273438 24.100000381469726562 25.600000381469726562 27.200000762939453125 28.299999237060546875 29.600000381469726562 31.200000762939453125 32.200000762939453125 33.200000762939453125 33.5 33.5 32.90000152587890625 32.299999237060546875 32 31.899999618530273438 31.799999237060546875 31.899999618530273438 31.799999237060546875 31.299999237060546875 30.100000381469726562 28.600000381469726562 27.799999237060546875 28.399999618530273438 29.600000381469726562 30.5 30.5 29.899999618530273438 
13.5 14.199999809265136719 14.600000381469726562 14.600000381469726562 14.600000381469726562 14.600000381469726562 15.600000381469726562 16.200000762939453125 16.5 16.5 16.5 16.399999618530273438 16.399999618530273438 16.200000762939453125 15.699999809265136719 14.899999618530273438 14.300000190734863281 13.399999618530273438 12.600000381469726562 11.699999809265136719 10.800000190734863281 10.899999618530273438 10.300000190734863281 10.399999618530273438 10.600000381469726562 10.899999618530273438 11.100000381469726562 11.5 11.800000190734863281 12.100000381469726562 12.399999618530273438 12.300000190734863281 12 12.399999618530273438 12.600000381469726562 12.899999618530273438 13.399999618530273438 13.800000190734863281 14.800000190734863281 15.699999809265136719 16.100000381469726562 16.799999237060546875 18.200000762939453125 19.5 20.700000762939453125 21.700000762939453125 22.700000762939453125 24 26.100000381469726562 28.399999618530273438 30.700000762939453125 33.200000762939453125 35.40000152587890625 36.299999237060546875 37.200000762939453125 38.40000152587890625 39.5 40.59999847412109375 41 41.200000762939453125 40.59999847412109375 40 37.299999237060546875 35 34.200000762939453125 33 29.700000762939453125 26.600000381469726562 23.799999237060546875 21.5 19.700000762939453125 18.799999237060546875 17.899999618530273438 16.5 16 16.600000381469726562 18.200000762939453125 19.299999237060546875 19.899999618530273438 19.100000381469726562 19.200000762939453125 19.899999618530273438 19.700000762939453125 19.200000762939453125 19.100000381469726562 18.799999237060546875 17.600000381469726562 15.899999618530273438 15.399999618530273438 16.399999618530273438 17.600000381469726562 18.200000762939453125 18.899999618530273438 20.100000381469726562 20.299999237060546875 20.899999618530273438 22.100000381469726562 23.5 24.5 25.399999618530273438 26 26.299999237060546875 27.200000762939453125 28 30.299999237060546875 32.59999847412109375 34.799999237060546875 36.59999847412109375 38.200000762939453125 39.90000152587890625 39.5 37.40000152587890625 34.90000152587890625 32.90000152587890625 32.40000152587890625 31.100000381469726562 29.899999618530273438 29.700000762939453125 28.100000381469726562 27.299999237060546875 26.700000762939453125 26.5 26.5 25.600000381469726562 24.299999237060546875 23.5 22.799999237060546875 23.700000762939453125 24.100000381469726562 23.200000762939453125 23.600000381469726562 24.799999237060546875 26.899999618530273438 29.5 31.100000381469726562 33.40000152587890625 34.799999237060546875 35.90000152587890625 36.299999237060546875 36.59999847412109375 36.799999237060546875 37.5 37.40000152587890625 37.40000152587890625 36.90000152587890625 36.700000762939453125 35.700000762939453125 32.90000152587890625 30.799999237060546875 29.399999618530273438 27.200000762939453125 24.700000762939453125 22.799999237060546875 20.899999618530273438 14.5 11.600000381469726562 10.199999809265136719 14.600000381469726562 9.3000001907348632812 8.8999996185302734375 8.8000001907348632812 9.1000003814697265625 8.3999996185302734375 7.9000000953674316406 8 8.3000001907348632812 8.3999996185302734375 8.1000003814697265625 9.1000003814697265625 11.300000190734863281 13.300000190734863281 15.699999809265136719 19.799999237060546875 22.799999237060546875 24.700000762939453125 25.899999618530273438 27.600000381469726562 28.5 29 30.5 32 32.799999237060546875 32.59999847412109375 32.299999237060546875 32 31.600000381469726562 31.200000762939453125 30.799999237060546875 30.700000762939453125 30.799999237060546875 30.399999618530273438 29.600000381469726562 28.600000381469726562 26.399999618530273438 25.600000381469726562 26.299999237060546875 27.5 28.899999618530273438 28.700000762939453125 27.700000762939453125 
19.399999618530273438 14.699999809265136719 14.899999618530273438 14.899999618530273438 15 15.100000381469726562 16 16.700000762939453125 17.100000381469726562 16.899999618530273438 17.399999618530273438 17.5 18.100000381469726562 17.600000381469726562 16.799999237060546875 16.200000762939453125 15.800000190734863281 14.699999809265136719 13 12.100000381469726562 11.100000381469726562 10.899999618530273438 10.899999618530273438 10.899999618530273438 10.899999618530273438 11 11.199999809265136719 11.399999618530273438 11.899999618530273438 12.199999809265136719 12.5 12.800000190734863281 12.699999809265136719 12.800000190734863281 12.899999618530273438 13.300000190734863281 13.699999809265136719 14.5 15.199999809265136719 16.899999618530273438 16.299999237060546875 17.5 18.899999618530273438 20.100000381469726562 21.5 23 24 25.899999618530273438 27.899999618530273438 29.700000762939453125 32.5 35.200000762939453125 37.40000152587890625 38.40000152587890625 38.799999237060546875 39.700000762939453125 40.799999237060546875 41.299999237060546875 41.5 40.40000152587890625 38.799999237060546875 36.40000152587890625 33.5 31.399999618530273438 29.899999618530273438 28.200000762939453125 25.600000381469726562 24 22.600000381469726562 20.399999618530273438 19.100000381469726562 17.799999237060546875 16.5 16.399999618530273438 16.299999237060546875 16.799999237060546875 18.200000762939453125 19.200000762939453125 20 20.200000762939453125 21.200000762939453125 21.200000762939453125 20.700000762939453125 20.5 20.200000762939453125 19.700000762939453125 18.700000762939453125 16.899999618530273438 16.200000762939453125 17 17.5 18.200000762939453125 19 20.600000381469726562 20.5 21.700000762939453125 22.399999618530273438 23.799999237060546875 25.399999618530273438 26.399999618530273438 27.600000381469726562 28.399999618530273438 29.399999618530273438 30.600000381469726562 33.40000152587890625 35.799999237060546875 38 39.700000762939453125 40.700000762939453125 41.200000762939453125 39.90000152587890625 37.90000152587890625 35.40000152587890625 33.09999847412109375 31.899999618530273438 30.899999618530273438 29.5 29 32.299999237060546875 26.700000762939453125 26.700000762939453125 26.600000381469726562 26.200000762939453125 24.700000762939453125 24.399999618530273438 23.899999618530273438 23.5 24.799999237060546875 24.100000381469726562 23.899999618530273438 24.100000381469726562 24.600000381469726562 26.200000762939453125 28.299999237060546875 30.600000381469726562 33.299999237060546875 34.700000762939453125 36.200000762939453125 37.40000152587890625 38.700000762939453125 39.200000762939453125 39.299999237060546875 38.5 38.299999237060546875 37.700000762939453125 38 37.90000152587890625 35.59999847412109375 33.299999237060546875 29.700000762939453125 27.399999618530273438 24.5 22 20.399999618530273438 14.399999618530273438 11.5 10.399999618530273438 14.600000381469726562 9.5 9.3000001907348632812 9.6999998092651367188 9 8.1999998092651367188 8 8.1999998092651367188 8.1000003814697265625 8.1000003814697265625 7.5999999046325683594 8.8999996185302734375 9.1000003814697265625 10.800000190734863281 13.300000190734863281 17.100000381469726562 20 22.899999618530273438 25.700000762939453125 27.399999618530273438 27.899999618530273438 28.799999237060546875 29.899999618530273438 31.399999618530273438 31.700000762939453125 31.700000762939453125 31.399999618530273438 31.200000762939453125 30.799999237060546875 30.399999618530273438 29.700000762939453125 29.100000381469726562 29.399999618530273438 29 27.899999618530273438 26.200000762939453125 24.200000762939453125 24 24.700000762939453125 25.600000381469726562 26.700000762939453125 26.899999618530273438 25.799999237060546875 
13.5 15.100000381469726562 19 15.100000381469726562 15.399999618530273438 15.699999809265136719 16.5 17.299999237060546875 17.600000381469726562 17.700000762939453125 18.299999237060546875 18.899999618530273438 19.399999618530273438 18.5 17.700000762939453125 16.799999237060546875 15.600000381469726562 13.899999618530273438 13.5 12.5 11.5 11.300000190734863281 11.5 11.5 11.699999809265136719 11.800000190734863281 11.800000190734863281 11.600000381469726562 12 12.399999618530273438 12.5 12.699999809265136719 12.5 13.300000190734863281 14 13.800000190734863281 13.800000190734863281 14.600000381469726562 15.300000190734863281 16.899999618530273438 17.299999237060546875 18.5 19.600000381469726562 20.799999237060546875 22.5 24.299999237060546875 25.5 27.700000762939453125 29.600000381469726562 31.200000762939453125 33.700000762939453125 36.299999237060546875 38.5 39.799999237060546875 40.40000152587890625 41.200000762939453125 41.700000762939453125 41.40000152587890625 40.59999847412109375 38.799999237060546875 35 32.59999847412109375 30.5 28 26.5 25.799999237060546875 24 22 21 19 22.100000381469726562 17.600000381469726562 17.100000381469726562 16.899999618530273438 16.899999618530273438 16.899999618530273438 17.700000762939453125 18.200000762939453125 19.299999237060546875 20.600000381469726562 21.799999237060546875 22.399999618530273438 21.700000762939453125 21.5 21.299999237060546875 20.5 19.5 18 17.100000381469726562 17.200000762939453125 17.799999237060546875 18.899999618530273438 19.700000762939453125 20.600000381469726562 21.299999237060546875 22.399999618530273438 23.100000381469726562 24.5 26 27.600000381469726562 29.5 30.600000381469726562 31.399999618530273438 34.700000762939453125 38.5 40.200000762939453125 41.799999237060546875 43.5 43.40000152587890625 42.40000152587890625 40.5 38.40000152587890625 35.700000762939453125 33.200000762939453125 31.700000762939453125 30.399999618530273438 29.600000381469726562 28.700000762939453125 28.600000381469726562 26.700000762939453125 26.700000762939453125 26.200000762939453125 25.700000762939453125 24.700000762939453125 24.700000762939453125 24.5 24.5 24 24.600000381469726562 24.200000762939453125 24.399999618530273438 24.799999237060546875 26 27.899999618530273438 30.5 32.90000152587890625 33.90000152587890625 35.5 37.700000762939453125 40.09999847412109375 41.59999847412109375 41.59999847412109375 40.299999237060546875 39.299999237060546875 39.299999237060546875 39.40000152587890625 39.5 39.5 36.299999237060546875 32.200000762939453125 28.600000381469726562 24.399999618530273438 21.600000381469726562 19.5 15.5 11.899999618530273438 10.399999618530273438 11 9.6999998092651367188 10 9.6000003814697265625 9.6999998092651367188 8.6999998092651367188 8.8999996185302734375 8.8999996185302734375 8.8999996185302734375 8.8999996185302734375 9.1000003814697265625 9.1999998092651367188 9 8.3999996185302734375 10.100000381469726562 13.699999809265136719 16 18.700000762939453125 21.700000762939453125 23.100000381469726562 25.399999618530273438 27.399999618530273438 29.600000381469726562 30 30.399999618530273438 30.399999618530273438 29.899999618530273438 29.600000381469726562 29.200000762939453125 28.200000762939453125 27.5 27.200000762939453125 28 27.299999237060546875 25.600000381469726562 23.899999618530273438 22.600000381469726562 22.600000381469726562 23.200000762939453125 23.799999237060546875 24.399999618530273438 24.600000381469726562 24 
14.899999618530273438 14.699999809265136719 15.800000190734863281 16.799999237060546875 17.600000381469726562 18.200000762939453125 18.100000381469726562 18.200000762939453125 18.299999237060546875 18.399999618530273438 18.299999237060546875 19 18.899999618530273438 18.200000762939453125 17.399999618530273438 16.100000381469726562 15.100000381469726562 14.199999809265136719 13.800000190734863281 12.699999809265136719 11.5 11.199999809265136719 11.899999618530273438 12.300000190734863281 12.600000381469726562 12.300000190734863281 12 12.100000381469726562 12.199999809265136719 12.399999618530273438 12.600000381469726562 12.699999809265136719 12.800000190734863281 13.5 14.399999618530273438 13.800000190734863281 14 14.600000381469726562 16.600000381469726562 17.200000762939453125 17.700000762939453125 19.200000762939453125 20.399999618530273438 21.600000381469726562 23.299999237060546875 25 27.200000762939453125 29.399999618530273438 31.399999618530273438 33 34.799999237060546875 37.299999237060546875 39.59999847412109375 40.90000152587890625 41.59999847412109375 42.299999237060546875 42 41 39.799999237060546875 36 32.59999847412109375 30.399999618530273438 28.899999618530273438 26.799999237060546875 25.899999618530273438 24.700000762939453125 22.299999237060546875 20.100000381469726562 19.799999237060546875 18.600000381469726562 18 17.399999618530273438 17.399999618530273438 17.5 17.600000381469726562 17.100000381469726562 17.399999618530273438 18.100000381469726562 19 20.200000762939453125 21.399999618530273438 22.799999237060546875 22.700000762939453125 22.600000381469726562 22.5 21.299999237060546875 19.600000381469726562 18.399999618530273438 18.100000381469726562 17.899999618530273438 17.899999618530273438 19 20.200000762939453125 21.299999237060546875 21.899999618530273438 22.600000381469726562 23.299999237060546875 24.899999618530273438 26.600000381469726562 28.200000762939453125 30.299999237060546875 32.40000152587890625 36.299999237060546875 42.90000152587890625 44 44.40000152587890625 46.200000762939453125 47.90000152587890625 47.799999237060546875 45.09999847412109375 41.59999847412109375 39 36.200000762939453125 33.40000152587890625 31.899999618530273438 30.899999618530273438 30 29 28 29.100000381469726562 27.299999237060546875 26.600000381469726562 26.100000381469726562 25.5 25.5 25.200000762939453125 25.200000762939453125 23.899999618530273438 25.600000381469726562 25.100000381469726562 24.700000762939453125 24.899999618530273438 25.700000762939453125 27.600000381469726562 30 30.899999618530273438 32 33.90000152587890625 37.09999847412109375 40.799999237060546875 44.299999237060546875 44.700000762939453125 44.09999847412109375 41.40000152587890625 41.5 41.40000152587890625 41.59999847412109375 40.59999847412109375 39.299999237060546875 35.200000762939453125 29.700000762939453125 26.200000762939453125 22.299999237060546875 19.100000381469726562 15.600000381469726562 11.699999809265136719 10.300000190734863281 10.399999618530273438 9.8999996185302734375 8.8999996185302734375 11 10.100000381469726562 9.8000001907348632812 9.6000003814697265625 9.1999998092651367188 9.1000003814697265625 9.1000003814697265625 9.6999998092651367188 10 10.300000190734863281 9.5 9.5 9.6000003814697265625 12.600000381469726562 15.399999618530273438 17.600000381469726562 19.700000762939453125 21.899999618530273438 25.600000381469726562 28.100000381469726562 28.799999237060546875 28.600000381469726562 28.899999618530273438 28.5 27.899999618530273438 27 26.5 25.200000762939453125 24.899999618530273438 26.5 24.799999237060546875 23.100000381469726562 21.5 21 21.200000762939453125 21.799999237060546875 22.299999237060546875 22.200000762939453125 22.399999618530273438 22.799999237060546875 
15 15.600000381469726562 16.299999237060546875 17 17.799999237060546875 18.600000381469726562 19 19.299999237060546875 19.5 19.200000762939453125 18.899999618530273438 18.5 19.100000381469726562 18.5 17.899999618530273438 16.899999618530273438 15.899999618530273438 15 14.5 13.5 12.399999618530273438 12 12.800000190734863281 12.600000381469726562 12.800000190734863281 12.399999618530273438 12.600000381469726562 13.100000381469726562 13.5 13.5 13.199999809265136719 13.100000381469726562 13.5 13.800000190734863281 13.800000190734863281 13.699999809265136719 14.199999809265136719 14.800000190734863281 17.799999237060546875 17.799999237060546875 18.200000762939453125 19.899999618530273438 21.100000381469726562 22.600000381469726562 24.5 26.399999618530273438 29 31.100000381469726562 33 35 37 38.799999237060546875 40.799999237060546875 41.90000152587890625 42.5 43 42.09999847412109375 40.40000152587890625 37.200000762939453125 33.299999237060546875 31 28.899999618530273438 27.600000381469726562 26.399999618530273438 24.899999618530273438 23.200000762939453125 21.5 19.799999237060546875 18.399999618530273438 23.100000381469726562 18 18 18.200000762939453125 17.5 17.600000381469726562 17.5 17.399999618530273438 18.100000381469726562 18.799999237060546875 19.799999237060546875 21.100000381469726562 22.299999237060546875 22.899999618530273438 23.700000762939453125 23.399999618530273438 21.899999618530273438 20.700000762939453125 19.100000381469726562 18.5 17.899999618530273438 17.5 18.5 19.899999618530273438 21.299999237060546875 22 23.200000762939453125 23.799999237060546875 25.399999618530273438 27.100000381469726562 28.700000762939453125 30.700000762939453125 33.90000152587890625 40.5 50.40000152587890625 52.09999847412109375 50.799999237060546875 52.40000152587890625 53.700000762939453125 51.799999237060546875 47.700000762939453125 42.90000152587890625 39.59999847412109375 36.700000762939453125 33.59999847412109375 32 30.799999237060546875 30.299999237060546875 29.399999618530273438 29.100000381469726562 29.100000381469726562 27.799999237060546875 27.299999237060546875 26.600000381469726562 26.399999618530273438 26.200000762939453125 25.899999618530273438 25.600000381469726562 25.899999618530273438 26.600000381469726562 25.899999618530273438 25.200000762939453125 25.299999237060546875 25.600000381469726562 27.399999618530273438 28.200000762939453125 28.899999618530273438 29.5 32.299999237060546875 36.5 41.700000762939453125 46.700000762939453125 48.09999847412109375 47.09999847412109375 44 43.40000152587890625 44.09999847412109375 44.59999847412109375 44.299999237060546875 42.59999847412109375 38.59999847412109375 34 29.899999618530273438 25.299999237060546875 20.200000762939453125 16.299999237060546875 12.199999809265136719 10.399999618530273438 10.399999618530273438 15.300000190734863281 9.1999998092651367188 10.600000381469726562 9.6999998092651367188 10 10 9.3000001907348632812 9.3000001907348632812 9.6000003814697265625 10.699999809265136719 10.899999618530273438 10.699999809265136719 10.399999618530273438 9.3000001907348632812 8.6999998092651367188 9.6000003814697265625 12.399999618530273438 14.699999809265136719 16.5 19.200000762939453125 22.100000381469726562 24.700000762939453125 26.399999618530273438 27.100000381469726562 26.899999618530273438 27.5 26.5 24.600000381469726562 23.299999237060546875 22.100000381469726562 22.799999237060546875 23.299999237060546875 22 20.700000762939453125 19.700000762939453125 19.899999618530273438 20.299999237060546875 20.399999618530273438 20.700000762939453125 21.200000762939453125 21.799999237060546875 22.399999618530273438 
16.299999237060546875 16.600000381469726562 17.200000762939453125 17.600000381469726562 18.399999618530273438 19.200000762939453125 19.799999237060546875 20.100000381469726562 20.200000762939453125 19.799999237060546875 19.5 19.200000762939453125 19.299999237060546875 19.200000762939453125 18.5 17.700000762939453125 16.700000762939453125 15.800000190734863281 15.100000381469726562 14.199999809265136719 13.399999618530273438 13.100000381469726562 13.199999809265136719 13 13 13 13.399999618530273438 13.399999618530273438 14.300000190734863281 14 13.699999809265136719 13.5 13.899999618530273438 13.899999618530273438 14 14 14.399999618530273438 15 18.799999237060546875 18.399999618530273438 18.899999618530273438 20.299999237060546875 21.700000762939453125 23.600000381469726562 25.399999618530273438 27.799999237060546875 30.700000762939453125 32.90000152587890625 35 37.5 38.799999237060546875 40.5 41.799999237060546875 42.40000152587890625 42.700000762939453125 42.700000762939453125 41.299999237060546875 38.59999847412109375 34.90000152587890625 31.5 29.299999237060546875 27.899999618530273438 27.100000381469726562 25.399999618530273438 23.100000381469726562 22.299999237060546875 19.899999618530273438 18.600000381469726562 20.399999618530273438 18.799999237060546875 17.700000762939453125 18.100000381469726562 18.799999237060546875 18.100000381469726562 17.700000762939453125 17.600000381469726562 17.799999237060546875 18.200000762939453125 18.899999618530273438 19.5 20.600000381469726562 21.5 22.299999237060546875 24.200000762939453125 24.600000381469726562 23.299999237060546875 21.700000762939453125 19.899999618530273438 18.100000381469726562 18 17.5 18.5 19.899999618530273438 21.200000762939453125 22.399999618530273438 23.100000381469726562 24.399999618530273438 26.200000762939453125 28.100000381469726562 29.600000381469726562 31.700000762939453125 35.200000762939453125 40.5 48.799999237060546875 52.5 53.90000152587890625 61 58.90000152587890625 54.40000152587890625 48.5 43.90000152587890625 40.40000152587890625 37.299999237060546875 34.40000152587890625 32.200000762939453125 30.899999618530273438 30.299999237060546875 30.200000762939453125 30.799999237060546875 30.200000762939453125 33 28.100000381469726562 27.100000381469726562 26.899999618530273438 26.399999618530273438 26.5 26.600000381469726562 27.5 27.100000381469726562 26.5 26 25.600000381469726562 26.200000762939453125 27.100000381469726562 27.100000381469726562 28 29.5 31.899999618530273438 35.59999847412109375 39.5 44.799999237060546875 49.5 50.09999847412109375 49.40000152587890625 49.700000762939453125 50 49.59999847412109375 48.5 46.59999847412109375 43.200000762939453125 37.5 33 27 21.600000381469726562 16.399999618530273438 12.199999809265136719 10.5 10.300000190734863281 13 10.100000381469726562 13 9.8999996185302734375 10.199999809265136719 10.300000190734863281 9.6999998092651367188 9.6000003814697265625 10.300000190734863281 11.5 12 12.300000190734863281 11.800000190734863281 10.300000190734863281 9.1000003814697265625 9 10 12.5 14.699999809265136719 16.299999237060546875 20 22.799999237060546875 25.600000381469726562 25.600000381469726562 24.299999237060546875 24.700000762939453125 23.899999618530273438 22.200000762939453125 20.600000381469726562 19.799999237060546875 20.100000381469726562 20.399999618530273438 20 19 19.100000381469726562 19.399999618530273438 19.700000762939453125 19.799999237060546875 20.200000762939453125 20.700000762939453125 21.399999618530273438 21.600000381469726562 
16.399999618530273438 17 17.799999237060546875 18.200000762939453125 19 19.799999237060546875 20.5 20.700000762939453125 20.799999237060546875 20.5 20.200000762939453125 19.899999618530273438 20 20 19.299999237060546875 18.399999618530273438 17.700000762939453125 16.600000381469726562 15.600000381469726562 14.699999809265136719 13.899999618530273438 13.899999618530273438 13.699999809265136719 13.399999618530273438 13.5 13.5 13.300000190734863281 14.699999809265136719 14.899999618530273438 14.399999618530273438 13.800000190734863281 14 14.199999809265136719 14.199999809265136719 14.300000190734863281 14.300000190734863281 14.800000190734863281 15.699999809265136719 19.299999237060546875 18.600000381469726562 19.700000762939453125 20.5 22.299999237060546875 24.100000381469726562 26.100000381469726562 29.5 32.299999237060546875 34.700000762939453125 37.40000152587890625 39.40000152587890625 40.200000762939453125 41.200000762939453125 41.700000762939453125 42.40000152587890625 42.200000762939453125 40.90000152587890625 39.299999237060546875 36.200000762939453125 32.700000762939453125 30.200000762939453125 28 26.700000762939453125 24.5 22.700000762939453125 22.200000762939453125 21.100000381469726562 19 19.600000381469726562 23.5 19.200000762939453125 18.200000762939453125 18.399999618530273438 19.299999237060546875 19.799999237060546875 19.100000381469726562 17.799999237060546875 17.899999618530273438 18.600000381469726562 19.200000762939453125 19.899999618530273438 20.799999237060546875 21.5 22.5 24.5 24.200000762939453125 23.299999237060546875 21.899999618530273438 20 18.600000381469726562 18.200000762939453125 18.200000762939453125 18.799999237060546875 19.899999618530273438 21.100000381469726562 22 23.700000762939453125 25.700000762939453125 27.700000762939453125 29 30.600000381469726562 32.700000762939453125 35.59999847412109375 40.5 46.700000762939453125 52.90000152587890625 62.5 64.3000030517578125 62.299999237060546875 55 48.700000762939453125 44.299999237060546875 40.700000762939453125 37.299999237060546875 34.700000762939453125 32.59999847412109375 31.399999618530273438 30.399999618530273438 30.799999237060546875 32.09999847412109375 31 29 34.09999847412109375 27.700000762939453125 27.299999237060546875 26.899999618530273438 27.399999618530273438 27.899999618530273438 27.600000381469726562 27.399999618530273438 27.200000762939453125 26.600000381469726562 26.200000762939453125 26.100000381469726562 27 27.899999618530273438 29 29.600000381469726562 31.399999618530273438 33.40000152587890625 36.799999237060546875 42 46.5 49.5 50.799999237060546875 52 52 51.59999847412109375 50.59999847412109375 48.5 45.09999847412109375 40 34.700000762939453125 27.600000381469726562 20.200000762939453125 15.199999809265136719 12.199999809265136719 10.5 10 10.699999809265136719 14.399999618530273438 12.5 9.6000003814697265625 10.5 10.399999618530273438 10.100000381469726562 9.6999998092651367188 10.699999809265136719 12.5 14.600000381469726562 15.300000190734863281 14 12.399999618530273438 10.5 10.300000190734863281 9.8999996185302734375 11.199999809265136719 13.399999618530273438 15.300000190734863281 17.799999237060546875 20.399999618530273438 22.399999618530273438 22.799999237060546875 21.799999237060546875 21.5 21.299999237060546875 19.899999618530273438 18.600000381469726562 18.100000381469726562 18.399999618530273438 18.299999237060546875 18.5 18.5 18.600000381469726562 19.200000762939453125 19.299999237060546875 19.700000762939453125 20.100000381469726562 20.299999237060546875 20.600000381469726562 20.5 
16.899999618530273438 17.5 18.100000381469726562 19 19.799999237060546875 20.5 20.899999618530273438 21.200000762939453125 21.399999618530273438 21.100000381469726562 20.700000762939453125 20.600000381469726562 20.600000381469726562 20.200000762939453125 19.600000381469726562 18.899999618530273438 18.399999618530273438 17.399999618530273438 16.100000381469726562 15.300000190734863281 15 14.5 14.199999809265136719 13.899999618530273438 13.699999809265136719 14 15.699999809265136719 14.5 14.899999618530273438 14.899999618530273438 14.300000190734863281 14.300000190734863281 14.5 14.600000381469726562 14.699999809265136719 14.899999618530273438 15.199999809265136719 16.700000762939453125 19 19.299999237060546875 19.799999237060546875 20.600000381469726562 22.399999618530273438 24.700000762939453125 27.600000381469726562 31 33.90000152587890625 36.40000152587890625 39.90000152587890625 40.40000152587890625 41.200000762939453125 42 42.5 41.299999237060546875 40 38.200000762939453125 36.200000762939453125 33.09999847412109375 30.799999237060546875 28.899999618530273438 26.600000381469726562 23.700000762939453125 23.200000762939453125 22.399999618530273438 21.600000381469726562 20.5 20 20.5 23.100000381469726562 18.899999618530273438 18.799999237060546875 19.100000381469726562 19.899999618530273438 20.600000381469726562 19.899999618530273438 18.299999237060546875 18.200000762939453125 19.100000381469726562 19.5 20.5 21.5 22.5 23.5 24.100000381469726562 23.600000381469726562 23 21.600000381469726562 20.100000381469726562 19.100000381469726562 18.700000762939453125 18.600000381469726562 19 19.799999237060546875 20.899999618530273438 22.899999618530273438 25.100000381469726562 27.100000381469726562 28.799999237060546875 29.700000762939453125 30.899999618530273438 33.40000152587890625 36.59999847412109375 41.299999237060546875 47 52.90000152587890625 57 59.5 57.09999847412109375 52.40000152587890625 47 43.5 40.799999237060546875 37.59999847412109375 35.299999237060546875 33.40000152587890625 31.899999618530273438 31 31.100000381469726562 32.200000762939453125 31 29.600000381469726562 29.100000381469726562 30.700000762939453125 28.299999237060546875 28 28.5 26 28.100000381469726562 27.899999618530273438 27.799999237060546875 27.600000381469726562 27.200000762939453125 26.600000381469726562 27.100000381469726562 28 28.899999618530273438 29.5 30.299999237060546875 31.799999237060546875 35 38.59999847412109375 42.59999847412109375 45.5 48.700000762939453125 51.09999847412109375 52 51.40000152587890625 50.5 49 45.90000152587890625 40.5 33.09999847412109375 25.5 18 14.100000381469726562 11.800000190734863281 10.699999809265136719 10.100000381469726562 12.5 13 14.300000190734863281 10.300000190734863281 10.5 10.399999618530273438 10.199999809265136719 10.300000190734863281 11.800000190734863281 14.399999618530273438 17.799999237060546875 18.200000762939453125 16.200000762939453125 14.399999618530273438 11.899999618530273438 11.5 10.399999618530273438 10.100000381469726562 11.399999618530273438 13.100000381469726562 15.100000381469726562 16.799999237060546875 18.200000762939453125 18.799999237060546875 18.899999618530273438 18.5 18.700000762939453125 18.100000381469726562 16.899999618530273438 17.200000762939453125 17.299999237060546875 17.5 18 18.5 18.799999237060546875 19.299999237060546875 19 19.299999237060546875 19.700000762939453125 19.700000762939453125 19.299999237060546875 19.5 
18.100000381469726562 18.5 19.600000381469726562 20 20.700000762939453125 21.299999237060546875 21.399999618530273438 21.600000381469726562 21.700000762939453125 21.799999237060546875 21.399999618530273438 21.100000381469726562 20.700000762939453125 20.299999237060546875 19.899999618530273438 19.5 18.899999618530273438 18.100000381469726562 16.799999237060546875 16 16.100000381469726562 15.399999618530273438 14.5 14 13.800000190734863281 14.100000381469726562 14.199999809265136719 19.399999618530273438 15.100000381469726562 15.100000381469726562 14.899999618530273438 14.699999809265136719 14.800000190734863281 15 15.100000381469726562 15.199999809265136719 15.199999809265136719 18 18.899999618530273438 19.700000762939453125 20.100000381469726562 20.799999237060546875 23.100000381469726562 26.200000762939453125 29.5 32.59999847412109375 35.40000152587890625 38.200000762939453125 39.700000762939453125 41.09999847412109375 42.5 42.799999237060546875 41.5 40 37.700000762939453125 35.40000152587890625 33.299999237060546875 31 29 27.299999237060546875 25.200000762939453125 23.799999237060546875 23 22.100000381469726562 21.100000381469726562 21 20.5 23.200000762939453125 21.399999618530273438 19.299999237060546875 19.100000381469726562 19.799999237060546875 20.600000381469726562 21.399999618530273438 20.899999618530273438 19.200000762939453125 19.100000381469726562 19.5 20 20.799999237060546875 22.100000381469726562 22.700000762939453125 23.299999237060546875 24 23.399999618530273438 22.5 21.299999237060546875 20.299999237060546875 19.700000762939453125 19.200000762939453125 19.299999237060546875 19.299999237060546875 20.100000381469726562 21.399999618530273438 23.600000381469726562 26.200000762939453125 28.200000762939453125 29.399999618530273438 30.100000381469726562 31.200000762939453125 33 36.200000762939453125 40.59999847412109375 45.200000762939453125 48.5 51.200000762939453125 51.799999237060546875 50.299999237060546875 48.299999237060546875 44.5 42.200000762939453125 40.40000152587890625 38.200000762939453125 35.700000762939453125 34 32.59999847412109375 31.799999237060546875 31.5 32.59999847412109375 31.399999618530273438 30.100000381469726562 29.700000762939453125 29.600000381469726562 32.5 30 30 26.399999618530273438 29.200000762939453125 29.200000762939453125 29 28.700000762939453125 28.200000762939453125 27.5 27.100000381469726562 28.100000381469726562 28.399999618530273438 28.600000381469726562 28.899999618530273438 30.200000762939453125 32.59999847412109375 35.799999237060546875 38.799999237060546875 42.09999847412109375 45.299999237060546875 47.5 48.200000762939453125 47.09999847412109375 49 48.299999237060546875 44.700000762939453125 37.700000762939453125 30.100000381469726562 22.299999237060546875 16.299999237060546875 13.199999809265136719 11.399999618530273438 10.800000190734863281 10.699999809265136719 13 12.399999618530273438 13.100000381469726562 9 10.699999809265136719 10.100000381469726562 9.8000001907348632812 11 12.300000190734863281 15.100000381469726562 18.600000381469726562 19.600000381469726562 18.700000762939453125 16.5 13.800000190734863281 12.5 10.600000381469726562 9.8999996185302734375 10.600000381469726562 11.800000190734863281 12.699999809265136719 13.699999809265136719 14.5 15.5 15.600000381469726562 15.699999809265136719 16.5 16.200000762939453125 16.5 17 17.100000381469726562 17 17.799999237060546875 18.399999618530273438 18.899999618530273438 19.299999237060546875 19.100000381469726562 18.299999237060546875 18.799999237060546875 18.200000762939453125 17.700000762939453125 17.799999237060546875 
19.299999237060546875 19.899999618530273438 21.100000381469726562 21.5 21.799999237060546875 22 22.100000381469726562 22 22.100000381469726562 22.200000762939453125 22.100000381469726562 21.799999237060546875 21.299999237060546875 20.899999618530273438 20.600000381469726562 20.399999618530273438 19.600000381469726562 18.700000762939453125 17.5 16.799999237060546875 16.399999618530273438 15.699999809265136719 14.899999618530273438 14.199999809265136719 14 14.300000190734863281 14.5 14.600000381469726562 19.200000762939453125 15.399999618530273438 15.100000381469726562 14.899999618530273438 15 15.199999809265136719 15.399999618530273438 15.600000381469726562 15.800000190734863281 18.899999618530273438 20 19.200000762939453125 20.200000762939453125 21.700000762939453125 25 27.799999237060546875 31.299999237060546875 34.40000152587890625 37.299999237060546875 39.5 40.799999237060546875 42.09999847412109375 42.40000152587890625 42.09999847412109375 40.09999847412109375 37.59999847412109375 35.09999847412109375 32.799999237060546875 30.799999237060546875 29.100000381469726562 27.299999237060546875 25.700000762939453125 24.5 23.5 22.399999618530273438 21.5 21.399999618530273438 21.299999237060546875 20.899999618530273438 23.100000381469726562 20.899999618530273438 19.899999618530273438 19.5 20.200000762939453125 21.399999618530273438 22.299999237060546875 21.600000381469726562 20 19.899999618530273438 20 20.100000381469726562 21.200000762939453125 22.700000762939453125 23.399999618530273438 23.899999618530273438 24.100000381469726562 23.5 22.700000762939453125 21.799999237060546875 21 20.399999618530273438 20.200000762939453125 20 20 20.5 21.799999237060546875 24 26.700000762939453125 28.700000762939453125 29.5 30 31.5 33 34.700000762939453125 37.700000762939453125 41 44.200000762939453125 45.5 46.200000762939453125 45.700000762939453125 44.09999847412109375 42 41.200000762939453125 39.799999237060546875 38.40000152587890625 36.09999847412109375 34.5 33.299999237060546875 32.40000152587890625 32.5 36.799999237060546875 32.09999847412109375 30.600000381469726562 30.5 30.899999618530273438 31.600000381469726562 32.299999237060546875 31.299999237060546875 28.899999618530273438 30.399999618530273438 30.399999618530273438 29.799999237060546875 29.299999237060546875 28.600000381469726562 28.200000762939453125 27.700000762939453125 27.600000381469726562 27.600000381469726562 27.799999237060546875 27.899999618530273438 28.899999618530273438 30.700000762939453125 33 35.59999847412109375 38 40.40000152587890625 43 44.40000152587890625 42.700000762939453125 42.700000762939453125 41.09999847412109375 37.90000152587890625 33.200000762939453125 26.600000381469726562 18.200000762939453125 14.899999618530273438 12.600000381469726562 11.199999809265136719 11 13 12.300000190734863281 11.800000190734863281 11.300000190734863281 12.300000190734863281 11 10.5 10.800000190734863281 11.199999809265136719 12.399999618530273438 15.5 19.200000762939453125 21.5 21 18.600000381469726562 15.800000190734863281 12.899999618530273438 11.5 10.5 11.100000381469726562 11.5 11.899999618530273438 12.399999618530273438 13.100000381469726562 13.699999809265136719 14.399999618530273438 15.5 16.399999618530273438 16.899999618530273438 17.100000381469726562 17.600000381469726562 17.799999237060546875 17.899999618530273438 17.899999618530273438 17.899999618530273438 18.100000381469726562 18.299999237060546875 17.700000762939453125 17.600000381469726562 17.100000381469726562 16.700000762939453125 16.899999618530273438 16.700000762939453125 
20.299999237060546875 21 21.899999618530273438 22.299999237060546875 22.600000381469726562 22.600000381469726562 22.5 22.5 22.5 22.5 22.5 22.399999618530273438 21.899999618530273438 21.5 21.399999618530273438 21.399999618530273438 20.799999237060546875 19.5 18.399999618530273438 17.700000762939453125 17 16.299999237060546875 15.300000190734863281 14.800000190734863281 14.600000381469726562 14.699999809265136719 14.399999618530273438 14.699999809265136719 14.899999618530273438 16.399999618530273438 15.399999618530273438 15.199999809265136719 15.300000190734863281 15.5 15.899999618530273438 16 16.5 20.899999618530273438 19.700000762939453125 19.899999618530273438 21.299999237060546875 24.5 26.200000762939453125 28.899999618530273438 33 36.09999847412109375 38.799999237060546875 40.90000152587890625 42.299999237060546875 42.200000762939453125 42.09999847412109375 39.90000152587890625 38 35.40000152587890625 33 31.200000762939453125 29.600000381469726562 28 26.200000762939453125 25.299999237060546875 24.5 23.200000762939453125 22.399999618530273438 21.799999237060546875 21.700000762939453125 21.200000762939453125 22.700000762939453125 21.700000762939453125 21.5 21 19.899999618530273438 20.700000762939453125 21.899999618530273438 23.100000381469726562 22.399999618530273438 21.200000762939453125 20.399999618530273438 19.899999618530273438 20.200000762939453125 21.700000762939453125 23.200000762939453125 24.100000381469726562 24.299999237060546875 24.399999618530273438 23.899999618530273438 23.399999618530273438 22.600000381469726562 21.799999237060546875 21.100000381469726562 20.700000762939453125 20.600000381469726562 20.600000381469726562 21 21.899999618530273438 23.700000762939453125 25.299999237060546875 27 28.399999618530273438 28.899999618530273438 30.100000381469726562 31.600000381469726562 33.200000762939453125 35.09999847412109375 37.09999847412109375 39.5 41 43.299999237060546875 44.09999847412109375 43.200000762939453125 41.799999237060546875 40.799999237060546875 39.59999847412109375 38 36.40000152587890625 35.200000762939453125 34.09999847412109375 33.299999237060546875 33.09999847412109375 33.700000762939453125 32.299999237060546875 31.399999618530273438 31.899999618530273438 32.09999847412109375 32.59999847412109375 33.200000762939453125 33 30.100000381469726562 32.5 32 31.200000762939453125 30.100000381469726562 29.299999237060546875 27.799999237060546875 27.299999237060546875 26.799999237060546875 26.899999618530273438 27 27.200000762939453125 27.700000762939453125 29.200000762939453125 31.200000762939453125 32.40000152587890625 33.59999847412109375 35.90000152587890625 37.700000762939453125 37.90000152587890625 35.700000762939453125 34.299999237060546875 32.59999847412109375 30 26.100000381469726562 21.5 16.299999237060546875 14 11.699999809265136719 10.399999618530273438 11.199999809265136719 12.100000381469726562 11 11.100000381469726562 10.600000381469726562 10.800000190734863281 10.800000190734863281 11.300000190734863281 10.899999618530273438 11 12.600000381469726562 15.800000190734863281 20 23.399999618530273438 22.899999618530273438 20.399999618530273438 16.600000381469726562 14.199999809265136719 12.399999618530273438 11.100000381469726562 10.800000190734863281 12 13 13.600000381469726562 15 16.200000762939453125 17.399999618530273438 18.299999237060546875 18.399999618530273438 18.600000381469726562 18.700000762939453125 19 19.399999618530273438 18.799999237060546875 18.299999237060546875 17.700000762939453125 16.899999618530273438 17.299999237060546875 16.700000762939453125 16.399999618530273438 16 16 16.600000381469726562 16.600000381469726562 
21 22 22.600000381469726562 22.799999237060546875 23.100000381469726562 22.600000381469726562 22.799999237060546875 22.799999237060546875 22.700000762939453125 22.700000762939453125 22.700000762939453125 22.799999237060546875 22.700000762939453125 22.299999237060546875 21.799999237060546875 21.899999618530273438 21.5 20.200000762939453125 18.899999618530273438 18.299999237060546875 17.5 16.700000762939453125 15.800000190734863281 15 15 14.899999618530273438 14.600000381469726562 14.300000190734863281 15.100000381469726562 15.399999618530273438 15.699999809265136719 15.600000381469726562 15.100000381469726562 15.699999809265136719 16.399999618530273438 16.200000762939453125 16.799999237060546875 22.299999237060546875 19.899999618530273438 20.899999618530273438 22.600000381469726562 24.799999237060546875 26.899999618530273438 30.799999237060546875 34.799999237060546875 38 40.09999847412109375 41.90000152587890625 42.40000152587890625 41.799999237060546875 40.5 37.59999847412109375 35.799999237060546875 33.90000152587890625 31.899999618530273438 29.799999237060546875 28.299999237060546875 26.899999618530273438 25.799999237060546875 25 24.600000381469726562 23.200000762939453125 22.600000381469726562 22 21.700000762939453125 21.5 21.5 21.899999618530273438 22.200000762939453125 21.600000381469726562 20.899999618530273438 21.600000381469726562 22.5 23.200000762939453125 22.700000762939453125 21.700000762939453125 21 20.600000381469726562 21.100000381469726562 22.299999237060546875 23.799999237060546875 24.700000762939453125 24.899999618530273438 25 24.700000762939453125 24.200000762939453125 23.5 22.700000762939453125 21.899999618530273438 21.200000762939453125 20.899999618530273438 21.100000381469726562 21.399999618530273438 22.200000762939453125 23.399999618530273438 24.200000762939453125 25 26.299999237060546875 27.399999618530273438 28 29.399999618530273438 30.799999237060546875 32.299999237060546875 34 35.799999237060546875 38.40000152587890625 40.90000152587890625 41.799999237060546875 41.5 40.700000762939453125 39.90000152587890625 38.799999237060546875 37.299999237060546875 36.299999237060546875 35.5 34.799999237060546875 34 33.59999847412109375 33.299999237060546875 32.90000152587890625 32.799999237060546875 33.40000152587890625 33.90000152587890625 34.40000152587890625 34.90000152587890625 31.600000381469726562 33.90000152587890625 33.700000762939453125 32.799999237060546875 32 31 29.399999618530273438 28 27.100000381469726562 26.399999618530273438 26.200000762939453125 26.200000762939453125 26.5 26.899999618530273438 28.399999618530273438 29.299999237060546875 30 30.700000762939453125 32 32.5 32.200000762939453125 30.899999618530273438 28.899999618530273438 26.799999237060546875 24.600000381469726562 21.899999618530273438 17.899999618530273438 14.800000190734863281 12.699999809265136719 11.199999809265136719 10.699999809265136719 11.899999618530273438 11.899999618530273438 10.600000381469726562 10.300000190734863281 10.399999618530273438 10.5 10.800000190734863281 12.5 16.299999237060546875 12.100000381469726562 13.5 16.399999618530273438 20.5 24.299999237060546875 24 22 17.899999618530273438 15.800000190734863281 13.899999618530273438 11.699999809265136719 10.899999618530273438 12.199999809265136719 13.600000381469726562 15.5 17.100000381469726562 18.600000381469726562 19.600000381469726562 20.5 20.600000381469726562 20.100000381469726562 19.299999237060546875 19.100000381469726562 19.600000381469726562 19 18 17.100000381469726562 16.5 16 15.699999809265136719 15.800000190734863281 15.800000190734863281 15.899999618530273438 16.200000762939453125 16.700000762939453125 
22.600000381469726562 23.299999237060546875 23.600000381469726562 23.600000381469726562 23.600000381469726562 23.5 23.299999237060546875 23.100000381469726562 22.899999618530273438 22.399999618530273438 22.700000762939453125 22.799999237060546875 23.200000762939453125 22.899999618530273438 22.299999237060546875 22.100000381469726562 21.799999237060546875 20.399999618530273438 19.700000762939453125 18.399999618530273438 17.5 16.600000381469726562 15.699999809265136719 15.199999809265136719 15.399999618530273438 15.199999809265136719 15 14.899999618530273438 15.100000381469726562 15 15.5 15.899999618530273438 15.800000190734863281 16.200000762939453125 16.5 17 17.899999618530273438 20.5 20.299999237060546875 21.200000762939453125 24.100000381469726562 25.399999618530273438 28.5 32.5 36.299999237060546875 39.299999237060546875 41 42.09999847412109375 42.799999237060546875 41.90000152587890625 39.200000762939453125 36.200000762939453125 33.59999847412109375 32.700000762939453125 30.899999618530273438 29.100000381469726562 27.600000381469726562 26.600000381469726562 25.899999618530273438 25 24.399999618530273438 23.299999237060546875 23 22.399999618530273438 22.100000381469726562 23.399999618530273438 22.200000762939453125 22.600000381469726562 22.899999618530273438 21.899999618530273438 21.799999237060546875 21.799999237060546875 22.399999618530273438 22.700000762939453125 22.600000381469726562 22 21.200000762939453125 21.100000381469726562 21.399999618530273438 22.600000381469726562 24.200000762939453125 25.299999237060546875 25.5 25.700000762939453125 25.399999618530273438 24.899999618530273438 24.299999237060546875 23.5 22.700000762939453125 22.200000762939453125 21.899999618530273438 22.200000762939453125 22.399999618530273438 23.299999237060546875 23.799999237060546875 24.200000762939453125 25.200000762939453125 25.799999237060546875 27.200000762939453125 27.799999237060546875 27.899999618530273438 28.799999237060546875 30.299999237060546875 31.799999237060546875 33.799999237060546875 36.59999847412109375 38.90000152587890625 39.59999847412109375 39.5 39.09999847412109375 38.5 37.90000152587890625 36.799999237060546875 36.5 35.90000152587890625 35.299999237060546875 35 34.59999847412109375 34.200000762939453125 34.09999847412109375 34.40000152587890625 34.799999237060546875 35.299999237060546875 35.299999237060546875 37.90000152587890625 28.5 33.40000152587890625 34.90000152587890625 33.90000152587890625 32.700000762939453125 31 29.100000381469726562 28 27 26.5 26 25.899999618530273438 26 26.200000762939453125 27.899999618530273438 28.600000381469726562 28.600000381469726562 29.100000381469726562 29.399999618530273438 29.600000381469726562 28.5 27.299999237060546875 25.5 22.899999618530273438 20.799999237060546875 17.399999618530273438 15.399999618530273438 13.800000190734863281 12.5 11.300000190734863281 11.5 11 11 10.699999809265136719 10.600000381469726562 10.600000381469726562 10.600000381469726562 11.100000381469726562 12.399999618530273438 13.600000381469726562 15.899999618530273438 15.300000190734863281 17.200000762939453125 21.200000762939453125 24.399999618530273438 24.700000762939453125 23.5 20.200000762939453125 17.5 14.5 12.199999809265136719 11 12.600000381469726562 14.5 16.299999237060546875 18.700000762939453125 19.700000762939453125 21.100000381469726562 22.100000381469726562 21.399999618530273438 20.299999237060546875 19.399999618530273438 18.799999237060546875 18.5 17.100000381469726562 17 16.399999618530273438 16.200000762939453125 16.200000762939453125 16.100000381469726562 16.200000762939453125 16.100000381469726562 15.899999618530273438 16.100000381469726562 16.899999618530273438 
23.5 23.700000762939453125 23.799999237060546875 24 24 23.899999618530273438 23.799999237060546875 23.600000381469726562 23.399999618530273438 23.299999237060546875 23 23 23.200000762939453125 23.100000381469726562 22.600000381469726562 22.100000381469726562 21.799999237060546875 20.5 19.399999618530273438 18.5 17.600000381469726562 16.600000381469726562 15.600000381469726562 15.399999618530273438 15.5 15.699999809265136719 15.699999809265136719 15.600000381469726562 15.199999809265136719 15 14.899999618530273438 16.200000762939453125 16.799999237060546875 16.399999618530273438 16.600000381469726562 17 19.299999237060546875 20.600000381469726562 21.200000762939453125 23.899999618530273438 25.200000762939453125 27 29.700000762939453125 33.59999847412109375 37.5 40.09999847412109375 42.299999237060546875 43.200000762939453125 42.90000152587890625 41.299999237060546875 38.09999847412109375 34.799999237060546875 32 30.899999618530273438 30 28.5 27.299999237060546875 27 26.5 25.600000381469726562 25.100000381469726562 24.200000762939453125 23.5 22.899999618530273438 23.299999237060546875 22.899999618530273438 22.899999618530273438 23.399999618530273438 23.700000762939453125 22.600000381469726562 22 21.799999237060546875 22.600000381469726562 23.200000762939453125 22.600000381469726562 22 21.799999237060546875 21.799999237060546875 22.100000381469726562 22.899999618530273438 24.5 25.899999618530273438 26.200000762939453125 26 25.700000762939453125 25.399999618530273438 25 24.299999237060546875 23.5 23.200000762939453125 23 23 22.799999237060546875 24.200000762939453125 24.700000762939453125 24.799999237060546875 26.200000762939453125 26.600000381469726562 27.700000762939453125 26 28 28.600000381469726562 29.600000381469726562 30.899999618530273438 32.299999237060546875 34.09999847412109375 36.09999847412109375 37.59999847412109375 38 37.700000762939453125 37.299999237060546875 37.09999847412109375 37 36.700000762939453125 36.59999847412109375 36.40000152587890625 36.200000762939453125 36 35.90000152587890625 35.90000152587890625 36.200000762939453125 36.5 36.59999847412109375 36.700000762939453125 40 29 37.40000152587890625 34.799999237060546875 34.5 33.200000762939453125 32 29.700000762939453125 28.200000762939453125 27.299999237060546875 26.700000762939453125 26.100000381469726562 25.600000381469726562 25.600000381469726562 25.899999618530273438 26.899999618530273438 28.100000381469726562 28.100000381469726562 28.200000762939453125 27.899999618530273438 27.700000762939453125 26.399999618530273438 24.799999237060546875 23.200000762939453125 20.399999618530273438 18 15.800000190734863281 14.199999809265136719 13.5 12.600000381469726562 11.399999618530273438 11.399999618530273438 11.399999618530273438 11.199999809265136719 10.899999618530273438 10.899999618530273438 10.800000190734863281 11 11.600000381469726562 12.399999618530273438 13.199999809265136719 14 16.100000381469726562 16.899999618530273438 22.5 23.799999237060546875 24.299999237060546875 24.899999618530273438 22.399999618530273438 19.5 15.199999809265136719 12.600000381469726562 11.399999618530273438 13.300000190734863281 15.300000190734863281 16.899999618530273438 19.299999237060546875 20.200000762939453125 21.299999237060546875 21.5 21.100000381469726562 19.399999618530273438 19.299999237060546875 18 16.899999618530273438 16.5 16.299999237060546875 15.699999809265136719 15.699999809265136719 15.800000190734863281 16.100000381469726562 16.100000381469726562 16.200000762939453125 16.600000381469726562 16.399999618530273438 16.700000762939453125 
24.299999237060546875 24.399999618530273438 24.299999237060546875 24.399999618530273438 24.399999618530273438 24.299999237060546875 24.200000762939453125 24.200000762939453125 24 23.5 23.100000381469726562 23.100000381469726562 23.100000381469726562 23.299999237060546875 23.399999618530273438 23 22 20.5 19.200000762939453125 18.5 17.700000762939453125 16.899999618530273438 16 15.5 15.699999809265136719 15.800000190734863281 15.899999618530273438 15.800000190734863281 15.699999809265136719 15.5 15.600000381469726562 15.800000190734863281 17.299999237060546875 17.799999237060546875 17 17.5 19.600000381469726562 20.600000381469726562 23.799999237060546875 26.600000381469726562 28.299999237060546875 30 31.899999618530273438 35.09999847412109375 38.90000152587890625 40.90000152587890625 42.799999237060546875 42.90000152587890625 42.299999237060546875 40.200000762939453125 37.09999847412109375 33.59999847412109375 31.299999237060546875 29.899999618530273438 29 28 27.899999618530273438 27.799999237060546875 27.5 26.399999618530273438 25.899999618530273438 25.5 24.700000762939453125 24.5 24 23.799999237060546875 23.899999618530273438 24 23.700000762939453125 22.700000762939453125 22.299999237060546875 21.600000381469726562 22.299999237060546875 22.899999618530273438 22.899999618530273438 22.5 22.299999237060546875 22.399999618530273438 22.899999618530273438 23.700000762939453125 25.200000762939453125 26.5 26.700000762939453125 26.399999618530273438 26.200000762939453125 25.899999618530273438 25.5 24.799999237060546875 24.5 24.700000762939453125 24.5 24 23.399999618530273438 25.5 26 25.799999237060546875 26.899999618530273438 27.700000762939453125 28.5 28.799999237060546875 29.299999237060546875 29.799999237060546875 30.5 31.200000762939453125 31.799999237060546875 32.5 34.299999237060546875 35.40000152587890625 35.59999847412109375 36.200000762939453125 36.40000152587890625 36.799999237060546875 37.200000762939453125 37.59999847412109375 38 38.09999847412109375 37.700000762939453125 37.799999237060546875 37.700000762939453125 37.90000152587890625 38.299999237060546875 38.59999847412109375 38.59999847412109375 39.700000762939453125 38.59999847412109375 34.5 37.700000762939453125 30.200000762939453125 35.09999847412109375 33.700000762939453125 32.299999237060546875 29.700000762939453125 28.5 27.399999618530273438 26.799999237060546875 25.899999618530273438 25.600000381469726562 25.899999618530273438 26.200000762939453125 26.899999618530273438 27.899999618530273438 27.600000381469726562 27.5 27 26.5 24.600000381469726562 22.5 21.200000762939453125 17.899999618530273438 16.200000762939453125 14.800000190734863281 14.199999809265136719 13 13.199999809265136719 11.899999618530273438 11.600000381469726562 11.699999809265136719 11.100000381469726562 11.5 11.699999809265136719 11.199999809265136719 11.399999618530273438 11.899999618530273438 12.600000381469726562 13.300000190734863281 14.399999618530273438 17 20.100000381469726562 23.899999618530273438 17.100000381469726562 23.299999237060546875 24 23.799999237060546875 20.600000381469726562 16.5 12.800000190734863281 11.899999618530273438 13.399999618530273438 15.800000190734863281 18 19.600000381469726562 20.200000762939453125 20 19.700000762939453125 19.799999237060546875 18.700000762939453125 18.600000381469726562 17.100000381469726562 15.699999809265136719 15.899999618530273438 15.600000381469726562 15.300000190734863281 15.199999809265136719 15.600000381469726562 16.100000381469726562 16.399999618530273438 17 16.600000381469726562 16.399999618530273438 16.399999618530273438 
25.100000381469726562 25 24.799999237060546875 24.899999618530273438 24.799999237060546875 24.700000762939453125 24.600000381469726562 24.600000381469726562 24.600000381469726562 24.200000762939453125 23.799999237060546875 23.700000762939453125 23.600000381469726562 23.299999237060546875 23.5 23.100000381469726562 22 20.600000381469726562 19.5 18.5 17.700000762939453125 17 16.600000381469726562 16.100000381469726562 15.800000190734863281 15.699999809265136719 15.800000190734863281 15.899999618530273438 15.899999618530273438 16.100000381469726562 16.399999618530273438 16.600000381469726562 16.600000381469726562 17.399999618530273438 17.600000381469726562 17.799999237060546875 21.700000762939453125 22.399999618530273438 25.100000381469726562 27.700000762939453125 30.200000762939453125 32 34.799999237060546875 37.700000762939453125 40.40000152587890625 42 42.299999237060546875 42.200000762939453125 40.90000152587890625 38.799999237060546875 36 32.5 30 29.200000762939453125 28.299999237060546875 28.299999237060546875 28.299999237060546875 28.5 28.200000762939453125 27.5 26.899999618530273438 26.5 26.700000762939453125 26.299999237060546875 26.399999618530273438 25.799999237060546875 25.399999618530273438 25 23.799999237060546875 22.899999618530273438 22.399999618530273438 21.799999237060546875 22.200000762939453125 23.200000762939453125 23.200000762939453125 23 22.799999237060546875 23.200000762939453125 23.600000381469726562 24.600000381469726562 26 27.399999618530273438 27.399999618530273438 27 26.600000381469726562 26.299999237060546875 25.899999618530273438 25.600000381469726562 25.700000762939453125 26.200000762939453125 26 25.700000762939453125 24.5 25.899999618530273438 27.799999237060546875 27.700000762939453125 28.200000762939453125 29.100000381469726562 29.600000381469726562 29.899999618530273438 30.399999618530273438 30.799999237060546875 31.600000381469726562 32.5 32.40000152587890625 32.90000152587890625 34.700000762939453125 35.09999847412109375 35.299999237060546875 35.40000152587890625 35.90000152587890625 36.59999847412109375 37.5 38.90000152587890625 39.799999237060546875 40.200000762939453125 41 42 41 41.299999237060546875 40.700000762939453125 40.5 40.700000762939453125 42.59999847412109375 36 37.799999237060546875 37 34.09999847412109375 35.59999847412109375 33.90000152587890625 32 29.600000381469726562 27.799999237060546875 27.899999618530273438 27.399999618530273438 26.399999618530273438 25.899999618530273438 26.399999618530273438 27.299999237060546875 27.5 27.5 27.399999618530273438 27.299999237060546875 26.799999237060546875 26.200000762939453125 23.899999618530273438 21.700000762939453125 19.399999618530273438 16.600000381469726562 15.100000381469726562 14.100000381469726562 13.399999618530273438 13 12.699999809265136719 12 11.699999809265136719 11.899999618530273438 11.600000381469726562 12 11.800000190734863281 11.5 11.899999618530273438 12.300000190734863281 12.899999618530273438 13.699999809265136719 14.800000190734863281 17.200000762939453125 21.100000381469726562 23.899999618530273438 24.399999618530273438 18.600000381469726562 23.399999618530273438 23.899999618530273438 21.5 17.5 13.199999809265136719 12.699999809265136719 13.600000381469726562 15.600000381469726562 17.200000762939453125 18.799999237060546875 18.5 18.700000762939453125 18.399999618530273438 18.600000381469726562 17.899999618530273438 16.799999237060546875 15.100000381469726562 13 15.199999809265136719 15.100000381469726562 15.300000190734863281 15.399999618530273438 15.699999809265136719 16.100000381469726562 15.899999618530273438 16.700000762939453125 16.399999618530273438 16.5 16.600000381469726562 
25.799999237060546875 25.700000762939453125 25.5 25.299999237060546875 25.200000762939453125 25.100000381469726562 25.200000762939453125 25.299999237060546875 25.299999237060546875 25.100000381469726562 24.700000762939453125 24.299999237060546875 24.100000381469726562 23.799999237060546875 23.600000381469726562 23.5 22 20.399999618530273438 19.700000762939453125 18.700000762939453125 18 17.5 17.100000381469726562 16.600000381469726562 16.299999237060546875 16.200000762939453125 16.100000381469726562 16.100000381469726562 16.200000762939453125 16.5 16.700000762939453125 16.600000381469726562 16.600000381469726562 16.899999618530273438 16.799999237060546875 17.600000381469726562 23.299999237060546875 24.200000762939453125 26.100000381469726562 28.700000762939453125 32.09999847412109375 35.09999847412109375 37.299999237060546875 39.40000152587890625 41.200000762939453125 42.200000762939453125 41.90000152587890625 40.59999847412109375 39.5 37.09999847412109375 34.5 31.299999237060546875 29.700000762939453125 27.899999618530273438 28.200000762939453125 28.5 28.600000381469726562 28.600000381469726562 28.600000381469726562 28.299999237060546875 28.100000381469726562 28.399999618530273438 29.200000762939453125 30.200000762939453125 28.100000381469726562 27.5 26.5 25.899999618530273438 24.299999237060546875 23.399999618530273438 22.799999237060546875 22.5 22.5 23.299999237060546875 23.299999237060546875 23.100000381469726562 23.200000762939453125 23.5 24.200000762939453125 25.5 27 28 28 27.700000762939453125 27.299999237060546875 27 26.700000762939453125 26.299999237060546875 27 27.299999237060546875 27.100000381469726562 27.299999237060546875 25.799999237060546875 25.899999618530273438 29 29.200000762939453125 29.799999237060546875 30.399999618530273438 30.700000762939453125 31.100000381469726562 31.399999618530273438 31.899999618530273438 32.40000152587890625 32.700000762939453125 33.40000152587890625 33.799999237060546875 34.90000152587890625 35.299999237060546875 35.09999847412109375 35.200000762939453125 36 36.799999237060546875 38.59999847412109375 39.90000152587890625 41.200000762939453125 42.5 43.799999237060546875 43.09999847412109375 46.90000152587890625 46 44.09999847412109375 42.90000152587890625 43.5 43.700000762939453125 30.899999618530273438 40.299999237060546875 37.299999237060546875 34.799999237060546875 30.399999618530273438 33.5 31.399999618530273438 29.200000762939453125 27.899999618530273438 27.299999237060546875 27.299999237060546875 27.100000381469726562 26.899999618530273438 27 27.299999237060546875 27.899999618530273438 27.899999618530273438 27.299999237060546875 26.799999237060546875 26.899999618530273438 25.700000762939453125 23.299999237060546875 20.600000381469726562 17.700000762939453125 15.899999618530273438 14.5 13.800000190734863281 13.5 13.399999618530273438 12.399999618530273438 12.100000381469726562 11.899999618530273438 9.3999996185302734375 11.899999618530273438 12.199999809265136719 11.699999809265136719 11.699999809265136719 12.399999618530273438 12.800000190734863281 13.300000190734863281 14.300000190734863281 15.300000190734863281 18.399999618530273438 22.399999618530273438 24.5 25.5 25.200000762939453125 24.399999618530273438 20 21.5 17.799999237060546875 14 13.100000381469726562 12.699999809265136719 14.100000381469726562 15.600000381469726562 16.5 16.899999618530273438 17.100000381469726562 17.200000762939453125 17.100000381469726562 16.600000381469726562 15.699999809265136719 13.100000381469726562 14.300000190734863281 14.699999809265136719 15 15.300000190734863281 15.600000381469726562 15.800000190734863281 16 16 16.100000381469726562 16.5 16.600000381469726562 16.799999237060546875 
26.399999618530273438 26.5 26.5 26.299999237060546875 26.200000762939453125 26.100000381469726562 26 26 26 26 25.5 25 24.5 24.299999237060546875 24.100000381469726562 23.799999237060546875 22.299999237060546875 20.799999237060546875 20 19 18.5 18.100000381469726562 17.600000381469726562 17.100000381469726562 16.899999618530273438 16.5 16.200000762939453125 16.299999237060546875 16.5 16.600000381469726562 16.799999237060546875 17 17 17.299999237060546875 17.799999237060546875 18.600000381469726562 22.799999237060546875 24.5 27.100000381469726562 30.399999618530273438 33.799999237060546875 36 38 40 41.200000762939453125 41.700000762939453125 41.299999237060546875 39.09999847412109375 37.5 35.200000762939453125 32.700000762939453125 29.899999618530273438 26.799999237060546875 25.700000762939453125 27.600000381469726562 29.299999237060546875 29 28.5 29.5 29.399999618530273438 29.100000381469726562 29.600000381469726562 24.299999237060546875 30.399999618530273438 29.700000762939453125 28.399999618530273438 27.5 26.700000762939453125 25.100000381469726562 24 23.399999618530273438 23 22.799999237060546875 23.200000762939453125 23.399999618530273438 23.299999237060546875 23.399999618530273438 24 25 26.5 27.600000381469726562 28.5 28.5 28.299999237060546875 27.700000762939453125 27.399999618530273438 27.399999618530273438 27.600000381469726562 28.399999618530273438 28.399999618530273438 28.5 28.100000381469726562 27 26 29.100000381469726562 30.5 31.5 31.799999237060546875 31.899999618530273438 32.299999237060546875 32.700000762939453125 33 33.700000762939453125 34.299999237060546875 34.700000762939453125 34.5 35.299999237060546875 36.09999847412109375 40.40000152587890625 42.90000152587890625 37.200000762939453125 38 39.59999847412109375 41.299999237060546875 43.200000762939453125 45.700000762939453125 46 47.59999847412109375 48.799999237060546875 47.799999237060546875 46.09999847412109375 44.299999237060546875 44.5 43.59999847412109375 31.600000381469726562 41.90000152587890625 37.299999237060546875 36 33.200000762939453125 27.200000762939453125 31.100000381469726562 29 27.799999237060546875 27.100000381469726562 27 26.799999237060546875 26.600000381469726562 26.399999618530273438 27.100000381469726562 27.899999618530273438 27.899999618530273438 26.5 25.600000381469726562 25.200000762939453125 24.200000762939453125 21.899999618530273438 18.899999618530273438 16.899999618530273438 15.399999618530273438 14.100000381469726562 13.5 13.300000190734863281 12.899999618530273438 12.699999809265136719 12.199999809265136719 11.699999809265136719 11 11.899999618530273438 12.199999809265136719 12.300000190734863281 12.199999809265136719 13.100000381469726562 13.699999809265136719 13.800000190734863281 14.699999809265136719 16 19.700000762939453125 23.200000762939453125 25.5 26.5 27.200000762939453125 25.899999618530273438 23.899999618530273438 19.600000381469726562 18 15.199999809265136719 13.300000190734863281 12.5 12.300000190734863281 13.699999809265136719 15.199999809265136719 15.699999809265136719 16.100000381469726562 16.399999618530273438 16.399999618530273438 15.899999618530273438 15.100000381469726562 14.399999618530273438 14.399999618530273438 14.600000381469726562 14.899999618530273438 15.399999618530273438 15.600000381469726562 15.800000190734863281 16 16.100000381469726562 16.100000381469726562 16.5 16.799999237060546875 17.100000381469726562 
27.100000381469726562 27.299999237060546875 27.299999237060546875 27.200000762939453125 27.100000381469726562 27 26.799999237060546875 26.899999618530273438 26.799999237060546875 26.600000381469726562 26 25.600000381469726562 25.100000381469726562 24.799999237060546875 24.5 23.899999618530273438 22.700000762939453125 21.200000762939453125 20.200000762939453125 19.5 19.100000381469726562 18.600000381469726562 18.100000381469726562 17.700000762939453125 17.399999618530273438 17 16.5 16.299999237060546875 16.5 16.700000762939453125 17 17.200000762939453125 17.5 17.899999618530273438 18.399999618530273438 19.5 22.299999237060546875 25.200000762939453125 28.200000762939453125 31.600000381469726562 34.799999237060546875 36.5 37.799999237060546875 39.09999847412109375 40 40.299999237060546875 38.5 36.799999237060546875 34.200000762939453125 31.899999618530273438 30.700000762939453125 28.899999618530273438 27.600000381469726562 26.799999237060546875 29.600000381469726562 30.299999237060546875 30.399999618530273438 30.299999237060546875 31.399999618530273438 31.100000381469726562 30.200000762939453125 26.5 31.200000762939453125 31.700000762939453125 31 29.700000762939453125 28.600000381469726562 27.399999618530273438 25.700000762939453125 24.399999618530273438 24 23.700000762939453125 23.299999237060546875 23.5 23.5 23.600000381469726562 23.899999618530273438 25 26 27.200000762939453125 28.100000381469726562 29.100000381469726562 29.200000762939453125 28.899999618530273438 28.299999237060546875 28.200000762939453125 28.299999237060546875 29 29.799999237060546875 30 29.600000381469726562 29 27.600000381469726562 26.299999237060546875 28.700000762939453125 30.5 32 32.799999237060546875 33.200000762939453125 33.799999237060546875 34 34.09999847412109375 34.700000762939453125 35.299999237060546875 35.90000152587890625 37.299999237060546875 42.799999237060546875 45.799999237060546875 45.90000152587890625 44.90000152587890625 37.90000152587890625 39.5 41.200000762939453125 43.299999237060546875 45.700000762939453125 47.5 47.90000152587890625 50.299999237060546875 49.59999847412109375 48.200000762939453125 46.40000152587890625 44.799999237060546875 43.5 40.90000152587890625 38.59999847412109375 42.299999237060546875 36.90000152587890625 35.299999237060546875 32.700000762939453125 30.600000381469726562 27.100000381469726562 28.700000762939453125 27.700000762939453125 27.399999618530273438 27.700000762939453125 27.200000762939453125 26.700000762939453125 26 27 27.899999618530273438 26.700000762939453125 25.299999237060546875 24.100000381469726562 23 22 20 17.700000762939453125 16.100000381469726562 14.5 13.699999809265136719 13.199999809265136719 13 12.800000190734863281 12.800000190734863281 12.300000190734863281 11.600000381469726562 11.300000190734863281 11.899999618530273438 12.199999809265136719 12.300000190734863281 12.699999809265136719 13.5 13.800000190734863281 14.199999809265136719 15 16.5 20.600000381469726562 24.100000381469726562 26.600000381469726562 27.399999618530273438 27.600000381469726562 27 25.200000762939453125 22.5 20.399999618530273438 16.100000381469726562 14.100000381469726562 12.5 12.899999618530273438 12.600000381469726562 13.699999809265136719 14.699999809265136719 15.100000381469726562 15.800000190734863281 15.600000381469726562 15.100000381469726562 14.5 14.600000381469726562 14.5 14.5 15 15.600000381469726562 15.699999809265136719 15.800000190734863281 16 16.100000381469726562 16.200000762939453125 16.5 16.799999237060546875 17.200000762939453125 
27.5 27.899999618530273438 28 28 27.899999618530273438 27.799999237060546875 27.600000381469726562 27.700000762939453125 27.5 27.100000381469726562 26.899999618530273438 26.700000762939453125 25.700000762939453125 25.299999237060546875 25 24 22.799999237060546875 21.600000381469726562 20.600000381469726562 20.100000381469726562 19.700000762939453125 19.200000762939453125 18.700000762939453125 18.200000762939453125 17.799999237060546875 17.299999237060546875 16.799999237060546875 17 17.100000381469726562 16.899999618530273438 17.200000762939453125 17.5 17.700000762939453125 18.100000381469726562 18.5 19.700000762939453125 22.600000381469726562 25.799999237060546875 28.5 31.799999237060546875 34.5 35.700000762939453125 36.799999237060546875 37.40000152587890625 38.5 38.09999847412109375 36.700000762939453125 34.59999847412109375 32 29.600000381469726562 29.299999237060546875 28.299999237060546875 28.899999618530273438 30.100000381469726562 31.200000762939453125 32.09999847412109375 32.40000152587890625 33 34.40000152587890625 34.200000762939453125 31 31 32.200000762939453125 32.200000762939453125 32.09999847412109375 31.100000381469726562 29.5 27.600000381469726562 26.5 25.399999618530273438 24.899999618530273438 24.600000381469726562 24.200000762939453125 24 23.5 23.899999618530273438 24.600000381469726562 25.399999618530273438 26.600000381469726562 27.700000762939453125 28.700000762939453125 29.600000381469726562 29.899999618530273438 29.5 29 29.700000762939453125 30.299999237060546875 30.600000381469726562 31.399999618530273438 31.700000762939453125 30.799999237060546875 29.899999618530273438 28.200000762939453125 26.799999237060546875 28.399999618530273438 30.399999618530273438 32 33.5 34.40000152587890625 35 35.59999847412109375 35.5 35.700000762939453125 36.299999237060546875 37.09999847412109375 39.09999847412109375 45.59999847412109375 45.90000152587890625 46 45.799999237060546875 39.5 40.700000762939453125 42.90000152587890625 44.90000152587890625 46.5 48.59999847412109375 51.200000762939453125 50.700000762939453125 49.799999237060546875 48.09999847412109375 46.40000152587890625 45 43.40000152587890625 33 40.200000762939453125 38.700000762939453125 36.200000762939453125 34 31.600000381469726562 29.899999618530273438 28.799999237060546875 28.5 28.100000381469726562 28.200000762939453125 28.299999237060546875 27.5 27.200000762939453125 26.399999618530273438 27 26.799999237060546875 25 23.399999618530273438 22.100000381469726562 21 19.799999237060546875 18.5 16.600000381469726562 15.300000190734863281 14 13.300000190734863281 12.899999618530273438 13 13.199999809265136719 12.800000190734863281 12.100000381469726562 11.5 11.399999618530273438 12.199999809265136719 12.300000190734863281 12.100000381469726562 12.600000381469726562 13.5 13.899999618530273438 14.199999809265136719 14.899999618530273438 16.700000762939453125 20.600000381469726562 23.799999237060546875 26.600000381469726562 27.600000381469726562 28.5 27.600000381469726562 25.399999618530273438 22.5 19.5 18.399999618530273438 14.899999618530273438 13.699999809265136719 13 12.800000190734863281 13.100000381469726562 14 14.300000190734863281 14.899999618530273438 14.800000190734863281 14.300000190734863281 14.199999809265136719 14.600000381469726562 14.699999809265136719 14.800000190734863281 15.199999809265136719 15.800000190734863281 15.800000190734863281 15.800000190734863281 16 16.100000381469726562 16.299999237060546875 16.600000381469726562 16.899999618530273438 17.200000762939453125 
27.799999237060546875 28.299999237060546875 28.700000762939453125 28.799999237060546875 28.799999237060546875 28.5 28.600000381469726562 28.600000381469726562 28.5 28.299999237060546875 27.799999237060546875 27.5 26.799999237060546875 26.299999237060546875 25.399999618530273438 24.200000762939453125 23.200000762939453125 22.600000381469726562 21.600000381469726562 20.799999237060546875 20.299999237060546875 19.799999237060546875 19.399999618530273438 18.899999618530273438 18.200000762939453125 17.600000381469726562 17.5 17.700000762939453125 17.399999618530273438 17 17.299999237060546875 17.600000381469726562 18 18.299999237060546875 18.600000381469726562 20.399999618530273438 22.399999618530273438 24 28.299999237060546875 31.299999237060546875 33.5 33.799999237060546875 34.200000762939453125 35.09999847412109375 35.59999847412109375 35.40000152587890625 34.09999847412109375 31.5 29.399999618530273438 27.799999237060546875 28.100000381469726562 28.799999237060546875 30.100000381469726562 31.399999618530273438 32.5 33.5 33.799999237060546875 34.5 34.59999847412109375 32.40000152587890625 31.399999618530273438 32.799999237060546875 33.200000762939453125 33.299999237060546875 33.299999237060546875 32.200000762939453125 29.799999237060546875 28.5 27.299999237060546875 26.399999618530273438 25.899999618530273438 25.5 25.100000381469726562 24.899999618530273438 25 25.100000381469726562 26 26.799999237060546875 27.399999618530273438 28.299999237060546875 29.200000762939453125 30.200000762939453125 30.200000762939453125 30.100000381469726562 30.600000381469726562 31.5 32.09999847412109375 32.40000152587890625 32.90000152587890625 32.700000762939453125 31.799999237060546875 30.600000381469726562 29.399999618530273438 28.200000762939453125 28.299999237060546875 30.200000762939453125 31.899999618530273438 33.59999847412109375 34.90000152587890625 36 36.09999847412109375 36.5 36.700000762939453125 37.59999847412109375 38.700000762939453125 39.700000762939453125 43.90000152587890625 45.90000152587890625 46.09999847412109375 46.299999237060546875 43.90000152587890625 41.59999847412109375 43.799999237060546875 46.5 48.09999847412109375 50.200000762939453125 51.200000762939453125 50.299999237060546875 49.40000152587890625 47.59999847412109375 46.09999847412109375 46.299999237060546875 44.09999847412109375 34.299999237060546875 44.200000762939453125 37.700000762939453125 36 33.59999847412109375 31.600000381469726562 29.899999618530273438 29.200000762939453125 28.899999618530273438 28.700000762939453125 26.200000762939453125 29 27.700000762939453125 27.200000762939453125 26 25.899999618530273438 25.200000762939453125 23.299999237060546875 21.399999618530273438 19.899999618530273438 18.700000762939453125 17.700000762939453125 17.299999237060546875 15.899999618530273438 14.899999618530273438 13.899999618530273438 13.399999618530273438 13 13.100000381469726562 13.300000190734863281 12.600000381469726562 11.800000190734863281 9.8000001907348632812 11.899999618530273438 12.399999618530273438 12.899999618530273438 13.199999809265136719 12.399999618530273438 13.600000381469726562 14 14.100000381469726562 14.699999809265136719 16.600000381469726562 19.799999237060546875 23.100000381469726562 26.200000762939453125 28 29.200000762939453125 27.600000381469726562 25.399999618530273438 22.399999618530273438 19.700000762939453125 17.299999237060546875 20.299999237060546875 15.100000381469726562 14.300000190734863281 13.100000381469726562 12.899999618530273438 13.300000190734863281 13.5 13.699999809265136719 13.800000190734863281 13.699999809265136719 14 14.399999618530273438 14.699999809265136719 15.100000381469726562 15.399999618530273438 15.800000190734863281 15.800000190734863281 15.600000381469726562 15.800000190734863281 16.100000381469726562 16.399999618530273438 16.700000762939453125 17 17.5 
28.299999237060546875 28.799999237060546875 29.299999237060546875 29.5 29.600000381469726562 29.399999618530273438 29.799999237060546875 29.799999237060546875 29.799999237060546875 29.600000381469726562 29.100000381469726562 28.299999237060546875 27.799999237060546875 27 25.700000762939453125 24.600000381469726562 24.100000381469726562 23.600000381469726562 22.700000762939453125 21.700000762939453125 21.100000381469726562 20.600000381469726562 20 19.700000762939453125 19 18.5 18.399999618530273438 18.200000762939453125 17.600000381469726562 17.100000381469726562 17.399999618530273438 17.600000381469726562 17.899999618530273438 18.5 18.700000762939453125 19.5 21.100000381469726562 24.700000762939453125 26.799999237060546875 29.200000762939453125 30.700000762939453125 30.399999618530273438 30.899999618530273438 31.799999237060546875 32.299999237060546875 32.200000762939453125 31 29.200000762939453125 27.399999618530273438 26.299999237060546875 27.100000381469726562 28.700000762939453125 30 31.399999618530273438 32.799999237060546875 33.59999847412109375 33.799999237060546875 32.799999237060546875 32.200000762939453125 31.100000381469726562 33.299999237060546875 34.09999847412109375 34.59999847412109375 34.59999847412109375 34.40000152587890625 33.40000152587890625 31.200000762939453125 29.5 28.5 27.399999618530273438 27.200000762939453125 26.799999237060546875 26.399999618530273438 26.200000762939453125 26.5 26.899999618530273438 27.5 28.200000762939453125 28.700000762939453125 29.399999618530273438 29.899999618530273438 30.700000762939453125 30.899999618530273438 30.899999618530273438 32.200000762939453125 33.09999847412109375 33.40000152587890625 33.799999237060546875 34.09999847412109375 33.5 32.40000152587890625 31.100000381469726562 30.100000381469726562 29.100000381469726562 29.100000381469726562 30.200000762939453125 32.200000762939453125 33.799999237060546875 34.90000152587890625 35.799999237060546875 36.59999847412109375 37.09999847412109375 38 38.90000152587890625 39.90000152587890625 40.700000762939453125 41.90000152587890625 45.799999237060546875 46 46.09999847412109375 45.90000152587890625 43.09999847412109375 46 48.09999847412109375 50.200000762939453125 51 50.90000152587890625 50.200000762939453125 49 47.700000762939453125 45.59999847412109375 48.299999237060546875 36.90000152587890625 41.5 39.59999847412109375 36.200000762939453125 34.90000152587890625 32.700000762939453125 30.799999237060546875 30.600000381469726562 29.600000381469726562 29.5 29.399999618530273438 29.5 28.600000381469726562 24.5 26.899999618530273438 25.600000381469726562 24.899999618530273438 23.600000381469726562 21.799999237060546875 19.399999618530273438 18.799999237060546875 17.899999618530273438 17 15.899999618530273438 15.300000190734863281 14.5 13.800000190734863281 13.300000190734863281 13.100000381469726562 13.300000190734863281 12.899999618530273438 11.699999809265136719 11.100000381469726562 12.100000381469726562 13.100000381469726562 13 13.100000381469726562 13.5 12 13.300000190734863281 13.100000381469726562 14.199999809265136719 14.699999809265136719 16.200000762939453125 18.399999618530273438 21.600000381469726562 25.399999618530273438 28.899999618530273438 29.700000762939453125 28.100000381469726562 26.200000762939453125 23.5 21.299999237060546875 19.299999237060546875 17.899999618530273438 21.700000762939453125 14.899999618530273438 13.800000190734863281 13.199999809265136719 13.600000381469726562 13.699999809265136719 13.399999618530273438 13.699999809265136719 13.899999618530273438 14.100000381469726562 14.5 14.800000190734863281 14.899999618530273438 15 15.199999809265136719 15.300000190734863281 15.600000381469726562 16 16.5 16.700000762939453125 16.899999618530273438 17.399999618530273438 17.700000762939453125 
28.799999237060546875 29.299999237060546875 29.899999618530273438 30.200000762939453125 30.399999618530273438 30.299999237060546875 30.600000381469726562 30.899999618530273438 30.799999237060546875 30.600000381469726562 30.399999618530273438 29.600000381469726562 28.799999237060546875 27.299999237060546875 26 25.299999237060546875 25 24.600000381469726562 23.700000762939453125 22.700000762939453125 22 21.399999618530273438 20.899999618530273438 20.399999618530273438 19.799999237060546875 19.299999237060546875 19.700000762939453125 19.799999237060546875 19 18.299999237060546875 17.299999237060546875 17.600000381469726562 17.899999618530273438 18.5 18.899999618530273438 19.100000381469726562 19.899999618530273438 22 25.5 26.5 27.399999618530273438 27 27.600000381469726562 28.399999618530273438 28.899999618530273438 29 27.799999237060546875 27.299999237060546875 25.799999237060546875 25.200000762939453125 26.399999618530273438 27.299999237060546875 28.799999237060546875 30.200000762939453125 31.100000381469726562 31.799999237060546875 31.799999237060546875 31 30.600000381469726562 31.5 32.799999237060546875 34.200000762939453125 35.700000762939453125 36.40000152587890625 35.90000152587890625 34.700000762939453125 32.90000152587890625 30.399999618530273438 29.299999237060546875 28.700000762939453125 28.5 28.399999618530273438 28.100000381469726562 27.700000762939453125 28.299999237060546875 28.799999237060546875 29.399999618530273438 29.799999237060546875 29.700000762939453125 30.200000762939453125 30.700000762939453125 31.399999618530273438 32.40000152587890625 32.90000152587890625 34 35 35 35 34.90000152587890625 33.799999237060546875 32.59999847412109375 31.399999618530273438 30.600000381469726562 29.700000762939453125 29.299999237060546875 30.399999618530273438 32.299999237060546875 33.90000152587890625 35 36 37.09999847412109375 38 39.40000152587890625 40.40000152587890625 41.200000762939453125 41.700000762939453125 42.299999237060546875 45.799999237060546875 46.09999847412109375 46.299999237060546875 46.90000152587890625 46.90000152587890625 48 50.40000152587890625 52.5 52.200000762939453125 50.799999237060546875 49.799999237060546875 48.799999237060546875 48 45.90000152587890625 46.299999237060546875 33.59999847412109375 41.59999847412109375 36.799999237060546875 35.09999847412109375 33.59999847412109375 31.700000762939453125 30.600000381469726562 30.100000381469726562 29.799999237060546875 29.399999618530273438 29.200000762939453125 29.600000381469726562 28.799999237060546875 27.200000762939453125 26.399999618530273438 23 23.100000381469726562 21.399999618530273438 20.200000762939453125 19.299999237060546875 18.5 18.299999237060546875 17.399999618530273438 16.100000381469726562 15.199999809265136719 14.399999618530273438 13.800000190734863281 13.300000190734863281 13.399999618530273438 13.5 12.300000190734863281 9.8000001907348632812 12 12.699999809265136719 13.100000381469726562 13 13 13.600000381469726562 13.399999618530273438 12.699999809265136719 12.800000190734863281 14.100000381469726562 15 15.899999618530273438 17.799999237060546875 21 25.100000381469726562 29.100000381469726562 30.200000762939453125 28.600000381469726562 27 24.799999237060546875 22.899999618530273438 20.799999237060546875 18.299999237060546875 17.299999237060546875 21.799999237060546875 15.600000381469726562 14.399999618530273438 13.899999618530273438 13.800000190734863281 13.699999809265136719 13.800000190734863281 14 14.199999809265136719 14.699999809265136719 14.899999618530273438 15 15.100000381469726562 15.199999809265136719 15.5 15.800000190734863281 16.299999237060546875 16.399999618530273438 16.600000381469726562 16.899999618530273438 17.399999618530273438 17.700000762939453125 
29.399999618530273438 30 30.5 30.899999618530273438 31.299999237060546875 31.200000762939453125 31.5 31.700000762939453125 31.799999237060546875 31.600000381469726562 31.200000762939453125 30.5 29.799999237060546875 28.299999237060546875 26.799999237060546875 26.799999237060546875 26.200000762939453125 25.600000381469726562 24.799999237060546875 23.799999237060546875 22.799999237060546875 22.200000762939453125 21.600000381469726562 21.100000381469726562 20.5 19.899999618530273438 20.399999618530273438 21.600000381469726562 21.600000381469726562 20.899999618530273438 19.299999237060546875 18.100000381469726562 18.200000762939453125 18.5 19.100000381469726562 19.100000381469726562 19.5 20.600000381469726562 25.799999237060546875 23.299999237060546875 23.700000762939453125 24.100000381469726562 24.5 25.299999237060546875 26.100000381469726562 25.799999237060546875 25 24.799999237060546875 24 23.799999237060546875 24.799999237060546875 25.799999237060546875 26.700000762939453125 27.299999237060546875 28 28.600000381469726562 29.200000762939453125 26.899999618530273438 29.299999237060546875 30.299999237060546875 31.700000762939453125 33.5 36.299999237060546875 37.299999237060546875 37.200000762939453125 35.90000152587890625 34.200000762939453125 32.59999847412109375 31.299999237060546875 30.399999618530273438 29.799999237060546875 29.5 29.399999618530273438 30 31.200000762939453125 31.799999237060546875 31.700000762939453125 31.899999618530273438 31.5 31.299999237060546875 31.700000762939453125 32.59999847412109375 33.799999237060546875 34.700000762939453125 35.700000762939453125 36.40000152587890625 35.799999237060546875 35.5 35 34.200000762939453125 32.799999237060546875 31.700000762939453125 31.299999237060546875 30.799999237060546875 30.600000381469726562 30.899999618530273438 32.299999237060546875 33.799999237060546875 35.299999237060546875 36.5 37.799999237060546875 39.200000762939453125 40.700000762939453125 41.799999237060546875 42.5 43.59999847412109375 44.59999847412109375 47.09999847412109375 48.200000762939453125 49.200000762939453125 50.5 51.40000152587890625 52.59999847412109375 53.59999847412109375 54.09999847412109375 52.799999237060546875 50.799999237060546875 49.700000762939453125 48.59999847412109375 47.5 47.09999847412109375 37.799999237060546875 41.299999237060546875 39.700000762939453125 36.09999847412109375 34.200000762939453125 32.299999237060546875 30.700000762939453125 30.200000762939453125 29.700000762939453125 29.100000381469726562 29.100000381469726562 28.100000381469726562 28.100000381469726562 27.600000381469726562 26.200000762939453125 24.5 23.299999237060546875 21.299999237060546875 21.200000762939453125 18.700000762939453125 19.200000762939453125 19.899999618530273438 19.600000381469726562 17.799999237060546875 16.100000381469726562 14.899999618530273438 14.5 13.899999618530273438 13.300000190734863281 13.399999618530273438 12.899999618530273438 11.600000381469726562 12.100000381469726562 12.300000190734863281 12.699999809265136719 13.199999809265136719 13.399999618530273438 13 13.399999618530273438 14 13.699999809265136719 14.5 15.100000381469726562 15.5 16.799999237060546875 18.100000381469726562 21.100000381469726562 25.299999237060546875 29.200000762939453125 30.600000381469726562 29.5 28.100000381469726562 26.799999237060546875 24.100000381469726562 22.399999618530273438 19.799999237060546875 18.100000381469726562 17.399999618530273438 22.5 19 14.300000190734863281 14.399999618530273438 14.199999809265136719 14 14.600000381469726562 14.5 14.600000381469726562 14.800000190734863281 15 15.100000381469726562 15.199999809265136719 15.5 16 16.299999237060546875 16.5 16.700000762939453125 16.899999618530273438 17.399999618530273438 17.600000381469726562 
30.100000381469726562 30.799999237060546875 31.299999237060546875 31.700000762939453125 32.40000152587890625 32.90000152587890625 33 32.90000152587890625 32.700000762939453125 32.700000762939453125 32.299999237060546875 31.399999618530273438 30.200000762939453125 28.799999237060546875 28 28.299999237060546875 28 26.899999618530273438 25.799999237060546875 24.799999237060546875 23.799999237060546875 23.100000381469726562 22.600000381469726562 21.799999237060546875 21.100000381469726562 20.600000381469726562 21.799999237060546875 23.299999237060546875 24.299999237060546875 23.600000381469726562 21.799999237060546875 20 19.299999237060546875 19 19.299999237060546875 19.299999237060546875 19.100000381469726562 19.200000762939453125 21.100000381469726562 26 21.200000762939453125 21.600000381469726562 22.299999237060546875 22.700000762939453125 23.299999237060546875 23 23.299999237060546875 23.200000762939453125 23 22.700000762939453125 23.5 24.700000762939453125 25 25 25.299999237060546875 26.600000381469726562 27.100000381469726562 27.100000381469726562 27.799999237060546875 28.700000762939453125 30 32.200000762939453125 34.40000152587890625 36.09999847412109375 37.09999847412109375 36.700000762939453125 35.59999847412109375 34.200000762939453125 33.5 32.5 32.40000152587890625 32.59999847412109375 32.299999237060546875 33.09999847412109375 34 34.59999847412109375 34.700000762939453125 33.90000152587890625 33.09999847412109375 32.5 32.90000152587890625 33.90000152587890625 35 36.299999237060546875 37.5 37.59999847412109375 37 36.200000762939453125 35.59999847412109375 34.5 33.299999237060546875 32.40000152587890625 32.200000762939453125 31.899999618530273438 32 32.200000762939453125 32.799999237060546875 34.200000762939453125 35.799999237060546875 37.299999237060546875 38.59999847412109375 40.200000762939453125 41.59999847412109375 43.09999847412109375 44 45.700000762939453125 48.40000152587890625 52.09999847412109375 54.09999847412109375 55.200000762939453125 56.09999847412109375 57.40000152587890625 57.90000152587890625 57.799999237060546875 56.299999237060546875 52.700000762939453125 50.40000152587890625 49.40000152587890625 48.5 46.799999237060546875 43.90000152587890625 34.299999237060546875 39.59999847412109375 37 35.09999847412109375 33.200000762939453125 31.600000381469726562 31.299999237060546875 30.399999618530273438 29.600000381469726562 28.799999237060546875 27.899999618530273438 26.899999618530273438 26 25.200000762939453125 24.5 23.799999237060546875 22.700000762939453125 21.600000381469726562 21.200000762939453125 20.899999618530273438 22.299999237060546875 20.399999618530273438 20 17.799999237060546875 16.100000381469726562 14.800000190734863281 14.300000190734863281 13.300000190734863281 12.300000190734863281 13.100000381469726562 11 12.399999618530273438 13 13.699999809265136719 14 13.699999809265136719 13.5 13.300000190734863281 13.899999618530273438 14.300000190734863281 14.699999809265136719 15.100000381469726562 15.5 16.299999237060546875 17.600000381469726562 19.600000381469726562 22.200000762939453125 25.399999618530273438 28.299999237060546875 30.200000762939453125 29.799999237060546875 29 27.899999618530273438 25.700000762939453125 24 22 19.799999237060546875 18.299999237060546875 18.600000381469726562 23.799999237060546875 23.600000381469726562 16.399999618530273438 14.600000381469726562 14.399999618530273438 14.899999618530273438 14.800000190734863281 15 14.899999618530273438 15.100000381469726562 15.100000381469726562 15.300000190734863281 15.600000381469726562 15.800000190734863281 16.299999237060546875 16.799999237060546875 16.899999618530273438 17.100000381469726562 17.5 18 
30.799999237060546875 31.5 32.200000762939453125 32.799999237060546875 33.40000152587890625 34 34.59999847412109375 35.59999847412109375 35 33.5 33.09999847412109375 31.299999237060546875 30.399999618530273438 29.299999237060546875 29.600000381469726562 29.799999237060546875 29.399999618530273438 28.200000762939453125 27 25.700000762939453125 24.5 23.5 23.600000381469726562 23.299999237060546875 22.600000381469726562 22.299999237060546875 22.899999618530273438 25.700000762939453125 26.799999237060546875 26.399999618530273438 24.600000381469726562 22.899999618530273438 21.399999618530273438 20.799999237060546875 21 19.700000762939453125 18.700000762939453125 19.200000762939453125 20.399999618530273438 24.5 20.600000381469726562 20.399999618530273438 20.700000762939453125 21.5 21.700000762939453125 21.899999618530273438 22.299999237060546875 22.399999618530273438 22.399999618530273438 22.5 22.899999618530273438 23.700000762939453125 23.899999618530273438 24 23.700000762939453125 27.100000381469726562 25.5 25.700000762939453125 27.200000762939453125 28.100000381469726562 28.700000762939453125 30 32.200000762939453125 33.700000762939453125 35.09999847412109375 36.200000762939453125 36.299999237060546875 36.5 35.700000762939453125 35 35 35.200000762939453125 35.5 36.200000762939453125 36.799999237060546875 37.299999237060546875 37.09999847412109375 36.200000762939453125 35.5 34.799999237060546875 34.799999237060546875 35.90000152587890625 36.90000152587890625 37.90000152587890625 38.700000762939453125 38.700000762939453125 38.09999847412109375 37.09999847412109375 36 35 34.09999847412109375 33.5 33.5 33.200000762939453125 33.09999847412109375 33.799999237060546875 34.299999237060546875 35 36.59999847412109375 38 39.5 40.90000152587890625 42.5 44.299999237060546875 46.5 49.700000762939453125 54.200000762939453125 57.90000152587890625 60.299999237060546875 61.299999237060546875 63.799999237060546875 63.40000152587890625 64 60.90000152587890625 56.799999237060546875 52.59999847412109375 50 49 48.200000762939453125 46 36.5 40.700000762939453125 38 36.09999847412109375 33.90000152587890625 32.200000762939453125 31.299999237060546875 30.799999237060546875 29.799999237060546875 29.600000381469726562 29.5 29 26.5 25.100000381469726562 24.200000762939453125 23.700000762939453125 23.5 23.700000762939453125 23.799999237060546875 24.100000381469726562 23.600000381469726562 23.100000381469726562 22.299999237060546875 19.799999237060546875 18.299999237060546875 16.200000762939453125 14.800000190734863281 14.100000381469726562 11.199999809265136719 12 13.800000190734863281 13 13.300000190734863281 14.100000381469726562 14.300000190734863281 14.199999809265136719 14.100000381469726562 13.699999809265136719 13.899999618530273438 14.5 14.5 15 15.399999618530273438 16 17 19 21.5 24.100000381469726562 26.299999237060546875 28.5 30.299999237060546875 29.799999237060546875 29.299999237060546875 28.600000381469726562 26.799999237060546875 24.799999237060546875 23.100000381469726562 21.200000762939453125 19.899999618530273438 18.899999618530273438 23.799999237060546875 18.100000381469726562 19.200000762939453125 21.399999618530273438 17.399999618530273438 15.600000381469726562 15.800000190734863281 15.699999809265136719 15.600000381469726562 15.600000381469726562 15.199999809265136719 15.199999809265136719 15.5 16 16.600000381469726562 17 17.100000381469726562 17.299999237060546875 17.899999618530273438 18.399999618530273438 
31.5 32.200000762939453125 32.90000152587890625 33.40000152587890625 34 34.700000762939453125 35.5 36.40000152587890625 36.700000762939453125 35 32.59999847412109375 31.299999237060546875 30.700000762939453125 30.5 31.100000381469726562 31.100000381469726562 30.700000762939453125 29.600000381469726562 28.399999618530273438 26.799999237060546875 25.100000381469726562 24.5 25.5 25 23.799999237060546875 23.200000762939453125 24.100000381469726562 27 29.399999618530273438 29.299999237060546875 28.399999618530273438 26.100000381469726562 24 22.799999237060546875 22.399999618530273438 21.600000381469726562 20.799999237060546875 20.5 20.299999237060546875 20.200000762939453125 20.799999237060546875 20.799999237060546875 21.399999618530273438 21.399999618530273438 21.700000762939453125 22 22.200000762939453125 22.399999618530273438 22.600000381469726562 22.799999237060546875 23.100000381469726562 23.600000381469726562 23.899999618530273438 25 26.399999618530273438 24.799999237060546875 24.600000381469726562 25.799999237060546875 26.899999618530273438 27.5 27.5 28.799999237060546875 30.200000762939453125 31.299999237060546875 32.90000152587890625 34.299999237060546875 36.299999237060546875 37.299999237060546875 37.5 37.40000152587890625 37.09999847412109375 37.5 38.299999237060546875 39 39.5 40 39.700000762939453125 38.59999847412109375 37.700000762939453125 37 37 37.700000762939453125 38.700000762939453125 39.59999847412109375 40 39.799999237060546875 39.299999237060546875 37.90000152587890625 36.700000762939453125 35.90000152587890625 35 35 34.799999237060546875 34.799999237060546875 34.90000152587890625 36.799999237060546875 36.59999847412109375 36.700000762939453125 37.299999237060546875 38.90000152587890625 40.799999237060546875 42.799999237060546875 44.5 46.90000152587890625 50.90000152587890625 55.59999847412109375 59.700000762939453125 63.90000152587890625 67.3000030517578125 70.09999847412109375 72.1999969482421875 72.3000030517578125 68.3000030517578125 61.700000762939453125 56.59999847412109375 51.40000152587890625 49.59999847412109375 49 48.299999237060546875 39.700000762939453125 38.09999847412109375 39.200000762939453125 37.59999847412109375 35.5 33.299999237060546875 31.899999618530273438 31 30.299999237060546875 29.799999237060546875 29.399999618530273438 29.700000762939453125 28.700000762939453125 26.700000762939453125 25.700000762939453125 25.100000381469726562 24.399999618530273438 24 25.299999237060546875 26 25.299999237060546875 24.700000762939453125 23.600000381469726562 22.600000381469726562 21.700000762939453125 19.299999237060546875 16.5 14.600000381469726562 13.699999809265136719 13.100000381469726562 13.5 14 13.399999618530273438 14.199999809265136719 14.600000381469726562 14.600000381469726562 14.300000190734863281 14.199999809265136719 13.800000190734863281 14.300000190734863281 14.300000190734863281 14.699999809265136719 15.199999809265136719 15.699999809265136719 16.399999618530273438 17.700000762939453125 20.5 23.200000762939453125 25.600000381469726562 27.5 29 30.299999237060546875 30.5 29.799999237060546875 29 27.299999237060546875 25.5 24 22.600000381469726562 21.5 20.399999618530273438 19.5 23.799999237060546875 18.100000381469726562 21.799999237060546875 25 24.299999237060546875 20.899999618530273438 20.899999618530273438 19.399999618530273438 17.600000381469726562 16.399999618530273438 16.100000381469726562 16 16.399999618530273438 16.399999618530273438 17.5 17.5 17.5 18.399999618530273438 18.700000762939453125 
32.09999847412109375 32.799999237060546875 33.5 33.799999237060546875 34.200000762939453125 34.59999847412109375 35.299999237060546875 36.40000152587890625 36.59999847412109375 35.299999237060546875 32.90000152587890625 31.899999618530273438 31.5 31.700000762939453125 32.40000152587890625 32.5 32.700000762939453125 31.100000381469726562 29.5 27.899999618530273438 26.299999237060546875 26.899999618530273438 28.200000762939453125 27.5 25.5 24 25.200000762939453125 28 30.299999237060546875 30.5 30.100000381469726562 29 26.799999237060546875 25.200000762939453125 24 23.399999618530273438 22.799999237060546875 22.299999237060546875 21.700000762939453125 21.200000762939453125 21.200000762939453125 21.5 21.399999618530273438 21.399999618530273438 21.799999237060546875 22.299999237060546875 22.600000381469726562 22.700000762939453125 22.899999618530273438 23 23.200000762939453125 23.700000762939453125 24.399999618530273438 27.700000762939453125 26.299999237060546875 25.700000762939453125 25.600000381469726562 26 26.700000762939453125 27.200000762939453125 27.600000381469726562 27.899999618530273438 28.5 29.200000762939453125 30.299999237060546875 32.700000762939453125 35.200000762939453125 37.5 38.200000762939453125 38.59999847412109375 38.799999237060546875 39.09999847412109375 40 40.90000152587890625 41.700000762939453125 42 41.5 40.40000152587890625 39.40000152587890625 39.09999847412109375 39.200000762939453125 39.59999847412109375 40.40000152587890625 41 41 40.40000152587890625 39.90000152587890625 38.40000152587890625 37.200000762939453125 36.59999847412109375 36.299999237060546875 37.200000762939453125 36.700000762939453125 36.5 36.90000152587890625 38.200000762939453125 38.700000762939453125 39 38.90000152587890625 40.200000762939453125 41.59999847412109375 44.40000152587890625 47 50.59999847412109375 56 60 65.59999847412109375 71.59999847412109375 76.09999847412109375 76.8000030517578125 78.1999969482421875 80.5 69.5 60.299999237060546875 54.299999237060546875 50.59999847412109375 49.40000152587890625 49.40000152587890625 45.700000762939453125 35.40000152587890625 40.5 38.59999847412109375 36.799999237060546875 34.200000762939453125 33 31.799999237060546875 30.799999237060546875 29.899999618530273438 29.899999618530273438 29.700000762939453125 29.299999237060546875 28.100000381469726562 27.600000381469726562 26.600000381469726562 25.799999237060546875 25.5 25.700000762939453125 26.600000381469726562 26.899999618530273438 26.299999237060546875 26.200000762939453125 24.600000381469726562 24 23 20.700000762939453125 17.799999237060546875 14.399999618530273438 13.300000190734863281 13.600000381469726562 14.100000381469726562 14 13.399999618530273438 14.300000190734863281 14.699999809265136719 14.600000381469726562 14.399999618530273438 14.300000190734863281 14.100000381469726562 14.399999618530273438 14.699999809265136719 15.100000381469726562 15.600000381469726562 16.100000381469726562 16.700000762939453125 18.200000762939453125 20.200000762939453125 23 25.100000381469726562 27.5 29.100000381469726562 30.600000381469726562 30.700000762939453125 30.399999618530273438 29.5 28 26.600000381469726562 25.299999237060546875 24 22.600000381469726562 21.200000762939453125 19.700000762939453125 21.5 23.399999618530273438 18.299999237060546875 24.399999618530273438 25.100000381469726562 25.600000381469726562 25.5 25.600000381469726562 21.5 21.399999618530273438 18.700000762939453125 20.100000381469726562 22.5 22.5 21.399999618530273438 19.799999237060546875 18.899999618530273438 19.700000762939453125 19.799999237060546875 
32.700000762939453125 33.40000152587890625 33.59999847412109375 33.59999847412109375 34.09999847412109375 34.59999847412109375 35 34.5 34.90000152587890625 34.700000762939453125 33.59999847412109375 32.799999237060546875 32.799999237060546875 33 34 33.90000152587890625 33 32.299999237060546875 30.700000762939453125 29.100000381469726562 27.600000381469726562 29.100000381469726562 30.200000762939453125 29.100000381469726562 27 24.700000762939453125 25.700000762939453125 28.899999618530273438 31.299999237060546875 32.90000152587890625 32.799999237060546875 31.299999237060546875 29.399999618530273438 27.600000381469726562 26.299999237060546875 25.5 24.899999618530273438 24.399999618530273438 24.100000381469726562 22.700000762939453125 22.100000381469726562 21.799999237060546875 21.600000381469726562 21.5 22 22.399999618530273438 22.799999237060546875 23.100000381469726562 23.100000381469726562 23.200000762939453125 23.399999618530273438 23.899999618530273438 25.399999618530273438 25.200000762939453125 25.200000762939453125 26.299999237060546875 26 26.299999237060546875 26.600000381469726562 26.700000762939453125 27.200000762939453125 27.700000762939453125 28.299999237060546875 29 30.100000381469726562 31.899999618530273438 34.299999237060546875 36.799999237060546875 38.799999237060546875 40 40.09999847412109375 40.90000152587890625 41.700000762939453125 42.700000762939453125 43.200000762939453125 43.40000152587890625 43 42.09999847412109375 41.5 41.299999237060546875 40.90000152587890625 41.40000152587890625 41.700000762939453125 42.40000152587890625 42 41.09999847412109375 40.299999237060546875 38.90000152587890625 38.09999847412109375 37.5 37.5 38.90000152587890625 39.5 40.59999847412109375 41.5 40.5 41.09999847412109375 41.700000762939453125 42.5 43.40000152587890625 43.90000152587890625 45.799999237060546875 49.09999847412109375 55.700000762939453125 58.299999237060546875 61.90000152587890625 70.1999969482421875 77.3000030517578125 81.59999847412109375 83.6999969482421875 85.3000030517578125 75.90000152587890625 66.5 57.700000762939453125 52.40000152587890625 49.90000152587890625 49.5 48.09999847412109375 42.700000762939453125 40.799999237060546875 39.799999237060546875 38 36 34.299999237060546875 33.09999847412109375 32.200000762939453125 31.299999237060546875 30.399999618530273438 30.5 30 30 29.700000762939453125 28.799999237060546875 27.700000762939453125 26.700000762939453125 26.399999618530273438 28.100000381469726562 29.100000381469726562 29.700000762939453125 29 27.600000381469726562 27.5 25.700000762939453125 23.700000762939453125 21.899999618530273438 16.600000381469726562 10.399999618530273438 13.800000190734863281 13.899999618530273438 14.300000190734863281 14.100000381469726562 13.600000381469726562 14.5 14.800000190734863281 14.699999809265136719 14.699999809265136719 14.600000381469726562 14.5 14.699999809265136719 15.100000381469726562 15.600000381469726562 16.100000381469726562 16.5 16.899999618530273438 18.200000762939453125 19.600000381469726562 21.5 23.899999618530273438 26.5 28.899999618530273438 30.899999618530273438 31 30.799999237060546875 29.899999618530273438 28.399999618530273438 26.799999237060546875 25.700000762939453125 24.399999618530273438 22.899999618530273438 21.700000762939453125 20.200000762939453125 19.299999237060546875 22.399999618530273438 24.299999237060546875 25.200000762939453125 25.700000762939453125 25.600000381469726562 25.600000381469726562 25 17.799999237060546875 17.299999237060546875 17.399999618530273438 17.5 17.700000762939453125 17.799999237060546875 18.600000381469726562 20 19.899999618530273438 20.200000762939453125 22.200000762939453125 
33.200000762939453125 33.5 33.59999847412109375 33.799999237060546875 34.09999847412109375 34.5 34.700000762939453125 34.700000762939453125 35 34.90000152587890625 34.299999237060546875 34.09999847412109375 34.299999237060546875 35 35.40000152587890625 35.59999847412109375 34.5 32.700000762939453125 30.700000762939453125 29.399999618530273438 28.799999237060546875 30.5 31 30.399999618530273438 28.299999237060546875 25.600000381469726562 25.799999237060546875 28.799999237060546875 31.600000381469726562 34 35.09999847412109375 33.59999847412109375 31.799999237060546875 30.100000381469726562 28.700000762939453125 27.899999618530273438 27.299999237060546875 26.5 25.100000381469726562 23.299999237060546875 22.100000381469726562 22.100000381469726562 22 22.100000381469726562 22.5 22.899999618530273438 23.200000762939453125 23.399999618530273438 23.399999618530273438 23.399999618530273438 23.600000381469726562 24.399999618530273438 25.399999618530273438 25.299999237060546875 25.399999618530273438 26.799999237060546875 26.299999237060546875 26.5 26.700000762939453125 26.899999618530273438 27.100000381469726562 27.600000381469726562 28.200000762939453125 28.899999618530273438 30 31.399999618530273438 33.700000762939453125 36.200000762939453125 39.200000762939453125 40.799999237060546875 41.59999847412109375 42.299999237060546875 43 44 44.40000152587890625 44.5 44.09999847412109375 43.40000152587890625 43.40000152587890625 43.200000762939453125 42.700000762939453125 43.09999847412109375 43.5 43.59999847412109375 42.90000152587890625 42 40.700000762939453125 39.799999237060546875 39 38.59999847412109375 38.700000762939453125 41.5 44.40000152587890625 46.700000762939453125 46.90000152587890625 45.90000152587890625 44.700000762939453125 45.700000762939453125 46.59999847412109375 46.59999847412109375 46.59999847412109375 47.5 52.799999237060546875 54 57.799999237060546875 63.90000152587890625 71.40000152587890625 78.40000152587890625 90.09999847412109375 87.09999847412109375 79.1999969482421875 73.8000030517578125 63.09999847412109375 55.799999237060546875 51.700000762939453125 49.5 48.799999237060546875 43.200000762939453125 36.59999847412109375 40.40000152587890625 39.299999237060546875 37.90000152587890625 36.40000152587890625 35 33.700000762939453125 32.799999237060546875 31.899999618530273438 31.100000381469726562 31.100000381469726562 30.100000381469726562 30.200000762939453125 30.399999618530273438 29.700000762939453125 28.899999618530273438 28.399999618530273438 29.399999618530273438 31.100000381469726562 32.200000762939453125 32.700000762939453125 30.799999237060546875 29.399999618530273438 27.700000762939453125 25.299999237060546875 22.200000762939453125 19.399999618530273438 10.899999618530273438 13.699999809265136719 14.199999809265136719 14.300000190734863281 14.199999809265136719 14.399999618530273438 14.600000381469726562 14.800000190734863281 14.699999809265136719 14.399999618530273438 14.800000190734863281 14.699999809265136719 14.600000381469726562 14.899999618530273438 15.199999809265136719 15.5 15.899999618530273438 16.299999237060546875 17 18.200000762939453125 19.399999618530273438 21.399999618530273438 23.5 25.700000762939453125 28.899999618530273438 30.899999618530273438 31.5 31.299999237060546875 30.399999618530273438 29.200000762939453125 27.600000381469726562 26.5 24.700000762939453125 23.200000762939453125 21.899999618530273438 20.700000762939453125 19.600000381469726562 19.5 24.399999618530273438 25.399999618530273438 25.600000381469726562 25.600000381469726562 25.600000381469726562 18.399999618530273438 18.100000381469726562 17.600000381469726562 17.799999237060546875 18.299999237060546875 18.700000762939453125 19.100000381469726562 19.899999618530273438 20.5 20.299999237060546875 20.5 21.299999237060546875 
33.200000762939453125 33.59999847412109375 33.90000152587890625 34.299999237060546875 34.59999847412109375 35 35.299999237060546875 35.200000762939453125 35.90000152587890625 36.299999237060546875 36.59999847412109375 36.09999847412109375 36.799999237060546875 37.200000762939453125 36.799999237060546875 36.299999237060546875 35.5 33.59999847412109375 31.799999237060546875 30.200000762939453125 30 31.200000762939453125 32 31.5 29.700000762939453125 26.899999618530273438 26.700000762939453125 28.399999618530273438 31.299999237060546875 34.299999237060546875 35.90000152587890625 35.59999847412109375 34.700000762939453125 33.299999237060546875 31.899999618530273438 31 29.899999618530273438 28 26.200000762939453125 24.100000381469726562 22.399999618530273438 22.399999618530273438 22.899999618530273438 23.399999618530273438 23.600000381469726562 23.299999237060546875 23.600000381469726562 23.700000762939453125 23.600000381469726562 23.700000762939453125 23.899999618530273438 23.899999618530273438 24.700000762939453125 28.200000762939453125 25.399999618530273438 28.5 26.299999237060546875 26.600000381469726562 26.799999237060546875 27.100000381469726562 27.200000762939453125 27.399999618530273438 28.100000381469726562 28.799999237060546875 29.899999618530273438 31.5 33.299999237060546875 35.90000152587890625 38.700000762939453125 41.299999237060546875 42.299999237060546875 43.5 44.40000152587890625 45.09999847412109375 45.59999847412109375 45.799999237060546875 45.200000762939453125 44.799999237060546875 44.59999847412109375 44.799999237060546875 44.40000152587890625 44.90000152587890625 45.200000762939453125 44.700000762939453125 44 43 42 41.5 41.200000762939453125 41.5 42.09999847412109375 44.799999237060546875 48.299999237060546875 51.200000762939453125 52.299999237060546875 51 49.59999847412109375 49.200000762939453125 49.200000762939453125 49.299999237060546875 49.5 50.700000762939453125 51.200000762939453125 53.59999847412109375 57.299999237060546875 62.700000762939453125 69.90000152587890625 78 84.8000030517578125 81.09999847412109375 73.5 65.3000030517578125 58.90000152587890625 53.90000152587890625 50.5 47.90000152587890625 46 42.5 42.5 40.200000762939453125 38.90000152587890625 37.90000152587890625 36.90000152587890625 35.799999237060546875 34.299999237060546875 33.299999237060546875 32.40000152587890625 31.799999237060546875 31.700000762939453125 30.899999618530273438 30.700000762939453125 31.100000381469726562 31.100000381469726562 30.899999618530273438 31 33.90000152587890625 36 37 35.40000152587890625 32.59999847412109375 29.399999618530273438 26.799999237060546875 23.899999618530273438 20.899999618530273438 15.5 14.100000381469726562 14.399999618530273438 14.800000190734863281 14.600000381469726562 14.100000381469726562 14.300000190734863281 14.699999809265136719 14.899999618530273438 14.899999618530273438 14.800000190734863281 14.800000190734863281 14.899999618530273438 14.699999809265136719 15 15.300000190734863281 15.699999809265136719 16.100000381469726562 16.600000381469726562 17.200000762939453125 18.299999237060546875 19.799999237060546875 21.700000762939453125 24 27.100000381469726562 30.100000381469726562 31.5 32.59999847412109375 31.700000762939453125 30.5 29.5 28.399999618530273438 26.700000762939453125 25 23.700000762939453125 22.5 21.299999237060546875 20.200000762939453125 20.100000381469726562 21.5 25 25.600000381469726562 25.600000381469726562 19.899999618530273438 18.700000762939453125 18.5 18.5 18.899999618530273438 19.600000381469726562 20.5 21 21.600000381469726562 21.700000762939453125 21.700000762939453125 21.899999618530273438 22.100000381469726562 
33 33.40000152587890625 34.09999847412109375 34.799999237060546875 35.200000762939453125 35.700000762939453125 36.40000152587890625 37.09999847412109375 38 38.90000152587890625 39.5 39 38.799999237060546875 39.700000762939453125 38.799999237060546875 37.299999237060546875 36.5 34.5 33.09999847412109375 31.5 31.799999237060546875 33.40000152587890625 33.90000152587890625 32.40000152587890625 30.600000381469726562 28.200000762939453125 28.100000381469726562 28.799999237060546875 30.700000762939453125 33.799999237060546875 36.40000152587890625 37.59999847412109375 37.59999847412109375 36.799999237060546875 35.299999237060546875 34.299999237060546875 32.40000152587890625 29.700000762939453125 26.799999237060546875 24.100000381469726562 23 22.799999237060546875 22.899999618530273438 24.5 23.600000381469726562 24 23.899999618530273438 24 23.899999618530273438 24.100000381469726562 24.200000762939453125 24.200000762939453125 24.600000381469726562 25.299999237060546875 27.299999237060546875 26.299999237060546875 26.600000381469726562 26.799999237060546875 27 27.200000762939453125 27.600000381469726562 27.299999237060546875 27.899999618530273438 29 30.200000762939453125 31.700000762939453125 33.59999847412109375 35.700000762939453125 38.40000152587890625 40.200000762939453125 41.700000762939453125 43.40000152587890625 44.59999847412109375 46.09999847412109375 46.299999237060546875 46.5 46.09999847412109375 46 46.09999847412109375 45.90000152587890625 45.59999847412109375 46.59999847412109375 46.700000762939453125 45.799999237060546875 45.299999237060546875 44.299999237060546875 43.90000152587890625 43.59999847412109375 43.799999237060546875 44.799999237060546875 46.90000152587890625 50.09999847412109375 55.200000762939453125 54.40000152587890625 55.40000152587890625 53.90000152587890625 52.700000762939453125 52.09999847412109375 52 52.09999847412109375 52.5 53.5 54.40000152587890625 54.700000762939453125 56.799999237060546875 60.59999847412109375 66.6999969482421875 72.59999847412109375 75.1999969482421875 73 67.6999969482421875 60.90000152587890625 55.5 51.700000762939453125 48.5 46.59999847412109375 43.90000152587890625 37.799999237060546875 42.59999847412109375 40.40000152587890625 38.59999847412109375 37.799999237060546875 37.09999847412109375 36.09999847412109375 34.700000762939453125 33.799999237060546875 32.90000152587890625 32.799999237060546875 32.799999237060546875 33.700000762939453125 34.59999847412109375 33.799999237060546875 33.299999237060546875 33.90000152587890625 36.700000762939453125 38.5 42 42.299999237060546875 38.5 34.200000762939453125 29.100000381469726562 25.799999237060546875 22.899999618530273438 19.5 15.300000190734863281 13.800000190734863281 16.899999618530273438 14.699999809265136719 14.300000190734863281 14.800000190734863281 14.899999618530273438 15 15.100000381469726562 15.199999809265136719 15.199999809265136719 15.100000381469726562 14.800000190734863281 14.800000190734863281 15.100000381469726562 15.5 15.899999618530273438 16.399999618530273438 17 17.600000381469726562 19 20.600000381469726562 22.5 26.100000381469726562 29.200000762939453125 31.600000381469726562 33.200000762939453125 33.200000762939453125 32 30.600000381469726562 29.600000381469726562 28.799999237060546875 27.100000381469726562 25.600000381469726562 24.299999237060546875 23.399999618530273438 22.200000762939453125 21.200000762939453125 21.100000381469726562 21.600000381469726562 24.399999618530273438 25.600000381469726562 25.600000381469726562 20.299999237060546875 19.200000762939453125 19 19.600000381469726562 20.700000762939453125 21.5 22.299999237060546875 22.600000381469726562 22.700000762939453125 22.799999237060546875 22.600000381469726562 22.899999618530273438 23.200000762939453125 
32.90000152587890625 33.200000762939453125 34.200000762939453125 35.5 36.299999237060546875 37.09999847412109375 37.90000152587890625 38.90000152587890625 40.40000152587890625 41.59999847412109375 41.40000152587890625 41.09999847412109375 40.90000152587890625 41.299999237060546875 40.299999237060546875 38.90000152587890625 37.59999847412109375 35.200000762939453125 34 32.90000152587890625 33.90000152587890625 35.09999847412109375 35.09999847412109375 33.5 31.5 29.799999237060546875 30 30.100000381469726562 32.299999237060546875 33.5 36.5 39.09999847412109375 39.90000152587890625 39.700000762939453125 38.799999237060546875 37.40000152587890625 34.5 30.600000381469726562 27 24.299999237060546875 23.5 23.5 23.700000762939453125 25 26.600000381469726562 25 24.600000381469726562 24.299999237060546875 24.200000762939453125 24.399999618530273438 24.5 24.700000762939453125 25 25.5 25.899999618530273438 26.399999618530273438 26.799999237060546875 27.100000381469726562 27.600000381469726562 27.799999237060546875 28.200000762939453125 28 28.100000381469726562 29.200000762939453125 30.799999237060546875 32.700000762939453125 34.40000152587890625 36.299999237060546875 38.09999847412109375 39.59999847412109375 40.59999847412109375 41.90000152587890625 43.299999237060546875 45.299999237060546875 46.299999237060546875 46.59999847412109375 46.40000152587890625 46.5 46.200000762939453125 46.40000152587890625 46.799999237060546875 47.799999237060546875 47.799999237060546875 47.200000762939453125 46.799999237060546875 46.59999847412109375 47.09999847412109375 47.5 48.299999237060546875 49.90000152587890625 52.200000762939453125 57.40000152587890625 59.59999847412109375 58.200000762939453125 57.5 56.40000152587890625 55.5 55 55 55.299999237060546875 56.299999237060546875 57.40000152587890625 58.700000762939453125 60.5 60.799999237060546875 62.59999847412109375 66.8000030517578125 69.09999847412109375 69.3000030517578125 66.8000030517578125 62.40000152587890625 56 52.59999847412109375 49 46.90000152587890625 44.90000152587890625 44 44.59999847412109375 42.09999847412109375 40.59999847412109375 38.799999237060546875 37.90000152587890625 37 36.09999847412109375 35.700000762939453125 34.5 34 34.200000762939453125 35.200000762939453125 36 37.200000762939453125 36.90000152587890625 36.799999237060546875 37.40000152587890625 40 43.09999847412109375 47.90000152587890625 46.200000762939453125 40.200000762939453125 34.799999237060546875 29.200000762939453125 25.700000762939453125 21.799999237060546875 19.299999237060546875 15.800000190734863281 13.600000381469726562 18.200000762939453125 14.800000190734863281 14.399999618530273438 14.800000190734863281 15.199999809265136719 15.300000190734863281 15.5 15.600000381469726562 15.5 15.199999809265136719 14.899999618530273438 14.899999618530273438 15.199999809265136719 15.600000381469726562 16.100000381469726562 16.799999237060546875 17.399999618530273438 18.100000381469726562 19.5 21.200000762939453125 23.799999237060546875 27.700000762939453125 31.5 33.200000762939453125 34 33.40000152587890625 32.90000152587890625 31.600000381469726562 30.299999237060546875 29.200000762939453125 27.600000381469726562 26.200000762939453125 25.100000381469726562 24.200000762939453125 23.399999618530273438 22.299999237060546875 22 22.299999237060546875 22.799999237060546875 25.600000381469726562 25.600000381469726562 21.100000381469726562 19.5 19.700000762939453125 21 22.399999618530273438 23.299999237060546875 23.799999237060546875 23.700000762939453125 23.700000762939453125 23.600000381469726562 23.5 23.899999618530273438 24.299999237060546875 
33.40000152587890625 33.700000762939453125 34.799999237060546875 36.299999237060546875 37.700000762939453125 38.700000762939453125 39.700000762939453125 41.09999847412109375 42.59999847412109375 43.5 43.40000152587890625 43 42.90000152587890625 42.200000762939453125 40.90000152587890625 39.5 38 35.90000152587890625 34.40000152587890625 33.5 34.700000762939453125 36.299999237060546875 36.59999847412109375 34.90000152587890625 33.09999847412109375 31.600000381469726562 32 32.299999237060546875 31.700000762939453125 34.200000762939453125 36.59999847412109375 39.799999237060546875 41.700000762939453125 41.90000152587890625 41.200000762939453125 39 35.299999237060546875 30.100000381469726562 26.899999618530273438 24.399999618530273438 23.899999618530273438 24.100000381469726562 24.600000381469726562 25.600000381469726562 27.100000381469726562 28.899999618530273438 27.600000381469726562 24.600000381469726562 24.5 24.700000762939453125 24.799999237060546875 25 25.299999237060546875 25.700000762939453125 26.100000381469726562 26.600000381469726562 27 27.399999618530273438 27.799999237060546875 28.200000762939453125 28.5 28.899999618530273438 29.299999237060546875 30 31.899999618530273438 33.799999237060546875 35.5 36.59999847412109375 37.90000152587890625 38.40000152587890625 39.09999847412109375 40.40000152587890625 41.5 43.09999847412109375 44.59999847412109375 45.5 45.90000152587890625 46.299999237060546875 47 47.5 47.799999237060546875 48.700000762939453125 48.700000762939453125 48.799999237060546875 48.799999237060546875 49.40000152587890625 51.59999847412109375 52.40000152587890625 55.09999847412109375 57.40000152587890625 60.5 64.1999969482421875 63 60.799999237060546875 59.40000152587890625 58 58.09999847412109375 57.90000152587890625 57.700000762939453125 59.5 62.90000152587890625 63.799999237060546875 64.8000030517578125 66.59999847412109375 67.40000152587890625 68.6999969482421875 69.6999969482421875 69.3000030517578125 67.40000152587890625 63.5 58.799999237060546875 54 50 47.09999847412109375 45.5 44 39.299999237060546875 44 41.09999847412109375 39.90000152587890625 38.799999237060546875 38.09999847412109375 37.299999237060546875 36.59999847412109375 36.5 36.59999847412109375 36.799999237060546875 37.299999237060546875 39.5 40.299999237060546875 40.299999237060546875 40.40000152587890625 41.299999237060546875 42.700000762939453125 45.700000762939453125 48.90000152587890625 50.799999237060546875 45.59999847412109375 39.200000762939453125 34.40000152587890625 29.600000381469726562 25.700000762939453125 22.100000381469726562 19.200000762939453125 15.699999809265136719 13.800000190734863281 20.5 15.100000381469726562 14.699999809265136719 15.199999809265136719 15.300000190734863281 15.399999618530273438 15.699999809265136719 15.600000381469726562 15.600000381469726562 15.300000190734863281 15 15.100000381469726562 15.399999618530273438 15.800000190734863281 16.399999618530273438 16.899999618530273438 17.600000381469726562 18.5 19.799999237060546875 22.299999237060546875 26 30.299999237060546875 33.200000762939453125 34.799999237060546875 34.5 34 33.59999847412109375 32.799999237060546875 31.600000381469726562 30.299999237060546875 28.700000762939453125 27 26 25.100000381469726562 24.299999237060546875 23.399999618530273438 22.899999618530273438 23.100000381469726562 23.399999618530273438 24.100000381469726562 25.600000381469726562 22 19.899999618530273438 20.799999237060546875 22.299999237060546875 23.799999237060546875 24.799999237060546875 25.100000381469726562 24.899999618530273438 24.700000762939453125 24.5 24.600000381469726562 25 26 
34.5 34.90000152587890625 36.200000762939453125 37.799999237060546875 39.5 40.90000152587890625 41.90000152587890625 43.200000762939453125 44.299999237060546875 44.5 45 45 44.299999237060546875 43.09999847412109375 42 40.09999847412109375 38.299999237060546875 36.40000152587890625 35.09999847412109375 34.59999847412109375 35.700000762939453125 37.59999847412109375 38.09999847412109375 35.799999237060546875 34.799999237060546875 33.700000762939453125 35.09999847412109375 35.200000762939453125 33.299999237060546875 33.09999847412109375 36.40000152587890625 40.299999237060546875 42.5 42.799999237060546875 41.5 39 34.200000762939453125 29.399999618530273438 26.299999237060546875 25.200000762939453125 24.200000762939453125 25 25.700000762939453125 26.399999618530273438 28.299999237060546875 31 27.899999618530273438 26.5 25.399999618530273438 25 25 25.200000762939453125 25.600000381469726562 26.100000381469726562 26.5 27 27.200000762939453125 27.5 27.899999618530273438 28.5 28.799999237060546875 29 29.700000762939453125 31.100000381469726562 32.799999237060546875 34.5 36.200000762939453125 36.700000762939453125 37.40000152587890625 37.90000152587890625 38.200000762939453125 39.09999847412109375 40.40000152587890625 41.59999847412109375 42.700000762939453125 43.90000152587890625 44.59999847412109375 45.700000762939453125 47 48.5 50 50.09999847412109375 49.799999237060546875 51.09999847412109375 51.59999847412109375 54.700000762939453125 56.59999847412109375 60.200000762939453125 63 65.1999969482421875 67.09999847412109375 67.40000152587890625 64.8000030517578125 61.700000762939453125 60.40000152587890625 59.5 59.59999847412109375 60 63.09999847412109375 66.1999969482421875 70.3000030517578125 71.59999847412109375 72.3000030517578125 73.40000152587890625 74.59999847412109375 74.90000152587890625 73.8000030517578125 70.1999969482421875 66 61.299999237060546875 56.700000762939453125 52.200000762939453125 48.299999237060546875 45.59999847412109375 44.299999237060546875 44.09999847412109375 44.40000152587890625 41.59999847412109375 40.59999847412109375 39.40000152587890625 38.5 38.200000762939453125 38 37.59999847412109375 37.5 38.40000152587890625 38.700000762939453125 41.200000762939453125 45.40000152587890625 46.40000152587890625 44.799999237060546875 46 47.40000152587890625 48 50.59999847412109375 52.200000762939453125 49.200000762939453125 44.799999237060546875 39.90000152587890625 34.700000762939453125 30.200000762939453125 26.700000762939453125 22.899999618530273438 19.299999237060546875 15.5 13.899999618530273438 20.399999618530273438 15.399999618530273438 14.800000190734863281 15.199999809265136719 15.199999809265136719 15.399999618530273438 16.100000381469726562 15.699999809265136719 15.600000381469726562 15.399999618530273438 15.100000381469726562 15.399999618530273438 15.800000190734863281 16.100000381469726562 16.299999237060546875 17.100000381469726562 17.899999618530273438 18.799999237060546875 20.399999618530273438 23.299999237060546875 28.100000381469726562 32.799999237060546875 34.799999237060546875 35.799999237060546875 35.09999847412109375 34.799999237060546875 34.299999237060546875 33.799999237060546875 32.09999847412109375 30.700000762939453125 29.399999618530273438 28.100000381469726562 27.200000762939453125 26 24.899999618530273438 24.200000762939453125 23.600000381469726562 23.600000381469726562 23.799999237060546875 23.5 25 24.600000381469726562 20.600000381469726562 22.200000762939453125 23.799999237060546875 25.399999618530273438 25.600000381469726562 26 26 25.700000762939453125 25.5 25.700000762939453125 26.299999237060546875 28 
35.5 36.200000762939453125 37.90000152587890625 39.5 41.09999847412109375 42.799999237060546875 43.90000152587890625 44.799999237060546875 45.59999847412109375 45.59999847412109375 46.200000762939453125 46.09999847412109375 45.59999847412109375 44.40000152587890625 42.700000762939453125 40.90000152587890625 38.799999237060546875 37.40000152587890625 36.40000152587890625 35.799999237060546875 37 39.299999237060546875 39.40000152587890625 37.299999237060546875 35.90000152587890625 36.200000762939453125 37.90000152587890625 37.799999237060546875 35.90000152587890625 34.59999847412109375 36.299999237060546875 39.799999237060546875 42.09999847412109375 41.90000152587890625 40.200000762939453125 36.5 32.40000152587890625 28.299999237060546875 25.700000762939453125 25.299999237060546875 25 25.5 26.200000762939453125 27.700000762939453125 30.200000762939453125 36.799999237060546875 30.799999237060546875 28.299999237060546875 26 25.700000762939453125 25.399999618530273438 25.5 25.899999618530273438 26.399999618530273438 26.899999618530273438 27.299999237060546875 27.600000381469726562 27.799999237060546875 28 28.700000762939453125 29.100000381469726562 29.399999618530273438 30.100000381469726562 31.399999618530273438 33.09999847412109375 34.700000762939453125 36.200000762939453125 36.59999847412109375 36.90000152587890625 37.200000762939453125 37.5 38.299999237060546875 39.40000152587890625 40.59999847412109375 41.799999237060546875 42.799999237060546875 43.59999847412109375 45.299999237060546875 47.5 49.40000152587890625 50.700000762939453125 50.90000152587890625 51.200000762939453125 52.90000152587890625 55.09999847412109375 58.799999237060546875 63 69.09999847412109375 69.59999847412109375 70.40000152587890625 71.6999969482421875 69.5 64.5 61.799999237060546875 60.90000152587890625 60.799999237060546875 61.299999237060546875 62.09999847412109375 68.09999847412109375 72.90000152587890625 77.1999969482421875 79.1999969482421875 77.59999847412109375 79.3000030517578125 79.90000152587890625 78.40000152587890625 75.90000152587890625 70.8000030517578125 65.40000152587890625 60 56.59999847412109375 51.59999847412109375 48 46.5 45.299999237060546875 40.90000152587890625 45.5 40.90000152587890625 39.59999847412109375 38.799999237060546875 38.299999237060546875 38 37.700000762939453125 38.299999237060546875 39.700000762939453125 41.09999847412109375 43.299999237060546875 47.299999237060546875 52 51.799999237060546875 50.40000152587890625 51.5 52.90000152587890625 52.299999237060546875 51.200000762939453125 49.90000152587890625 47.200000762939453125 43.09999847412109375 38.799999237060546875 34.59999847412109375 31.299999237060546875 28 24 19.200000762939453125 15.399999618530273438 14 20.5 15.100000381469726562 15.100000381469726562 15.399999618530273438 15.399999618530273438 16 16.399999618530273438 16 15.899999618530273438 15.899999618530273438 16.200000762939453125 16.299999237060546875 16.299999237060546875 16.399999618530273438 16.799999237060546875 17.299999237060546875 18.200000762939453125 19.200000762939453125 20.899999618530273438 25 28.600000381469726562 32.09999847412109375 35.799999237060546875 35.799999237060546875 35.200000762939453125 35.200000762939453125 34.90000152587890625 34.299999237060546875 33.200000762939453125 32 30.899999618530273438 30.100000381469726562 28.399999618530273438 27.100000381469726562 26.200000762939453125 25.200000762939453125 24.600000381469726562 24.200000762939453125 23.799999237060546875 23.399999618530273438 22.200000762939453125 27.399999618530273438 23.299999237060546875 23.299999237060546875 25.200000762939453125 26.200000762939453125 26.399999618530273438 26.600000381469726562 26.700000762939453125 26.799999237060546875 26.600000381469726562 27 27.899999618530273438 29.799999237060546875 
36.5 37.59999847412109375 39.59999847412109375 41.299999237060546875 43.5 44.5 45.200000762939453125 45.799999237060546875 46.09999847412109375 46.40000152587890625 46.700000762939453125 46.90000152587890625 46.200000762939453125 45.09999847412109375 42.90000152587890625 41.200000762939453125 39.59999847412109375 38.700000762939453125 37.90000152587890625 37.5 38.200000762939453125 40.59999847412109375 40.700000762939453125 39.09999847412109375 36.299999237060546875 39 40.200000762939453125 40.700000762939453125 38.799999237060546875 36.90000152587890625 36.700000762939453125 38.59999847412109375 39.799999237060546875 39.700000762939453125 36.299999237060546875 32.40000152587890625 28.899999618530273438 26.600000381469726562 25.600000381469726562 25.5 25.799999237060546875 26.100000381469726562 27.399999618530273438 29.100000381469726562 34.40000152587890625 30.799999237060546875 30.200000762939453125 31.899999618530273438 26.799999237060546875 26.299999237060546875 25.899999618530273438 26 26.299999237060546875 26.799999237060546875 27.299999237060546875 27.600000381469726562 28 28.399999618530273438 28.299999237060546875 28.799999237060546875 29.5 30.100000381469726562 30.700000762939453125 31.700000762939453125 33.299999237060546875 34.799999237060546875 35.799999237060546875 36 36.299999237060546875 36.59999847412109375 36.90000152587890625 37.59999847412109375 38.5 39.59999847412109375 41 41.700000762939453125 43 44.700000762939453125 47.90000152587890625 50 51.200000762939453125 52.200000762939453125 53.799999237060546875 56 58.700000762939453125 63.299999237060546875 69.1999969482421875 71.8000030517578125 73.40000152587890625 75.09999847412109375 74 67.90000152587890625 62.90000152587890625 61.09999847412109375 61 61.799999237060546875 63 66.3000030517578125 72.5 77.8000030517578125 84.59999847412109375 86.3000030517578125 84.40000152587890625 85.90000152587890625 86 82 76.09999847412109375 70.5 64.8000030517578125 59.799999237060546875 55.700000762939453125 51.799999237060546875 49.799999237060546875 49.299999237060546875 46.40000152587890625 43.799999237060546875 43.90000152587890625 41.200000762939453125 39.5 38.09999847412109375 37.700000762939453125 37.59999847412109375 37.799999237060546875 39 42.299999237060546875 45.799999237060546875 49.799999237060546875 54.200000762939453125 56.799999237060546875 56.799999237060546875 56 56.799999237060546875 55.700000762939453125 52.799999237060546875 49.5 46.90000152587890625 44.5 42.09999847412109375 39.09999847412109375 36.09999847412109375 32.700000762939453125 28.899999618530273438 24.799999237060546875 20 16.100000381469726562 14 17.299999237060546875 15.100000381469726562 15.600000381469726562 15.5 15.899999618530273438 16.600000381469726562 16.700000762939453125 16.600000381469726562 16.5 16.399999618530273438 16.5 16.5 16.600000381469726562 16.700000762939453125 17.100000381469726562 17.700000762939453125 18.399999618530273438 19.399999618530273438 21 27.299999237060546875 28.399999618530273438 29.399999618530273438 34.200000762939453125 34.799999237060546875 34.09999847412109375 34.90000152587890625 35.09999847412109375 35.09999847412109375 34.200000762939453125 33.299999237060546875 32.40000152587890625 31.399999618530273438 29.899999618530273438 28.399999618530273438 27.399999618530273438 26.5 25.5 24.700000762939453125 24 23.299999237060546875 22.200000762939453125 21.100000381469726562 28.299999237060546875 25.100000381469726562 26.100000381469726562 26.200000762939453125 26.600000381469726562 27.299999237060546875 27.899999618530273438 28.100000381469726562 28.299999237060546875 28.700000762939453125 29.600000381469726562 31.200000762939453125 
37.5 39.200000762939453125 41.200000762939453125 43.200000762939453125 44.5 45.700000762939453125 46.59999847412109375 47.09999847412109375 47 47.09999847412109375 47.299999237060546875 47.59999847412109375 47.09999847412109375 45.799999237060546875 44.09999847412109375 42.799999237060546875 42.09999847412109375 41.09999847412109375 40.299999237060546875 39.40000152587890625 39.299999237060546875 41.40000152587890625 41.799999237060546875 40.700000762939453125 39.5 41.40000152587890625 42.90000152587890625 43.59999847412109375 41.799999237060546875 39.90000152587890625 38.299999237060546875 38.200000762939453125 37.299999237060546875 36.299999237060546875 32.700000762939453125 29.899999618530273438 27.200000762939453125 26.299999237060546875 26.100000381469726562 28.799999237060546875 27.200000762939453125 28.200000762939453125 29.100000381469726562 31.299999237060546875 35.299999237060546875 31 29.799999237060546875 29.600000381469726562 29.899999618530273438 27.100000381469726562 26.399999618530273438 26.600000381469726562 26.799999237060546875 27 27.399999618530273438 27.899999618530273438 28.299999237060546875 28.700000762939453125 29.100000381469726562 29.399999618530273438 30 30.399999618530273438 31 31.899999618530273438 33.40000152587890625 34.799999237060546875 35.200000762939453125 35.40000152587890625 35.700000762939453125 36.09999847412109375 36.5 37.299999237060546875 37.90000152587890625 38.90000152587890625 40.200000762939453125 41.200000762939453125 42.299999237060546875 44 46.799999237060546875 49.5 51.40000152587890625 52.40000152587890625 54.799999237060546875 59 64 69.09999847412109375 73.5 73.90000152587890625 74 73.3000030517578125 69.09999847412109375 63.299999237060546875 60.799999237060546875 60.299999237060546875 60.59999847412109375 62.90000152587890625 66.3000030517578125 70.59999847412109375 76.09999847412109375 82.59999847412109375 89.3000030517578125 93.09999847412109375 93.59999847412109375 96.5 91.90000152587890625 83.3000030517578125 76.3000030517578125 69.3000030517578125 64.3000030517578125 60.799999237060546875 57.09999847412109375 54.700000762939453125 53.09999847412109375 50.09999847412109375 43.200000762939453125 48.90000152587890625 43.5 41.5 39.5 38 37 37 37.59999847412109375 39.59999847412109375 43.40000152587890625 51.40000152587890625 58.799999237060546875 61.09999847412109375 60.90000152587890625 60.5 58.90000152587890625 58.700000762939453125 56.59999847412109375 53.09999847412109375 49.09999847412109375 45.5 42.40000152587890625 40 37.90000152587890625 35.200000762939453125 32.59999847412109375 29.299999237060546875 25.200000762939453125 20.5 16.700000762939453125 12.5 16.299999237060546875 15.300000190734863281 16.200000762939453125 15.899999618530273438 16 16.299999237060546875 16.600000381469726562 16.600000381469726562 16.399999618530273438 16.399999618530273438 16.5 16.700000762939453125 16.799999237060546875 16.899999618530273438 17.299999237060546875 17.799999237060546875 18.600000381469726562 19.5 21.299999237060546875 25.399999618530273438 28 28.200000762939453125 29 30 30.799999237060546875 31.600000381469726562 32.799999237060546875 33.59999847412109375 33.90000152587890625 33.5 33.09999847412109375 32 30.899999618530273438 29.600000381469726562 28.600000381469726562 27.600000381469726562 26.299999237060546875 25.399999618530273438 24.700000762939453125 23.600000381469726562 22.299999237060546875 21.5 27 25.399999618530273438 25.299999237060546875 25.5 26.100000381469726562 27.600000381469726562 28.600000381469726562 29.5 30.100000381469726562 30.5 31.799999237060546875 33.799999237060546875 
37.799999237060546875 39.90000152587890625 42.09999847412109375 44 45.200000762939453125 46.299999237060546875 47.40000152587890625 47.700000762939453125 47.799999237060546875 47.799999237060546875 48.09999847412109375 48.40000152587890625 48.40000152587890625 47 46.09999847412109375 45.09999847412109375 44.59999847412109375 43.700000762939453125 42.40000152587890625 41.40000152587890625 40.799999237060546875 42.5 44 43.700000762939453125 41.799999237060546875 43 44.5 45.09999847412109375 44.5 42.700000762939453125 40.59999847412109375 38.90000152587890625 36.799999237060546875 34.40000152587890625 31.799999237060546875 29.100000381469726562 27.100000381469726562 27.200000762939453125 35.299999237060546875 29 29.700000762939453125 30.600000381469726562 31.100000381469726562 38.09999847412109375 32.90000152587890625 31.600000381469726562 30.399999618530273438 29.399999618530273438 28.799999237060546875 27.399999618530273438 27 27.200000762939453125 27.100000381469726562 27.200000762939453125 27.5 28 28.5 28.899999618530273438 29.200000762939453125 29.799999237060546875 30.399999618530273438 30.899999618530273438 31.399999618530273438 31.700000762939453125 32.799999237060546875 34.09999847412109375 34.90000152587890625 35.09999847412109375 35.299999237060546875 35.59999847412109375 36.09999847412109375 36.90000152587890625 37.700000762939453125 38.700000762939453125 39.299999237060546875 40.299999237060546875 41.59999847412109375 43.5 45.700000762939453125 48.09999847412109375 49.799999237060546875 51.700000762939453125 55.799999237060546875 62.5 68.59999847412109375 71.40000152587890625 72.59999847412109375 70.6999969482421875 69.6999969482421875 67.1999969482421875 62 59.59999847412109375 59.5 59.700000762939453125 60.799999237060546875 63.799999237060546875 68.40000152587890625 72.5 79.09999847412109375 86.90000152587890625 94.6999969482421875 98.59999847412109375 100.3000030517578125 101.09999847412109375 95.1999969482421875 84 76.40000152587890625 68.8000030517578125 65.90000152587890625 63.90000152587890625 61 58.40000152587890625 54.799999237060546875 49.200000762939453125 43.700000762939453125 48.09999847412109375 44.200000762939453125 42 39.700000762939453125 37.799999237060546875 36.700000762939453125 36.59999847412109375 37.09999847412109375 39.09999847412109375 42.40000152587890625 51 59.799999237060546875 59.799999237060546875 59.5 57.299999237060546875 57.09999847412109375 57.299999237060546875 55.700000762939453125 52.40000152587890625 48.5 45.200000762939453125 41.5 38.59999847412109375 36.09999847412109375 33.299999237060546875 31.100000381469726562 28.200000762939453125 24.5 20.700000762939453125 17.700000762939453125 15.899999618530273438 15.600000381469726562 15.5 15.899999618530273438 15.800000190734863281 16.100000381469726562 16.399999618530273438 16.399999618530273438 16.600000381469726562 16.600000381469726562 16.399999618530273438 16.899999618530273438 16.700000762939453125 17 17.299999237060546875 17.5 17.799999237060546875 18.100000381469726562 18.899999618530273438 19.899999618530273438 21.5 22.600000381469726562 23.700000762939453125 24.5 25.299999237060546875 26.299999237060546875 27.600000381469726562 29.700000762939453125 30.799999237060546875 31.799999237060546875 33.299999237060546875 33.700000762939453125 33 31.799999237060546875 30.600000381469726562 29.799999237060546875 28.5 27.200000762939453125 26.200000762939453125 25.299999237060546875 24.200000762939453125 22.799999237060546875 21.5 22.299999237060546875 30.399999618530273438 25.100000381469726562 25.100000381469726562 26.200000762939453125 28.299999237060546875 29.899999618530273438 31.200000762939453125 32.200000762939453125 32.5 32.90000152587890625 34.700000762939453125 
38.299999237060546875 40.59999847412109375 42.700000762939453125 44.5 45.700000762939453125 46.799999237060546875 48.09999847412109375 48.09999847412109375 47.59999847412109375 48.5 48.90000152587890625 49.299999237060546875 49.40000152587890625 48.299999237060546875 47.90000152587890625 47.299999237060546875 46.59999847412109375 45.59999847412109375 44 42.90000152587890625 42.799999237060546875 43.5 45.700000762939453125 45.799999237060546875 44.40000152587890625 44.59999847412109375 45.700000762939453125 46 45.700000762939453125 43.799999237060546875 41.200000762939453125 38.90000152587890625 36.59999847412109375 34 31.5 28.5 28 32.799999237060546875 32 31.600000381469726562 32.40000152587890625 32.799999237060546875 33.700000762939453125 33.299999237060546875 32.299999237060546875 32.299999237060546875 30.899999618530273438 29.299999237060546875 28 33.59999847412109375 27.399999618530273438 27.399999618530273438 27.299999237060546875 27.399999618530273438 27.700000762939453125 28.100000381469726562 28.600000381469726562 29.100000381469726562 29.399999618530273438 30.100000381469726562 30.799999237060546875 31.5 31.200000762939453125 31.799999237060546875 32.200000762939453125 32.700000762939453125 33.5 34.09999847412109375 34.799999237060546875 35.40000152587890625 35.799999237060546875 36.299999237060546875 37.200000762939453125 38.299999237060546875 38.799999237060546875 39.5 40.700000762939453125 42.59999847412109375 44.40000152587890625 46.09999847412109375 47.90000152587890625 50.5 55.299999237060546875 61.5 67.40000152587890625 69.5 66.5 64.40000152587890625 61.90000152587890625 59.700000762939453125 57.90000152587890625 57.200000762939453125 58 58.90000152587890625 61.200000762939453125 64 70 75.59999847412109375 83.3000030517578125 90.90000152587890625 98.40000152587890625 102.90000152587890625 103.8000030517578125 100.09999847412109375 92 83.3000030517578125 76 71.09999847412109375 67 65.1999969482421875 63.700000762939453125 59.799999237060546875 52.40000152587890625 45.5 48.40000152587890625 47.59999847412109375 43.90000152587890625 41.5 39.299999237060546875 37.700000762939453125 36.200000762939453125 36.09999847412109375 36.09999847412109375 37.59999847412109375 41 47.200000762939453125 53.299999237060546875 55.5 53.90000152587890625 52 52.299999237060546875 54.90000152587890625 54.200000762939453125 52 48.700000762939453125 44.799999237060546875 41.299999237060546875 37.799999237060546875 34.299999237060546875 31.899999618530273438 29.600000381469726562 27.299999237060546875 24.799999237060546875 20.899999618530273438 17.700000762939453125 17.200000762939453125 15.899999618530273438 15.800000190734863281 15.899999618530273438 16 16.200000762939453125 16.200000762939453125 16.299999237060546875 16.5 16.799999237060546875 17.100000381469726562 17.299999237060546875 17 17.600000381469726562 17.700000762939453125 17.799999237060546875 18 18.200000762939453125 18.5 19 19.799999237060546875 20.100000381469726562 20.799999237060546875 21.700000762939453125 22.600000381469726562 23.899999618530273438 25.200000762939453125 26.600000381469726562 28.399999618530273438 30.200000762939453125 31.899999618530273438 33.700000762939453125 33.799999237060546875 33 31.899999618530273438 30.700000762939453125 29.299999237060546875 28.100000381469726562 27.100000381469726562 26.100000381469726562 24.799999237060546875 23.299999237060546875 21.799999237060546875 22.299999237060546875 26.700000762939453125 31.100000381469726562 27.5 28.5 29.5 31 32.40000152587890625 33.799999237060546875 34.700000762939453125 35.200000762939453125 35.5 
39 41.200000762939453125 43.40000152587890625 45.299999237060546875 46.5 47.40000152587890625 48.09999847412109375 48.700000762939453125 48.59999847412109375 49 49.5 50.09999847412109375 50.299999237060546875 49.59999847412109375 49.40000152587890625 48.59999847412109375 47.700000762939453125 46.700000762939453125 45.5 44.59999847412109375 44.299999237060546875 44.700000762939453125 46.700000762939453125 47.40000152587890625 46.299999237060546875 45.799999237060546875 46.299999237060546875 46.59999847412109375 46.200000762939453125 43.799999237060546875 40.90000152587890625 38.59999847412109375 36.200000762939453125 33.59999847412109375 31.399999618530273438 28.899999618530273438 31.299999237060546875 36 34.299999237060546875 34.299999237060546875 34.40000152587890625 34.700000762939453125 38 35.59999847412109375 32.5 32 31.200000762939453125 29.899999618530273438 28.700000762939453125 29 27.700000762939453125 27.5 27.600000381469726562 27.700000762939453125 28 28.399999618530273438 28.799999237060546875 29.200000762939453125 29.700000762939453125 30.399999618530273438 31.100000381469726562 31.5 31.600000381469726562 32 32.5 32.90000152587890625 33 33.700000762939453125 35.09999847412109375 35.40000152587890625 35.700000762939453125 36.299999237060546875 36.90000152587890625 37.700000762939453125 38.5 39.40000152587890625 40.5 41.09999847412109375 42.40000152587890625 43.700000762939453125 46 48.200000762939453125 52.200000762939453125 57 61 62 59.200000762939453125 57.299999237060546875 55.90000152587890625 55.40000152587890625 55.59999847412109375 56.09999847412109375 57.09999847412109375 58.59999847412109375 61 65.90000152587890625 71.09999847412109375 78.5 85.3000030517578125 94.8000030517578125 100.90000152587890625 104.40000152587890625 105.40000152587890625 100.90000152587890625 91.40000152587890625 81.8000030517578125 75 70.40000152587890625 67.3000030517578125 65 63.200000762939453125 57.90000152587890625 50.299999237060546875 43.700000762939453125 51.59999847412109375 45.700000762939453125 43.59999847412109375 40.799999237060546875 38.90000152587890625 37.299999237060546875 35.799999237060546875 34.90000152587890625 34.299999237060546875 36.40000152587890625 39.40000152587890625 45.09999847412109375 50.200000762939453125 51.700000762939453125 49.5 46.59999847412109375 46.799999237060546875 49.09999847412109375 50.09999847412109375 49 47.90000152587890625 44.5 40.5 36.59999847412109375 33.59999847412109375 31.299999237060546875 29.399999618530273438 27 24.5 21.799999237060546875 18.200000762939453125 22.600000381469726562 12.5 16.200000762939453125 16.600000381469726562 16 16.100000381469726562 16.200000762939453125 16.5 16.799999237060546875 17 17.299999237060546875 17.399999618530273438 17.399999618530273438 17.600000381469726562 17.799999237060546875 17.899999618530273438 18.100000381469726562 18.299999237060546875 18.5 18.899999618530273438 19.299999237060546875 19.700000762939453125 20.299999237060546875 21 21.700000762939453125 22.5 23.600000381469726562 25 26.799999237060546875 29.5 32.200000762939453125 34.59999847412109375 35.299999237060546875 33.90000152587890625 32.799999237060546875 31.600000381469726562 30.200000762939453125 29.100000381469726562 28.100000381469726562 27.100000381469726562 25.299999237060546875 23.600000381469726562 22.399999618530273438 22.700000762939453125 27.700000762939453125 31.100000381469726562 31 31 31.399999618530273438 32.09999847412109375 33.40000152587890625 35 36 36.5 36.5 
39.299999237060546875 41.700000762939453125 44.09999847412109375 45.700000762939453125 46.90000152587890625 47.799999237060546875 48.5 49 49.200000762939453125 49.59999847412109375 50.5 50.90000152587890625 51.09999847412109375 51 50.59999847412109375 49.799999237060546875 49 47.90000152587890625 46.799999237060546875 46.200000762939453125 45.700000762939453125 45.59999847412109375 47.59999847412109375 48.700000762939453125 47.700000762939453125 47.09999847412109375 46.90000152587890625 47.09999847412109375 46 43.299999237060546875 40.700000762939453125 38.5 35.799999237060546875 33.799999237060546875 31.600000381469726562 29.700000762939453125 34.59999847412109375 41.59999847412109375 45.40000152587890625 45.40000152587890625 42.09999847412109375 39.90000152587890625 40.59999847412109375 37.40000152587890625 34.700000762939453125 33 32.299999237060546875 30.899999618530273438 29.399999618530273438 28.700000762939453125 34.40000152587890625 28 27.899999618530273438 28 28.200000762939453125 28.600000381469726562 29 29.5 30 30.700000762939453125 31.299999237060546875 31.799999237060546875 32.09999847412109375 32.40000152587890625 32.799999237060546875 33.200000762939453125 33.5 33.5 34 34 35.09999847412109375 36.09999847412109375 36.59999847412109375 37.40000152587890625 38.299999237060546875 39.200000762939453125 39.90000152587890625 40.40000152587890625 41.299999237060546875 42.40000152587890625 44.40000152587890625 46.200000762939453125 48.40000152587890625 52.200000762939453125 54.700000762939453125 54.59999847412109375 53.40000152587890625 52.700000762939453125 53.200000762939453125 53.700000762939453125 54.40000152587890625 55.299999237060546875 56.90000152587890625 58.90000152587890625 61.5 67.1999969482421875 72.59999847412109375 81.5 90.90000152587890625 98.40000152587890625 103.6999969482421875 105.09999847412109375 103.90000152587890625 99.3000030517578125 89.59999847412109375 80.09999847412109375 73.8000030517578125 69.5 66.90000152587890625 64.1999969482421875 60.299999237060546875 54.90000152587890625 47.700000762939453125 49.5 48.40000152587890625 45.59999847412109375 42.799999237060546875 40.299999237060546875 37.90000152587890625 36.700000762939453125 35.5 34.59999847412109375 33.5 35.200000762939453125 38.299999237060546875 43.59999847412109375 48.5 50.299999237060546875 47.700000762939453125 43.700000762939453125 41.700000762939453125 43.200000762939453125 44.40000152587890625 45.299999237060546875 46.299999237060546875 43.40000152587890625 39.90000152587890625 35.90000152587890625 33.200000762939453125 31.200000762939453125 29.100000381469726562 26.600000381469726562 24.100000381469726562 21.200000762939453125 18.100000381469726562 23.299999237060546875 14.600000381469726562 16.5 18.100000381469726562 15.600000381469726562 16.100000381469726562 16.299999237060546875 16.700000762939453125 17 17.200000762939453125 17.5 17.600000381469726562 17.700000762939453125 17.799999237060546875 17.899999618530273438 18 18.200000762939453125 18.399999618530273438 18.600000381469726562 18.899999618530273438 19.299999237060546875 19.299999237060546875 19.700000762939453125 20.299999237060546875 21 21.600000381469726562 22.700000762939453125 24 25.799999237060546875 28.399999618530273438 31.5 34.200000762939453125 35.700000762939453125 34.5 33.40000152587890625 32.299999237060546875 31.200000762939453125 29.700000762939453125 28.799999237060546875 27.600000381469726562 25.799999237060546875 24 22.899999618530273438 23.5 29.100000381469726562 31 31.100000381469726562 31 31.700000762939453125 32.700000762939453125 34.5 35.90000152587890625 36.700000762939453125 37.40000152587890625 37.700000762939453125 
39.299999237060546875 41.40000152587890625 43.40000152587890625 44.90000152587890625 46.5 48.200000762939453125 48.700000762939453125 49.299999237060546875 49.5 49.799999237060546875 51.200000762939453125 51.700000762939453125 51.90000152587890625 51.700000762939453125 51.40000152587890625 51.200000762939453125 50.5 49.799999237060546875 48.40000152587890625 47.799999237060546875 47.299999237060546875 47.09999847412109375 48.40000152587890625 50 49.700000762939453125 49.299999237060546875 48.799999237060546875 48.40000152587890625 46.09999847412109375 43.5 41 38.700000762939453125 36.5 35.09999847412109375 32.59999847412109375 30.899999618530273438 37.5 46.40000152587890625 53 53.5 51.799999237060546875 43.200000762939453125 39.59999847412109375 38.90000152587890625 36.700000762939453125 35.09999847412109375 33.09999847412109375 31.399999618530273438 29.799999237060546875 28.700000762939453125 30.700000762939453125 28.399999618530273438 28 28.299999237060546875 28.5 28.899999618530273438 29.600000381469726562 30.200000762939453125 30.600000381469726562 31.100000381469726562 31.799999237060546875 32.59999847412109375 32.90000152587890625 33.299999237060546875 33.700000762939453125 34.200000762939453125 34.5 34.299999237060546875 34 34 34 36.09999847412109375 37.09999847412109375 37.90000152587890625 38.40000152587890625 38.799999237060546875 39.299999237060546875 39.700000762939453125 40.5 41.90000152587890625 43.09999847412109375 44.40000152587890625 46.5 48.700000762939453125 49 50 49.90000152587890625 50.59999847412109375 51.799999237060546875 53.09999847412109375 54.200000762939453125 55.5 57.40000152587890625 59.90000152587890625 62.59999847412109375 68.1999969482421875 74.59999847412109375 83.59999847412109375 95 101.59999847412109375 105.09999847412109375 104.6999969482421875 101.1999969482421875 95.90000152587890625 88.8000030517578125 80.3000030517578125 73.90000152587890625 67.5 62.799999237060546875 59.90000152587890625 57.299999237060546875 51.59999847412109375 45.299999237060546875 49 46.299999237060546875 43.90000152587890625 41.200000762939453125 39.299999237060546875 37.299999237060546875 36.09999847412109375 35.09999847412109375 33.90000152587890625 32.59999847412109375 34.40000152587890625 37 41.200000762939453125 47.200000762939453125 48.799999237060546875 45.90000152587890625 41.700000762939453125 38 37.5 37.799999237060546875 39.5 41.299999237060546875 41 38.5 34.90000152587890625 31.700000762939453125 30.700000762939453125 28.700000762939453125 26.200000762939453125 23.700000762939453125 20.899999618530273438 18 17.600000381469726562 16.200000762939453125 15.699999809265136719 15.5 16 16.100000381469726562 16.200000762939453125 16.799999237060546875 17 17.299999237060546875 17.600000381469726562 17.899999618530273438 17.899999618530273438 18 18.100000381469726562 18.100000381469726562 18.200000762939453125 18.399999618530273438 18.600000381469726562 18.899999618530273438 19.100000381469726562 19.200000762939453125 19.5 20.299999237060546875 20.799999237060546875 21.399999618530273438 22.399999618530273438 23.5 25.100000381469726562 27.5 30.200000762939453125 32.90000152587890625 35.40000152587890625 35.200000762939453125 34.200000762939453125 32.799999237060546875 31.399999618530273438 30.200000762939453125 28.899999618530273438 27.600000381469726562 25.799999237060546875 24.299999237060546875 23.299999237060546875 25.100000381469726562 27.5 30.899999618530273438 31.5 32.5 32.299999237060546875 33.09999847412109375 34.799999237060546875 36.40000152587890625 36.90000152587890625 37.59999847412109375 38.299999237060546875 
38.700000762939453125 40.40000152587890625 42.59999847412109375 44.5 46.5 48.200000762939453125 49.09999847412109375 49.90000152587890625 49.59999847412109375 50.5 51.90000152587890625 52.40000152587890625 52.799999237060546875 52.5 52.09999847412109375 52 51.90000152587890625 51.5 50.799999237060546875 49.799999237060546875 49.200000762939453125 49.299999237060546875 50.40000152587890625 51.5 52.09999847412109375 51.700000762939453125 51.200000762939453125 49.90000152587890625 47.200000762939453125 44.59999847412109375 42.09999847412109375 39.59999847412109375 37.799999237060546875 36.5 34 31.600000381469726562 38.90000152587890625 46.799999237060546875 53.299999237060546875 58.40000152587890625 56.5 44.299999237060546875 43 41.200000762939453125 38.299999237060546875 36.5 34.09999847412109375 32.09999847412109375 30 28.5 28.700000762939453125 32.09999847412109375 27.399999618530273438 28.700000762939453125 28.899999618530273438 29.700000762939453125 30.299999237060546875 30.799999237060546875 31.100000381469726562 31.700000762939453125 32.5 33.5 34.200000762939453125 34.5 35 35.299999237060546875 35.59999847412109375 35.700000762939453125 34.799999237060546875 34.40000152587890625 35.59999847412109375 36.59999847412109375 37.59999847412109375 38.200000762939453125 38.59999847412109375 38.90000152587890625 39.200000762939453125 39.5 40 41.40000152587890625 42.700000762939453125 43.5 45 46.299999237060546875 46.90000152587890625 47.5 48.799999237060546875 50.09999847412109375 51.700000762939453125 53.40000152587890625 54.700000762939453125 56.59999847412109375 58.40000152587890625 60.200000762939453125 64.1999969482421875 68.3000030517578125 74.8000030517578125 82.1999969482421875 93 100.59999847412109375 103.59999847412109375 100.6999969482421875 96.3000030517578125 91.1999969482421875 85.09999847412109375 78.8000030517578125 71.90000152587890625 65.1999969482421875 60 55.700000762939453125 53.59999847412109375 48.59999847412109375 48.200000762939453125 45.40000152587890625 44.299999237060546875 42.40000152587890625 40.40000152587890625 38.799999237060546875 36.799999237060546875 35.40000152587890625 34.200000762939453125 33.09999847412109375 32.09999847412109375 32.90000152587890625 34.700000762939453125 38.200000762939453125 42.09999847412109375 43.09999847412109375 42.700000762939453125 39.799999237060546875 35.09999847412109375 33.799999237060546875 33.5 34.40000152587890625 35.700000762939453125 36.700000762939453125 35.299999237060546875 32.40000152587890625 29.899999618530273438 28.200000762939453125 27.100000381469726562 25.700000762939453125 23.399999618530273438 21 17.700000762939453125 16.899999618530273438 16.600000381469726562 15.800000190734863281 15.699999809265136719 15.899999618530273438 16.100000381469726562 16.100000381469726562 16.600000381469726562 17.100000381469726562 17.399999618530273438 17.700000762939453125 18.100000381469726562 18.200000762939453125 18.299999237060546875 18.299999237060546875 18.299999237060546875 18.299999237060546875 18.600000381469726562 18.899999618530273438 19.100000381469726562 19.299999237060546875 19.399999618530273438 19.700000762939453125 20.200000762939453125 20.700000762939453125 21.5 22.600000381469726562 23.899999618530273438 25.600000381469726562 27.799999237060546875 30.299999237060546875 33 35 35.200000762939453125 34.299999237060546875 33 31.600000381469726562 30.200000762939453125 29.299999237060546875 27.600000381469726562 26 24.600000381469726562 24.100000381469726562 27 29.100000381469726562 30.700000762939453125 30.899999618530273438 32.5 32.700000762939453125 32.700000762939453125 34.90000152587890625 36.40000152587890625 37.09999847412109375 37.799999237060546875 38.40000152587890625 
38.40000152587890625 40.09999847412109375 42.40000152587890625 44.799999237060546875 46.799999237060546875 48.299999237060546875 49.09999847412109375 49.799999237060546875 51 51.59999847412109375 52.700000762939453125 53.200000762939453125 53.700000762939453125 53.5 53.40000152587890625 53.40000152587890625 53.299999237060546875 52.700000762939453125 52 51.299999237060546875 50.799999237060546875 51.40000152587890625 52.90000152587890625 54 54.5 54.09999847412109375 53.40000152587890625 51.200000762939453125 48.40000152587890625 45.700000762939453125 43.200000762939453125 40.700000762939453125 39.299999237060546875 37.700000762939453125 35 32.299999237060546875 38.700000762939453125 46.40000152587890625 52 58.700000762939453125 60.5 54.200000762939453125 49.5 44.90000152587890625 40.299999237060546875 37.700000762939453125 36.200000762939453125 32.700000762939453125 30.100000381469726562 29.5 29.200000762939453125 33.90000152587890625 29 28.899999618530273438 29.5 30 30.5 31 31.799999237060546875 32.700000762939453125 33.59999847412109375 34.40000152587890625 35.200000762939453125 35.799999237060546875 36.299999237060546875 36.59999847412109375 36.799999237060546875 36 35.90000152587890625 36.40000152587890625 37.40000152587890625 38 38.299999237060546875 38.59999847412109375 38.90000152587890625 39.200000762939453125 39.700000762939453125 40.200000762939453125 40.799999237060546875 41.299999237060546875 42.700000762939453125 43.40000152587890625 44.09999847412109375 45 45.90000152587890625 47.09999847412109375 48.5 49.799999237060546875 52 53.90000152587890625 55.299999237060546875 57.200000762939453125 59.799999237060546875 61.59999847412109375 67.40000152587890625 68.6999969482421875 75 82.1999969482421875 91.59999847412109375 98.5 100.09999847412109375 95.1999969482421875 89.90000152587890625 85.09999847412109375 80.59999847412109375 75.59999847412109375 68.90000152587890625 62.09999847412109375 56.40000152587890625 52.299999237060546875 50.09999847412109375 46.90000152587890625 45.90000152587890625 43.40000152587890625 42.5 40.799999237060546875 39.09999847412109375 37.700000762939453125 36.200000762939453125 34.799999237060546875 33.700000762939453125 32.59999847412109375 31.799999237060546875 31.700000762939453125 32.700000762939453125 34.200000762939453125 37 38.90000152587890625 38.40000152587890625 36 32.799999237060546875 31.100000381469726562 30.600000381469726562 31.200000762939453125 31.799999237060546875 32.40000152587890625 31.700000762939453125 30 27.600000381469726562 26.399999618530273438 25.399999618530273438 24.399999618530273438 22.600000381469726562 19.899999618530273438 17.799999237060546875 16.5 16.5 15.5 15.699999809265136719 15.899999618530273438 16.100000381469726562 16.200000762939453125 16.5 17 17.5 17.899999618530273438 18.200000762939453125 18.399999618530273438 18.5 18.5 18.5 18.600000381469726562 19.100000381469726562 19.299999237060546875 19.5 19.700000762939453125 19.700000762939453125 19.899999618530273438 20.299999237060546875 20.700000762939453125 22 23.299999237060546875 25 26.600000381469726562 28.399999618530273438 30.5 32.799999237060546875 34.59999847412109375 35 34.299999237060546875 33 32 31 29.799999237060546875 28.399999618530273438 26.100000381469726562 24.799999237060546875 24.899999618530273438 28.600000381469726562 30.600000381469726562 30.799999237060546875 30.700000762939453125 31.200000762939453125 32.5 33.40000152587890625 34.09999847412109375 35.299999237060546875 35.59999847412109375 36.5 37.09999847412109375 
39.09999847412109375 40.799999237060546875 42.90000152587890625 45.09999847412109375 46.90000152587890625 48.5 49.40000152587890625 50.59999847412109375 52.299999237060546875 52.40000152587890625 53.799999237060546875 54.299999237060546875 54.799999237060546875 54.700000762939453125 54.799999237060546875 54.799999237060546875 54.5 53.90000152587890625 53.299999237060546875 52.40000152587890625 52.40000152587890625 53.40000152587890625 54.90000152587890625 56.40000152587890625 57 57 56 52.90000152587890625 49.90000152587890625 46 43.59999847412109375 41.09999847412109375 39.299999237060546875 37.5 35.200000762939453125 32.799999237060546875 37.200000762939453125 45 50.90000152587890625 58.5 62.40000152587890625 59.299999237060546875 53.5 47.59999847412109375 42.5 39.200000762939453125 37.09999847412109375 33.5 30.700000762939453125 30 29.700000762939453125 30.100000381469726562 29.5 29.399999618530273438 29.700000762939453125 30.200000762939453125 30.700000762939453125 31.899999618530273438 32.59999847412109375 33.5 34.5 35.09999847412109375 35.90000152587890625 36.59999847412109375 37.200000762939453125 37.299999237060546875 37.799999237060546875 38 37.90000152587890625 38.299999237060546875 39 38.799999237060546875 38.90000152587890625 39.200000762939453125 39.40000152587890625 39.799999237060546875 40.40000152587890625 41 41.59999847412109375 42.09999847412109375 42.700000762939453125 43.40000152587890625 44.200000762939453125 44.90000152587890625 45.799999237060546875 46.90000152587890625 48.5 50.299999237060546875 52.09999847412109375 54.200000762939453125 55.5 57.700000762939453125 60.40000152587890625 63 66.6999969482421875 70.5 77.09999847412109375 84.5 91.59999847412109375 97.8000030517578125 94.40000152587890625 89.40000152587890625 84.90000152587890625 81.09999847412109375 77 70.6999969482421875 64.8000030517578125 59.40000152587890625 53.09999847412109375 50.40000152587890625 49.799999237060546875 47.5 44.09999847412109375 41.700000762939453125 40.5 39.200000762939453125 37.799999237060546875 36.59999847412109375 35.299999237060546875 34.299999237060546875 33.200000762939453125 32.299999237060546875 31.700000762939453125 31 30.899999618530273438 31.899999618530273438 32.700000762939453125 33.700000762939453125 33.700000762939453125 31.600000381469726562 29.899999618530273438 28.600000381469726562 28.200000762939453125 28.5 28.799999237060546875 28.899999618530273438 28.100000381469726562 27.600000381469726562 25.799999237060546875 24.899999618530273438 24.200000762939453125 23.200000762939453125 21.899999618530273438 19.299999237060546875 17.100000381469726562 16.700000762939453125 16.700000762939453125 15.5 15.699999809265136719 16 16.299999237060546875 16.299999237060546875 16.399999618530273438 16.899999618530273438 17.600000381469726562 18 18.299999237060546875 18.5 18.600000381469726562 18.799999237060546875 19 19.200000762939453125 19.399999618530273438 19.5 19.600000381469726562 19.899999618530273438 19.899999618530273438 20.100000381469726562 20.399999618530273438 21.100000381469726562 22.299999237060546875 24 25.899999618530273438 27.799999237060546875 29.600000381469726562 31.5 33.5 35.40000152587890625 35.200000762939453125 34.299999237060546875 33.09999847412109375 32.09999847412109375 31 29.399999618530273438 27.799999237060546875 26 24.899999618530273438 25.200000762939453125 28.399999618530273438 31.200000762939453125 31.399999618530273438 31.399999618530273438 31.299999237060546875 32.299999237060546875 32.700000762939453125 35.200000762939453125 35.09999847412109375 34.799999237060546875 35.200000762939453125 35.700000762939453125 
40.700000762939453125 41.59999847412109375 43.40000152587890625 45.5 47.40000152587890625 48.90000152587890625 49.700000762939453125 51 52.299999237060546875 53.200000762939453125 54.200000762939453125 55.09999847412109375 55.90000152587890625 56.09999847412109375 56.200000762939453125 56 55.700000762939453125 55.200000762939453125 54.299999237060546875 53.40000152587890625 53.799999237060546875 55.40000152587890625 58.09999847412109375 59.700000762939453125 59.299999237060546875 58.799999237060546875 56.59999847412109375 53.799999237060546875 50.200000762939453125 46.09999847412109375 43.40000152587890625 40.700000762939453125 38.90000152587890625 37.299999237060546875 35.200000762939453125 33.700000762939453125 36.700000762939453125 44.09999847412109375 50.40000152587890625 56.799999237060546875 62.59999847412109375 62.09999847412109375 56.40000152587890625 50.299999237060546875 45.09999847412109375 41.200000762939453125 37.799999237060546875 34.40000152587890625 31.600000381469726562 30.799999237060546875 30.200000762939453125 30.399999618530273438 35.5 29.899999618530273438 30.100000381469726562 30.700000762939453125 31.200000762939453125 33.200000762939453125 33.700000762939453125 34.5 35.5 35.799999237060546875 36.5 37 37.299999237060546875 37.700000762939453125 38.5 39 39.40000152587890625 39.799999237060546875 39.90000152587890625 39.799999237060546875 39.799999237060546875 40 40.09999847412109375 40.59999847412109375 41.09999847412109375 41.700000762939453125 42.299999237060546875 42.90000152587890625 43.40000152587890625 44.09999847412109375 44.700000762939453125 45.5 46.299999237060546875 47.700000762939453125 49.59999847412109375 50.90000152587890625 52.200000762939453125 53.799999237060546875 55.799999237060546875 58.200000762939453125 61.5 65 68.5 73.40000152587890625 79.90000152587890625 87.6999969482421875 94.8000030517578125 93.6999969482421875 89 84.3000030517578125 80.1999969482421875 76.6999969482421875 72.09999847412109375 66.90000152587890625 60.299999237060546875 55.200000762939453125 51.40000152587890625 49.40000152587890625 47 46 40.700000762939453125 39.700000762939453125 38.90000152587890625 37.799999237060546875 36.59999847412109375 35.299999237060546875 34.40000152587890625 33.700000762939453125 32.799999237060546875 31.799999237060546875 30.899999618530273438 30.200000762939453125 29.700000762939453125 29.600000381469726562 29.600000381469726562 29.899999618530273438 29.899999618530273438 28.600000381469726562 27.899999618530273438 27.100000381469726562 26.299999237060546875 26.200000762939453125 26.399999618530273438 26.200000762939453125 25.399999618530273438 24.600000381469726562 24 23.899999618530273438 24 23.399999618530273438 21.600000381469726562 19 13.600000381469726562 16.899999618530273438 16.899999618530273438 15.699999809265136719 15.800000190734863281 16.100000381469726562 16.399999618530273438 16.5 16.399999618530273438 17.299999237060546875 17.799999237060546875 18.200000762939453125 18.399999618530273438 18.600000381469726562 18.799999237060546875 19 19.200000762939453125 19.399999618530273438 19.600000381469726562 19.600000381469726562 19.700000762939453125 20 20.200000762939453125 20.399999618530273438 20.600000381469726562 21.5 22.899999618530273438 24.600000381469726562 26.200000762939453125 27.700000762939453125 30.399999618530273438 32.59999847412109375 34.299999237060546875 35.700000762939453125 35.09999847412109375 34.299999237060546875 33.200000762939453125 32.40000152587890625 31.100000381469726562 29.200000762939453125 27.299999237060546875 26.299999237060546875 25.799999237060546875 25.299999237060546875 28 30.600000381469726562 32.5 32.59999847412109375 32.200000762939453125 31.5 32.799999237060546875 35.200000762939453125 35.200000762939453125 34.5 34.799999237060546875 34.90000152587890625 
42.09999847412109375 43.200000762939453125 44.200000762939453125 45.90000152587890625 47.799999237060546875 49.299999237060546875 50.40000152587890625 51.59999847412109375 52.299999237060546875 54 55.700000762939453125 59 59.700000762939453125 59 58.200000762939453125 58 57.59999847412109375 56.799999237060546875 55.799999237060546875 55.09999847412109375 55.299999237060546875 57.40000152587890625 59.299999237060546875 60.700000762939453125 60.5 58.90000152587890625 56.799999237060546875 53.299999237060546875 49.5 46 42.799999237060546875 40.40000152587890625 38.799999237060546875 37.200000762939453125 35.59999847412109375 34.5 37.09999847412109375 42.200000762939453125 49.700000762939453125 55.799999237060546875 62.40000152587890625 63.700000762939453125 59.40000152587890625 53.700000762939453125 48.5 44.200000762939453125 40.299999237060546875 36.09999847412109375 32.90000152587890625 31.399999618530273438 30.799999237060546875 30.5 33.59999847412109375 30.399999618530273438 30.5 31 32 33.40000152587890625 34.299999237060546875 35.40000152587890625 36.40000152587890625 36.200000762939453125 36.5 37.299999237060546875 37.59999847412109375 38.40000152587890625 39.299999237060546875 39.90000152587890625 40.299999237060546875 40.799999237060546875 40.700000762939453125 40.799999237060546875 41 40.90000152587890625 40.799999237060546875 41.299999237060546875 41.90000152587890625 42.40000152587890625 43 43.299999237060546875 43.799999237060546875 44.5 45.09999847412109375 46.09999847412109375 47 48.59999847412109375 50.299999237060546875 51.59999847412109375 52.90000152587890625 54.700000762939453125 56.799999237060546875 59.40000152587890625 63 68.6999969482421875 72.6999969482421875 77.40000152587890625 84.5 90.6999969482421875 94.5 89.40000152587890625 83.5 78.59999847412109375 74.90000152587890625 71.3000030517578125 66.59999847412109375 63 55.700000762939453125 52.09999847412109375 49 48.799999237060546875 44 39.90000152587890625 39 38 37.09999847412109375 36.09999847412109375 35.200000762939453125 34.40000152587890625 33.700000762939453125 33 32.299999237060546875 31.399999618530273438 30.5 30 29.399999618530273438 29.100000381469726562 28.700000762939453125 28.600000381469726562 28.100000381469726562 27.299999237060546875 26.5 25.799999237060546875 25.200000762939453125 24.799999237060546875 24.600000381469726562 24.200000762939453125 23.799999237060546875 23.299999237060546875 22.899999618530273438 23.200000762939453125 23.399999618530273438 23.100000381469726562 21.200000762939453125 18.799999237060546875 13.600000381469726562 21.299999237060546875 17.299999237060546875 16.700000762939453125 16.200000762939453125 16.399999618530273438 16.5 16.600000381469726562 16.899999618530273438 17.5 17.899999618530273438 18.399999618530273438 18.799999237060546875 19 19.100000381469726562 19.200000762939453125 19.399999618530273438 19.600000381469726562 19.700000762939453125 19.600000381469726562 19.799999237060546875 20.100000381469726562 20.5 20.799999237060546875 21.200000762939453125 22.100000381469726562 23.200000762939453125 24.399999618530273438 26.200000762939453125 27.700000762939453125 30.399999618530273438 33 34.90000152587890625 35.700000762939453125 35 34.299999237060546875 33.200000762939453125 32.299999237060546875 30.799999237060546875 29 27.100000381469726562 26.600000381469726562 26.299999237060546875 26 26.799999237060546875 29.799999237060546875 32.299999237060546875 33.90000152587890625 33.700000762939453125 32.59999847412109375 32.5 33.09999847412109375 35.200000762939453125 34.700000762939453125 34.799999237060546875 35 
42.799999237060546875 44.200000762939453125 45.299999237060546875 46.5 48.200000762939453125 49.59999847412109375 50.799999237060546875 52.200000762939453125 53.299999237060546875 54.799999237060546875 56.59999847412109375 60.700000762939453125 61.59999847412109375 60 59.09999847412109375 59.200000762939453125 59.299999237060546875 58.5 57.40000152587890625 56.90000152587890625 58.09999847412109375 59.799999237060546875 60.90000152587890625 61.90000152587890625 61.90000152587890625 60.299999237060546875 57 53.299999237060546875 49.299999237060546875 46 43.09999847412109375 40.799999237060546875 39.09999847412109375 37.200000762939453125 35.90000152587890625 34.40000152587890625 37.5 42.09999847412109375 49.299999237060546875 53.90000152587890625 60.59999847412109375 63.5 61.299999237060546875 56.59999847412109375 50.700000762939453125 45.799999237060546875 41.799999237060546875 37.700000762939453125 34.200000762939453125 31.799999237060546875 31 30.5 31 34 31.100000381469726562 31.399999618530273438 32.700000762939453125 33.40000152587890625 34.299999237060546875 35.299999237060546875 35.799999237060546875 36.299999237060546875 36.40000152587890625 37.59999847412109375 38 38.700000762939453125 39.90000152587890625 40.700000762939453125 41.299999237060546875 41.700000762939453125 41.799999237060546875 41.90000152587890625 41.90000152587890625 41.700000762939453125 41.59999847412109375 42 42.59999847412109375 43.09999847412109375 43.700000762939453125 44.09999847412109375 44.5 45.09999847412109375 45.59999847412109375 46.59999847412109375 47.59999847412109375 49.799999237060546875 51.40000152587890625 52.59999847412109375 54.40000152587890625 56 57.700000762939453125 60.59999847412109375 64.6999969482421875 70 75.90000152587890625 81 86.90000152587890625 91.5 89.6999969482421875 83.8000030517578125 78.59999847412109375 73.8000030517578125 70.5 66.5 62.299999237060546875 58.200000762939453125 52.799999237060546875 49.09999847412109375 48.09999847412109375 48.299999237060546875 40.59999847412109375 39 37.799999237060546875 36.90000152587890625 36.09999847412109375 35.40000152587890625 34.90000152587890625 34.299999237060546875 33.59999847412109375 32.90000152587890625 32.09999847412109375 31.299999237060546875 30.799999237060546875 30.299999237060546875 29.799999237060546875 29.899999618530273438 29 28.5 27.700000762939453125 26.799999237060546875 26.200000762939453125 25.200000762939453125 24.399999618530273438 23.899999618530273438 23.5 23.200000762939453125 22.899999618530273438 22.299999237060546875 22.100000381469726562 22 22.899999618530273438 22.299999237060546875 20.700000762939453125 18.5 16.100000381469726562 22 17.600000381469726562 16.200000762939453125 16.399999618530273438 16.5 16.700000762939453125 16.799999237060546875 17.299999237060546875 17.600000381469726562 18 18.5 19.200000762939453125 19.399999618530273438 19.5 19.5 19.600000381469726562 19.799999237060546875 19.899999618530273438 19.700000762939453125 20 20.299999237060546875 20.700000762939453125 21 21.399999618530273438 22.100000381469726562 23 24.100000381469726562 25.799999237060546875 27.700000762939453125 30.200000762939453125 32.799999237060546875 34.5 35.40000152587890625 34.90000152587890625 34.200000762939453125 33.09999847412109375 31.799999237060546875 30.399999618530273438 28.700000762939453125 27.399999618530273438 28.200000762939453125 27.799999237060546875 27.100000381469726562 26.700000762939453125 28.600000381469726562 31.799999237060546875 34.09999847412109375 35.40000152587890625 35.200000762939453125 32.200000762939453125 33.200000762939453125 33.59999847412109375 34.59999847412109375 34.299999237060546875 34.700000762939453125 
42.799999237060546875 44.40000152587890625 45.799999237060546875 47.09999847412109375 48.5 50 52 53.40000152587890625 54.09999847412109375 55.40000152587890625 57.200000762939453125 60.799999237060546875 61.299999237060546875 59.90000152587890625 60 60.299999237060546875 60.40000152587890625 59.799999237060546875 59 59.59999847412109375 60.700000762939453125 59.299999237060546875 61.5 62.200000762939453125 62.5 61.90000152587890625 58.40000152587890625 53.700000762939453125 49.40000152587890625 45.799999237060546875 43.40000152587890625 41.200000762939453125 39.40000152587890625 37.200000762939453125 35.59999847412109375 35.40000152587890625 39.299999237060546875 43.40000152587890625 47.40000152587890625 50.799999237060546875 59.59999847412109375 62 61.59999847412109375 57.799999237060546875 53.09999847412109375 48.09999847412109375 42.799999237060546875 38.299999237060546875 34.700000762939453125 32.40000152587890625 31.399999618530273438 30.899999618530273438 30.899999618530273438 35.799999237060546875 31.5 31.899999618530273438 32.59999847412109375 33.40000152587890625 34.299999237060546875 35.09999847412109375 35.59999847412109375 36.200000762939453125 36.799999237060546875 37.90000152587890625 38.5 39 40.5 41.299999237060546875 42.200000762939453125 42.5 42.799999237060546875 43.09999847412109375 42.799999237060546875 42.5 42.40000152587890625 42.700000762939453125 43.299999237060546875 44 44.59999847412109375 45 45.40000152587890625 45.799999237060546875 46.299999237060546875 47.40000152587890625 49 51.299999237060546875 52.5 53.700000762939453125 56.59999847412109375 58.299999237060546875 59.200000762939453125 61.700000762939453125 67.59999847412109375 72.5 78.5 82.09999847412109375 85.59999847412109375 86.1999969482421875 83.3000030517578125 77 72.1999969482421875 69.1999969482421875 65.40000152587890625 62.09999847412109375 57.700000762939453125 54.40000152587890625 50.200000762939453125 47 47.09999847412109375 47.700000762939453125 40.5 39 38 37.299999237060546875 36.09999847412109375 35.40000152587890625 35 34 33.40000152587890625 32.90000152587890625 32.200000762939453125 31.899999618530273438 31 30.600000381469726562 30.399999618530273438 30.299999237060546875 29.200000762939453125 28.100000381469726562 27.200000762939453125 26.399999618530273438 25.899999618530273438 24.899999618530273438 24 23.200000762939453125 22.899999618530273438 22.600000381469726562 21.799999237060546875 21.399999618530273438 21.200000762939453125 21 21 21.299999237060546875 20 18.100000381469726562 16.399999618530273438 17.299999237060546875 17.899999618530273438 16.600000381469726562 16.700000762939453125 16.700000762939453125 16.899999618530273438 17.100000381469726562 17.5 17.799999237060546875 18.100000381469726562 18.600000381469726562 19.299999237060546875 19.700000762939453125 19.700000762939453125 19.700000762939453125 19.899999618530273438 20.100000381469726562 20.100000381469726562 20 20.299999237060546875 20.5 20.899999618530273438 21.200000762939453125 21.600000381469726562 22.200000762939453125 23 24.100000381469726562 25.5 27.600000381469726562 30.600000381469726562 33.5 35.299999237060546875 35.40000152587890625 34.59999847412109375 33.90000152587890625 33 31.600000381469726562 30.100000381469726562 28.5 28.799999237060546875 29.600000381469726562 29.700000762939453125 28.799999237060546875 27.799999237060546875 27.700000762939453125 30.399999618530273438 33.299999237060546875 35.200000762939453125 36 33.700000762939453125 33.09999847412109375 33.59999847412109375 34.59999847412109375 35.200000762939453125 35 
42.5 44.40000152587890625 46.299999237060546875 47.700000762939453125 49.200000762939453125 50.59999847412109375 52.59999847412109375 54 55 55.700000762939453125 57.90000152587890625 59.59999847412109375 60.59999847412109375 61.09999847412109375 61.299999237060546875 61.59999847412109375 61.40000152587890625 61.09999847412109375 61.09999847412109375 62.09999847412109375 62.299999237060546875 63 60.59999847412109375 62.299999237060546875 62.09999847412109375 61.40000152587890625 56.09999847412109375 52.200000762939453125 48.5 46.200000762939453125 43.799999237060546875 41.5 39.40000152587890625 37.299999237060546875 35.700000762939453125 37.59999847412109375 40.700000762939453125 43.700000762939453125 46.200000762939453125 50.59999847412109375 55.5 59.09999847412109375 60.200000762939453125 58.09999847412109375 53.40000152587890625 48.200000762939453125 43 38.299999237060546875 35.09999847412109375 32.90000152587890625 31.799999237060546875 31.299999237060546875 31.200000762939453125 31.200000762939453125 32.200000762939453125 31.700000762939453125 32.700000762939453125 33.59999847412109375 34.40000152587890625 35 35.59999847412109375 36.09999847412109375 37 38.09999847412109375 38.799999237060546875 39.40000152587890625 41.59999847412109375 42.299999237060546875 42.700000762939453125 43.59999847412109375 43.90000152587890625 44.09999847412109375 43.799999237060546875 43.5 43.5 43.799999237060546875 44.40000152587890625 45.09999847412109375 45.59999847412109375 46.09999847412109375 46.40000152587890625 47 47.59999847412109375 48.700000762939453125 50.200000762939453125 52.09999847412109375 53.200000762939453125 54.5 58.40000152587890625 60.700000762939453125 61.5 63.200000762939453125 68.6999969482421875 72.1999969482421875 75.6999969482421875 78.6999969482421875 80.3000030517578125 77.90000152587890625 74.1999969482421875 70.40000152587890625 67.3000030517578125 64.6999969482421875 61.299999237060546875 57 53.40000152587890625 51.09999847412109375 48.40000152587890625 46.90000152587890625 46.59999847412109375 45.40000152587890625 41.59999847412109375 40 39.09999847412109375 38.200000762939453125 37.09999847412109375 36.40000152587890625 34.799999237060546875 33.59999847412109375 32.700000762939453125 32.5 32.299999237060546875 32.40000152587890625 31.600000381469726562 30.5 30.200000762939453125 29.5 28.799999237060546875 27.700000762939453125 26.600000381469726562 25.799999237060546875 25.399999618530273438 24.5 23.299999237060546875 22.799999237060546875 22.299999237060546875 21.799999237060546875 21.700000762939453125 21.299999237060546875 20.600000381469726562 20.399999618530273438 20 19.600000381469726562 19.100000381469726562 17.899999618530273438 16.5 15.199999809265136719 18 17.200000762939453125 17.299999237060546875 17.399999618530273438 17.399999618530273438 17.399999618530273438 17.700000762939453125 17.899999618530273438 18.200000762939453125 18.700000762939453125 19.399999618530273438 20.200000762939453125 20.200000762939453125 20.200000762939453125 20.200000762939453125 20.299999237060546875 20.299999237060546875 20.399999618530273438 20.600000381469726562 20.799999237060546875 21 21.399999618530273438 21.600000381469726562 22.200000762939453125 22.899999618530273438 24.200000762939453125 25.5 28 31 33.59999847412109375 35 35 34.40000152587890625 33.59999847412109375 32.799999237060546875 31.600000381469726562 30.100000381469726562 29.299999237060546875 30.299999237060546875 31.399999618530273438 31.5 30.700000762939453125 29.399999618530273438 27.899999618530273438 28.799999237060546875 30.700000762939453125 32.59999847412109375 34 33.5 32.200000762939453125 32.40000152587890625 33.59999847412109375 35.299999237060546875 35.59999847412109375 
42 43.700000762939453125 45.40000152587890625 46.90000152587890625 49.09999847412109375 51.200000762939453125 52.90000152587890625 54.299999237060546875 55.299999237060546875 56.59999847412109375 58.09999847412109375 59.40000152587890625 60.40000152587890625 61.40000152587890625 62.299999237060546875 62.59999847412109375 62.90000152587890625 63.40000152587890625 63.5 63.200000762939453125 63.59999847412109375 64.40000152587890625 64.40000152587890625 60.90000152587890625 61.90000152587890625 60 55.09999847412109375 50.59999847412109375 47 45.700000762939453125 43.200000762939453125 41.59999847412109375 39.59999847412109375 37.5 36.59999847412109375 39.09999847412109375 41.200000762939453125 44.40000152587890625 46.5 49 52.59999847412109375 56.09999847412109375 57.799999237060546875 56.799999237060546875 52.40000152587890625 47.799999237060546875 42.700000762939453125 38.5 35.299999237060546875 33.200000762939453125 32.09999847412109375 31.700000762939453125 31.700000762939453125 31.600000381469726562 31.399999618530273438 31.299999237060546875 32.90000152587890625 33.799999237060546875 34.40000152587890625 35 35.59999847412109375 36.200000762939453125 37 38.09999847412109375 39 39.5 41.40000152587890625 42.5 43.299999237060546875 44.09999847412109375 44.5 44.90000152587890625 44.700000762939453125 44.5 44.700000762939453125 45.09999847412109375 45.59999847412109375 46.40000152587890625 47.299999237060546875 48.200000762939453125 49.59999847412109375 50.5 50.90000152587890625 51.40000152587890625 51.90000152587890625 52.700000762939453125 54.200000762939453125 56.59999847412109375 59.90000152587890625 61.700000762939453125 63.09999847412109375 65.3000030517578125 68.6999969482421875 70.3000030517578125 72.59999847412109375 74.90000152587890625 75.3000030517578125 73.90000152587890625 70 66.5 63.40000152587890625 60.5 57.5 54.799999237060546875 53 51.59999847412109375 49.40000152587890625 46.700000762939453125 46.700000762939453125 44.5 42.799999237060546875 41.5 39.90000152587890625 39 37.90000152587890625 36.299999237060546875 34.700000762939453125 33.40000152587890625 32.40000152587890625 32.200000762939453125 31.899999618530273438 32.200000762939453125 31.399999618530273438 30.100000381469726562 29.200000762939453125 28.5 27.899999618530273438 27.200000762939453125 26.200000762939453125 25.200000762939453125 24.799999237060546875 23.799999237060546875 23.399999618530273438 22.799999237060546875 22.200000762939453125 21.899999618530273438 22.100000381469726562 21.799999237060546875 21 20.200000762939453125 19.700000762939453125 19.399999618530273438 18.700000762939453125 17.899999618530273438 16.899999618530273438 13.399999618530273438 18.100000381469726562 17.700000762939453125 17.700000762939453125 17.799999237060546875 17.600000381469726562 17.700000762939453125 17.799999237060546875 18.100000381469726562 18.5 18.899999618530273438 19.5 20.299999237060546875 20.700000762939453125 20.600000381469726562 20.399999618530273438 20.399999618530273438 20.5 20.600000381469726562 20.799999237060546875 21 21.200000762939453125 21.600000381469726562 22 22.700000762939453125 23.399999618530273438 24.600000381469726562 25.899999618530273438 29.200000762939453125 32.09999847412109375 34.40000152587890625 35.200000762939453125 34.90000152587890625 34.40000152587890625 33.700000762939453125 32.700000762939453125 31.700000762939453125 30.399999618530273438 30 31.299999237060546875 33.09999847412109375 33.40000152587890625 32.90000152587890625 31.700000762939453125 30.100000381469726562 28.700000762939453125 29.100000381469726562 29.799999237060546875 31 31.700000762939453125 31 31.700000762939453125 33.09999847412109375 33.700000762939453125 35.90000152587890625 
41.200000762939453125 42.799999237060546875 44.40000152587890625 46.200000762939453125 48.09999847412109375 50.700000762939453125 52.799999237060546875 54.299999237060546875 55 57.09999847412109375 58.5 59.90000152587890625 60.799999237060546875 61.700000762939453125 62.5 63.40000152587890625 64 64.40000152587890625 64.5 64.40000152587890625 64.59999847412109375 66.09999847412109375 65.6999969482421875 64.40000152587890625 60 57.700000762939453125 54.59999847412109375 49.90000152587890625 46.59999847412109375 44.200000762939453125 43 42.200000762939453125 39.700000762939453125 37.799999237060546875 37.5 41 41.59999847412109375 46.09999847412109375 45.799999237060546875 47.200000762939453125 50.700000762939453125 53.5 55.40000152587890625 54.799999237060546875 51.299999237060546875 47.09999847412109375 42.59999847412109375 38.40000152587890625 35.200000762939453125 33.200000762939453125 32.40000152587890625 32.200000762939453125 32.200000762939453125 32.40000152587890625 32.799999237060546875 33.299999237060546875 33.59999847412109375 34.299999237060546875 34.799999237060546875 35.299999237060546875 35.90000152587890625 36.5 37.299999237060546875 38.40000152587890625 39 39.799999237060546875 41.200000762939453125 42.5 43.5 44.5 45.09999847412109375 45.700000762939453125 45.5 45.799999237060546875 46.09999847412109375 46.40000152587890625 47.59999847412109375 48.59999847412109375 49.5 51.59999847412109375 53.299999237060546875 54.700000762939453125 54.799999237060546875 55.09999847412109375 55.299999237060546875 55 56.200000762939453125 60.09999847412109375 62.299999237060546875 63.5 65.3000030517578125 67.09999847412109375 69.5 70.6999969482421875 73.59999847412109375 76.59999847412109375 77.40000152587890625 75.3000030517578125 71.5 68.40000152587890625 64 61.299999237060546875 58.5 57 55.09999847412109375 52.59999847412109375 51.09999847412109375 47.09999847412109375 49.40000152587890625 44.09999847412109375 42.90000152587890625 41.40000152587890625 40.200000762939453125 38.5 37.59999847412109375 36.200000762939453125 34.700000762939453125 33.40000152587890625 32.299999237060546875 31.899999618530273438 31.600000381469726562 31.600000381469726562 31 29.600000381469726562 28.700000762939453125 28.200000762939453125 27.399999618530273438 26.799999237060546875 25.899999618530273438 25 24.399999618530273438 23.899999618530273438 23.399999618530273438 23 22.700000762939453125 22.700000762939453125 22.5 22.100000381469726562 21.299999237060546875 20.600000381469726562 20 19.399999618530273438 18.600000381469726562 17.799999237060546875 17 13.300000190734863281 16.600000381469726562 23.600000381469726562 17.600000381469726562 17.700000762939453125 17.899999618530273438 17.899999618530273438 18 18.100000381469726562 18.399999618530273438 19 19.600000381469726562 20.399999618530273438 20.799999237060546875 21.100000381469726562 20.899999618530273438 20.700000762939453125 20.899999618530273438 21.100000381469726562 21.200000762939453125 21.299999237060546875 21.5 21.799999237060546875 22.5 23 23.899999618530273438 25.100000381469726562 26.399999618530273438 29.399999618530273438 33.09999847412109375 34.90000152587890625 35.299999237060546875 35.09999847412109375 34.59999847412109375 33.799999237060546875 32.799999237060546875 31.700000762939453125 30.700000762939453125 30.700000762939453125 32.40000152587890625 34 34.90000152587890625 34.700000762939453125 33.90000152587890625 32.59999847412109375 31.5 30.700000762939453125 30.5 31.299999237060546875 31.600000381469726562 30.799999237060546875 31 32.200000762939453125 34 35 
41.09999847412109375 42.59999847412109375 44.299999237060546875 45.799999237060546875 47.5 49.799999237060546875 51.90000152587890625 54.09999847412109375 55.09999847412109375 57.299999237060546875 59.299999237060546875 60.700000762939453125 61.5 62.40000152587890625 63.299999237060546875 64.09999847412109375 64.8000030517578125 65.1999969482421875 65.40000152587890625 65.40000152587890625 64.59999847412109375 65.90000152587890625 65.6999969482421875 65 59.09999847412109375 56.799999237060546875 53.40000152587890625 51.59999847412109375 50.59999847412109375 48.40000152587890625 46.299999237060546875 44.40000152587890625 40 38.299999237060546875 38 41.09999847412109375 43.59999847412109375 47.299999237060546875 43 45.40000152587890625 49.09999847412109375 52 52.799999237060546875 53 50 46.200000762939453125 42.299999237060546875 38.09999847412109375 35 33.200000762939453125 32.700000762939453125 32.59999847412109375 32.90000152587890625 33.299999237060546875 33.59999847412109375 38.40000152587890625 34.40000152587890625 34.90000152587890625 35.200000762939453125 35.700000762939453125 36.299999237060546875 36.90000152587890625 37.700000762939453125 38.40000152587890625 39 39.799999237060546875 41.09999847412109375 42.299999237060546875 43.5 44.59999847412109375 45.40000152587890625 46.200000762939453125 46.59999847412109375 46.90000152587890625 47.299999237060546875 48 49.5 51.09999847412109375 53.5 55.90000152587890625 57.799999237060546875 59 59.40000152587890625 59 58.59999847412109375 58 57.40000152587890625 60.700000762939453125 63.5 67.40000152587890625 69.8000030517578125 70.40000152587890625 72.1999969482421875 74.3000030517578125 76.5 80.59999847412109375 81.8000030517578125 80.09999847412109375 76.8000030517578125 72.8000030517578125 68 64.6999969482421875 62.40000152587890625 60.90000152587890625 57.5 54.299999237060546875 51.200000762939453125 49.799999237060546875 49.59999847412109375 44.40000152587890625 42.90000152587890625 41.5 40.5 39.5 38.200000762939453125 36.5 35.5 33.59999847412109375 32.59999847412109375 32.200000762939453125 31.600000381469726562 31.299999237060546875 31 30.200000762939453125 29.299999237060546875 28.200000762939453125 27.5 26.899999618530273438 26.100000381469726562 25.700000762939453125 24.700000762939453125 24 23.5 23.200000762939453125 23 22.700000762939453125 22.5 22.100000381469726562 21.600000381469726562 21 20.200000762939453125 19.399999618530273438 18.600000381469726562 17.799999237060546875 17 17.299999237060546875 18.600000381469726562 18.5 18.600000381469726562 19.700000762939453125 17.5 18.100000381469726562 18.100000381469726562 18.200000762939453125 18.399999618530273438 18.899999618530273438 19.700000762939453125 20.5 20.899999618530273438 21.200000762939453125 21.399999618530273438 21.100000381469726562 21.200000762939453125 21.399999618530273438 21.5 21.600000381469726562 21.799999237060546875 22 22.600000381469726562 23.399999618530273438 24.299999237060546875 25.700000762939453125 27.299999237060546875 30 33.40000152587890625 35.09999847412109375 35.799999237060546875 35.5 35 34.299999237060546875 33.299999237060546875 32.299999237060546875 31.600000381469726562 32 32.700000762939453125 34.5 35.5 35.700000762939453125 36 34.700000762939453125 33.90000152587890625 33.200000762939453125 32.40000152587890625 33.09999847412109375 32.90000152587890625 31.799999237060546875 31.600000381469726562 31.899999618530273438 32.40000152587890625 34.799999237060546875 
42.09999847412109375 43.799999237060546875 45.299999237060546875 46.299999237060546875 48 50.09999847412109375 52 53.40000152587890625 55.200000762939453125 58 60 61.200000762939453125 62.200000762939453125 63.09999847412109375 64 64.8000030517578125 65.59999847412109375 66.09999847412109375 66.1999969482421875 66.09999847412109375 65.59999847412109375 64.09999847412109375 63.90000152587890625 60.09999847412109375 57.799999237060546875 54.90000152587890625 51.40000152587890625 48.700000762939453125 46.40000152587890625 44.799999237060546875 43.5 42 40.59999847412109375 40.299999237060546875 39.90000152587890625 42.09999847412109375 47.799999237060546875 45 44.90000152587890625 45.09999847412109375 46.700000762939453125 49.200000762939453125 51.09999847412109375 51.59999847412109375 48.59999847412109375 44.59999847412109375 40.5 37 34.299999237060546875 33.700000762939453125 33.09999847412109375 33.200000762939453125 33.59999847412109375 33.90000152587890625 34.200000762939453125 34.700000762939453125 39.09999847412109375 35.299999237060546875 35.40000152587890625 35.799999237060546875 36.40000152587890625 37.200000762939453125 37.90000152587890625 38.5 38.90000152587890625 39.700000762939453125 41.5 42.59999847412109375 43.40000152587890625 44.700000762939453125 45.59999847412109375 46.40000152587890625 47.299999237060546875 48.299999237060546875 49.09999847412109375 50 51.90000152587890625 54.59999847412109375 57.700000762939453125 60.09999847412109375 62.09999847412109375 63 62.700000762939453125 62.5 61.799999237060546875 60.700000762939453125 59.799999237060546875 63.200000762939453125 66.1999969482421875 71.1999969482421875 75.40000152587890625 75.5 76.3000030517578125 79.40000152587890625 81.90000152587890625 85.5 89.1999969482421875 88.09999847412109375 84.1999969482421875 79.6999969482421875 73.8000030517578125 71.3000030517578125 69.59999847412109375 66.90000152587890625 62.40000152587890625 56.299999237060546875 52.799999237060546875 50.799999237060546875 47.799999237060546875 44.40000152587890625 42.799999237060546875 41.40000152587890625 41.09999847412109375 41.200000762939453125 40.90000152587890625 38.90000152587890625 37.200000762939453125 35.09999847412109375 34.09999847412109375 32.90000152587890625 32.200000762939453125 31.799999237060546875 31.5 31.100000381469726562 30.700000762939453125 29.600000381469726562 29 28.100000381469726562 27.200000762939453125 26.399999618530273438 25.5 24.399999618530273438 23.600000381469726562 23.399999618530273438 23.200000762939453125 23.100000381469726562 22.600000381469726562 22.200000762939453125 21.600000381469726562 21 20.200000762939453125 19.399999618530273438 18.5 17.700000762939453125 16.700000762939453125 18 18.200000762939453125 18.399999618530273438 19 19.700000762939453125 19.799999237060546875 18.600000381469726562 18.299999237060546875 18.299999237060546875 18.600000381469726562 19 19.899999618530273438 20.700000762939453125 21.299999237060546875 21.5 21.700000762939453125 21.399999618530273438 21.5 21.600000381469726562 21.799999237060546875 21.899999618530273438 22.100000381469726562 22.5 23 24 24.899999618530273438 26.200000762939453125 27.799999237060546875 30.799999237060546875 33.90000152587890625 35.40000152587890625 36.200000762939453125 36 35.299999237060546875 34.700000762939453125 33.90000152587890625 33.09999847412109375 32.799999237060546875 33.200000762939453125 33.299999237060546875 34.799999237060546875 36 36.799999237060546875 37.40000152587890625 36.90000152587890625 36.200000762939453125 35.5 34.799999237060546875 34.59999847412109375 34.5 34 32.90000152587890625 32.299999237060546875 32.90000152587890625 35.09999847412109375 
43.200000762939453125 45.200000762939453125 46.5 47.200000762939453125 48.59999847412109375 50.09999847412109375 52.299999237060546875 53.200000762939453125 55.5 58.200000762939453125 60.200000762939453125 61.799999237060546875 62.90000152587890625 63.59999847412109375 64.40000152587890625 65.3000030517578125 66.09999847412109375 66.6999969482421875 66.90000152587890625 66.6999969482421875 66.1999969482421875 65.3000030517578125 62.200000762939453125 58.90000152587890625 56 53.59999847412109375 50.700000762939453125 49 45.90000152587890625 43.799999237060546875 42.299999237060546875 41.40000152587890625 40 40.5 41.799999237060546875 47.799999237060546875 46.799999237060546875 45.90000152587890625 46.299999237060546875 47.200000762939453125 47.299999237060546875 47.299999237060546875 48.299999237060546875 48.299999237060546875 46 42.90000152587890625 38.90000152587890625 36 34.59999847412109375 34.09999847412109375 33.700000762939453125 33.799999237060546875 34.200000762939453125 34.5 34.700000762939453125 35 35.700000762939453125 36.40000152587890625 36.5 36.40000152587890625 37.09999847412109375 37.700000762939453125 38.299999237060546875 38.700000762939453125 39.09999847412109375 40.09999847412109375 41.59999847412109375 42.799999237060546875 43.40000152587890625 44.59999847412109375 45.799999237060546875 46.700000762939453125 48 49.200000762939453125 50.299999237060546875 52.799999237060546875 54.700000762939453125 57.799999237060546875 61 64.3000030517578125 66.09999847412109375 66.40000152587890625 66 65.5 64.6999969482421875 64.1999969482421875 63.40000152587890625 66.1999969482421875 69.1999969482421875 74 82 80.59999847412109375 80.8000030517578125 83.6999969482421875 87.1999969482421875 91 96.3000030517578125 96.5 93 85.40000152587890625 79.90000152587890625 77.1999969482421875 76 74.09999847412109375 68 60.299999237060546875 55.59999847412109375 51.90000152587890625 48.299999237060546875 44.40000152587890625 42.799999237060546875 42.59999847412109375 42.40000152587890625 43.5 44.40000152587890625 42.90000152587890625 40.5 37.90000152587890625 36 34.90000152587890625 33.90000152587890625 33.5 33.299999237060546875 32.40000152587890625 32.200000762939453125 31.200000762939453125 30.100000381469726562 29.100000381469726562 28.200000762939453125 26.899999618530273438 25.5 24.5 24.299999237060546875 24.299999237060546875 24.100000381469726562 23.700000762939453125 23.200000762939453125 22.600000381469726562 22 21.100000381469726562 20.200000762939453125 19.299999237060546875 18.5 17.799999237060546875 13.600000381469726562 18.600000381469726562 17.5 18.299999237060546875 19.200000762939453125 20.299999237060546875 19.799999237060546875 18.899999618530273438 18.700000762939453125 18.5 18.700000762939453125 19.200000762939453125 19.899999618530273438 20.700000762939453125 21.399999618530273438 21.899999618530273438 21.899999618530273438 21.700000762939453125 21.799999237060546875 21.899999618530273438 22.100000381469726562 22.299999237060546875 22.5 23.100000381469726562 23.700000762939453125 24.899999618530273438 26 27.700000762939453125 29.399999618530273438 31.899999618530273438 34.5 35.90000152587890625 36.59999847412109375 36.40000152587890625 35.799999237060546875 35.09999847412109375 34.59999847412109375 33.799999237060546875 34.09999847412109375 34.40000152587890625 34.5 35.09999847412109375 36.700000762939453125 37.700000762939453125 38.59999847412109375 38.700000762939453125 38 37.90000152587890625 37.5 37 36.59999847412109375 35.799999237060546875 34.700000762939453125 33.90000152587890625 34.200000762939453125 35.700000762939453125 
44.200000762939453125 46.5 47.799999237060546875 48.59999847412109375 49.40000152587890625 50.700000762939453125 52.59999847412109375 53.40000152587890625 55.700000762939453125 57.799999237060546875 60.09999847412109375 61.799999237060546875 63.5 64.09999847412109375 64.8000030517578125 65.6999969482421875 66.5 67.3000030517578125 67.6999969482421875 67.40000152587890625 66.5 65.59999847412109375 61 57.5 54.5 52 50.90000152587890625 49.299999237060546875 45.90000152587890625 44 43.09999847412109375 41.700000762939453125 40.799999237060546875 40.90000152587890625 41.299999237060546875 46.59999847412109375 45.59999847412109375 46.40000152587890625 47.200000762939453125 47.700000762939453125 48.5 47.200000762939453125 46 44.09999847412109375 42.90000152587890625 40.40000152587890625 37.299999237060546875 35.200000762939453125 34.90000152587890625 34.5 34.700000762939453125 34.40000152587890625 34.700000762939453125 34.90000152587890625 35.200000762939453125 35.40000152587890625 35.799999237060546875 40.40000152587890625 37.40000152587890625 37 37.700000762939453125 38.299999237060546875 38.799999237060546875 39.299999237060546875 39.5 40.700000762939453125 41.59999847412109375 43.40000152587890625 44.09999847412109375 45.09999847412109375 46.299999237060546875 47.5 48.799999237060546875 50.200000762939453125 51.799999237060546875 54.40000152587890625 57.799999237060546875 62 65.90000152587890625 69.5 69.90000152587890625 69.1999969482421875 68.40000152587890625 68.09999847412109375 67.6999969482421875 66.59999847412109375 65.6999969482421875 70.09999847412109375 76.90000152587890625 75.5 86.6999969482421875 88.8000030517578125 88.3000030517578125 89.90000152587890625 92 95.8000030517578125 99.3000030517578125 97.5 94.09999847412109375 89.1999969482421875 83.59999847412109375 80.09999847412109375 77.59999847412109375 76 70.3000030517578125 62 56.40000152587890625 52.200000762939453125 49.799999237060546875 44 43.40000152587890625 43.09999847412109375 43.5 45.5 47.59999847412109375 47.200000762939453125 43.799999237060546875 41.5 39.5 37.5 36.200000762939453125 36 35 33.40000152587890625 33.09999847412109375 32 30.899999618530273438 29.600000381469726562 28.100000381469726562 26.600000381469726562 25.5 25.600000381469726562 25.700000762939453125 25.700000762939453125 25.600000381469726562 24.700000762939453125 23.600000381469726562 23.100000381469726562 22.5 21.5 20.200000762939453125 19.100000381469726562 18.100000381469726562 17.200000762939453125 17.700000762939453125 18.899999618530273438 17.600000381469726562 18.399999618530273438 18.799999237060546875 22 20.100000381469726562 18.799999237060546875 18.5 18.799999237060546875 18.799999237060546875 19.299999237060546875 20.100000381469726562 20.799999237060546875 21.399999618530273438 21.899999618530273438 22.100000381469726562 22 22.100000381469726562 22.200000762939453125 22.299999237060546875 22.5 22.899999618530273438 23.5 24.899999618530273438 26.200000762939453125 27.799999237060546875 29.799999237060546875 32 34.200000762939453125 36.5 37.200000762939453125 37.5 37 36.40000152587890625 35.59999847412109375 35.09999847412109375 34.40000152587890625 35.200000762939453125 35.5 35.200000762939453125 35.40000152587890625 36.59999847412109375 37.90000152587890625 39 39.799999237060546875 39.799999237060546875 39.700000762939453125 39.5 39.09999847412109375 38.5 37.5 36.40000152587890625 35.40000152587890625 34.799999237060546875 35.09999847412109375 
45.200000762939453125 46.90000152587890625 49.799999237060546875 50 50.5 51.700000762939453125 52.700000762939453125 53.299999237060546875 54.90000152587890625 56.799999237060546875 59.40000152587890625 61.40000152587890625 63 64.40000152587890625 65.1999969482421875 66.09999847412109375 67.09999847412109375 67.6999969482421875 68.1999969482421875 67.09999847412109375 65.09999847412109375 63.200000762939453125 58.90000152587890625 55.799999237060546875 53.09999847412109375 51.09999847412109375 49.59999847412109375 47.5 45.90000152587890625 44.5 43 41.90000152587890625 41.799999237060546875 43.90000152587890625 44 43.5 44.799999237060546875 46.09999847412109375 47.200000762939453125 47.700000762939453125 47.5 46.59999847412109375 43.799999237060546875 41.299999237060546875 39.59999847412109375 37.90000152587890625 35.90000152587890625 35.299999237060546875 35.299999237060546875 36.09999847412109375 36.200000762939453125 35.700000762939453125 35.299999237060546875 35.5 35.700000762939453125 36 36.299999237060546875 36.700000762939453125 40.90000152587890625 37.700000762939453125 38.40000152587890625 38.90000152587890625 39.5 40 40.59999847412109375 41.200000762939453125 41.90000152587890625 44 45.09999847412109375 46 47.200000762939453125 48.40000152587890625 49.799999237060546875 51.09999847412109375 53.59999847412109375 56.40000152587890625 60.90000152587890625 66.09999847412109375 71.8000030517578125 74.40000152587890625 72.8000030517578125 71.6999969482421875 70.59999847412109375 70.40000152587890625 70.3000030517578125 70.40000152587890625 68.59999847412109375 72.09999847412109375 81.40000152587890625 82.6999969482421875 90.90000152587890625 94.90000152587890625 94.8000030517578125 95.3000030517578125 97.8000030517578125 100.59999847412109375 98.8000030517578125 93.90000152587890625 89.90000152587890625 87.59999847412109375 82.6999969482421875 80.40000152587890625 76.1999969482421875 74.1999969482421875 69.59999847412109375 62.90000152587890625 56.5 51.799999237060546875 50.09999847412109375 45.5 44.200000762939453125 43.40000152587890625 43.40000152587890625 45.200000762939453125 47.5 48 46.700000762939453125 44.40000152587890625 42.40000152587890625 40.299999237060546875 38.799999237060546875 37.59999847412109375 36.40000152587890625 34.299999237060546875 33.5 32.299999237060546875 30.899999618530273438 29 27.100000381469726562 26.399999618530273438 26.399999618530273438 26.700000762939453125 27.600000381469726562 27.799999237060546875 27.200000762939453125 26 25 23.799999237060546875 22.899999618530273438 21.799999237060546875 20.399999618530273438 19.200000762939453125 18.299999237060546875 17.299999237060546875 17.899999618530273438 19 18.5 19.100000381469726562 19.200000762939453125 20 23.399999618530273438 19.799999237060546875 18.899999618530273438 19.100000381469726562 19.200000762939453125 19.299999237060546875 20.100000381469726562 20.799999237060546875 21.200000762939453125 22 22.299999237060546875 22.299999237060546875 22.299999237060546875 22.600000381469726562 22.700000762939453125 22.899999618530273438 23.299999237060546875 24.5 26.600000381469726562 28.899999618530273438 31.5 33.59999847412109375 35.299999237060546875 37.40000152587890625 38.40000152587890625 38.40000152587890625 38.40000152587890625 37.799999237060546875 36.90000152587890625 36.09999847412109375 35.700000762939453125 35.59999847412109375 36.299999237060546875 36.5 36.200000762939453125 36.299999237060546875 37.200000762939453125 38.40000152587890625 39.700000762939453125 40.59999847412109375 41.299999237060546875 41.299999237060546875 41.200000762939453125 40.90000152587890625 40.299999237060546875 39.5 38.59999847412109375 37.40000152587890625 36.09999847412109375 35.299999237060546875 
48.299999237060546875 43.59999847412109375 43.5 47.799999237060546875 50.40000152587890625 52.09999847412109375 52.700000762939453125 53 54.299999237060546875 55.90000152587890625 58.90000152587890625 60.59999847412109375 62.09999847412109375 63.5 65.3000030517578125 66.59999847412109375 67.6999969482421875 68.1999969482421875 68.5 66.40000152587890625 64.3000030517578125 60.700000762939453125 56.40000152587890625 52.90000152587890625 51.40000152587890625 49.5 47.90000152587890625 45.90000152587890625 43.40000152587890625 42.59999847412109375 41.40000152587890625 42.59999847412109375 42.799999237060546875 47.40000152587890625 43.200000762939453125 43.59999847412109375 44.700000762939453125 45.700000762939453125 47.09999847412109375 47.09999847412109375 46.299999237060546875 44.40000152587890625 42.09999847412109375 40 38 36.59999847412109375 35.90000152587890625 36.200000762939453125 37.09999847412109375 37.90000152587890625 37.59999847412109375 36.700000762939453125 36.09999847412109375 36.09999847412109375 36.299999237060546875 36.700000762939453125 37.09999847412109375 37.5 38 37.799999237060546875 38.90000152587890625 39.700000762939453125 40.200000762939453125 40.700000762939453125 41.299999237060546875 41.90000152587890625 43 44.59999847412109375 45.59999847412109375 47 48.200000762939453125 49.40000152587890625 50.799999237060546875 52.5 54.700000762939453125 58 62.40000152587890625 68.09999847412109375 73.5 75.8000030517578125 73.09999847412109375 72.09999847412109375 72.1999969482421875 72.1999969482421875 73 72.40000152587890625 70.6999969482421875 73 77.90000152587890625 86.8000030517578125 93.90000152587890625 97.6999969482421875 99.3000030517578125 100 99.5 99.59999847412109375 95.59999847412109375 90.40000152587890625 85.59999847412109375 82.3000030517578125 79.40000152587890625 76.6999969482421875 73.40000152587890625 69.90000152587890625 66.1999969482421875 60.40000152587890625 55.90000152587890625 51.40000152587890625 49.90000152587890625 45.5 44.09999847412109375 43.299999237060546875 43 44.09999847412109375 45 47.09999847412109375 47.59999847412109375 46 43.90000152587890625 41.700000762939453125 39.700000762939453125 38.299999237060546875 37 35 34.200000762939453125 31.799999237060546875 30 28.100000381469726562 27.5 27.799999237060546875 28.700000762939453125 29.399999618530273438 30 30.5 28.700000762939453125 27.399999618530273438 26.299999237060546875 24.899999618530273438 23.299999237060546875 21.899999618530273438 20.600000381469726562 19.5 18.700000762939453125 17.799999237060546875 18.299999237060546875 19.5 19.399999618530273438 19.5 19.600000381469726562 20.299999237060546875 20.600000381469726562 20.899999618530273438 19 19.299999237060546875 19.5 19.600000381469726562 20.100000381469726562 20.600000381469726562 21.299999237060546875 22.100000381469726562 22.600000381469726562 22.5 22.600000381469726562 22.899999618530273438 23.100000381469726562 23.299999237060546875 23.799999237060546875 25.200000762939453125 28.100000381469726562 31.200000762939453125 34.59999847412109375 37.200000762939453125 38.200000762939453125 39.40000152587890625 39.59999847412109375 39.700000762939453125 39.09999847412109375 38.40000152587890625 37.40000152587890625 36.5 36 36.59999847412109375 37.5 37.799999237060546875 37.09999847412109375 36.90000152587890625 37.90000152587890625 39.09999847412109375 40.40000152587890625 41.5 42.200000762939453125 42.700000762939453125 42.40000152587890625 42.09999847412109375 41.40000152587890625 40.5 39.299999237060546875 38.200000762939453125 37.5 37 
48.59999847412109375 51.299999237060546875 52.5 52.09999847412109375 52.40000152587890625 51.799999237060546875 45.09999847412109375 51.90000152587890625 54.299999237060546875 55.799999237060546875 58 59.5 61.299999237060546875 63.59999847412109375 65.59999847412109375 66.90000152587890625 68.1999969482421875 69 68.1999969482421875 66.1999969482421875 63.299999237060546875 58.700000762939453125 53.5 50.59999847412109375 49.299999237060546875 47.700000762939453125 46.09999847412109375 44.299999237060546875 42.90000152587890625 42.90000152587890625 43.90000152587890625 46.799999237060546875 47.40000152587890625 44.5 44.40000152587890625 44 44.299999237060546875 45.09999847412109375 45.299999237060546875 45.09999847412109375 44 42.299999237060546875 40.09999847412109375 38.09999847412109375 37.09999847412109375 36.299999237060546875 36.299999237060546875 37.40000152587890625 38.40000152587890625 38.5 38.40000152587890625 37.40000152587890625 36.59999847412109375 36.700000762939453125 36.799999237060546875 37.299999237060546875 37.90000152587890625 38.40000152587890625 38.299999237060546875 39.09999847412109375 40 40.40000152587890625 40.799999237060546875 41.40000152587890625 42 42.59999847412109375 44 45.09999847412109375 46.5 47.90000152587890625 49.09999847412109375 50.59999847412109375 51.90000152587890625 54.09999847412109375 56.5 59.90000152587890625 63.700000762939453125 69 73.3000030517578125 74.3000030517578125 73.09999847412109375 73.5 73.6999969482421875 73.90000152587890625 74 73.3000030517578125 72 73.8000030517578125 77.09999847412109375 84.09999847412109375 91 98.8000030517578125 102 101.1999969482421875 99.6999969482421875 95.09999847412109375 91.40000152587890625 87.3000030517578125 82.3000030517578125 77.6999969482421875 74.59999847412109375 71.6999969482421875 69.09999847412109375 66.09999847412109375 62.09999847412109375 58 54.299999237060546875 50.90000152587890625 49.299999237060546875 45.5 44.200000762939453125 42.90000152587890625 42.799999237060546875 42.90000152587890625 43.299999237060546875 45 47.59999847412109375 46.90000152587890625 44.90000152587890625 42.299999237060546875 39.5 38 36.700000762939453125 34.90000152587890625 32.90000152587890625 30.899999618530273438 29 28.700000762939453125 29 29.799999237060546875 31 32.200000762939453125 32.299999237060546875 32.5 29.899999618530273438 28.299999237060546875 27 25.100000381469726562 23.5 22 20.799999237060546875 19.700000762939453125 19 18.399999618530273438 14.699999809265136719 19.600000381469726562 19.799999237060546875 19.899999618530273438 20 20 20.200000762939453125 21.600000381469726562 20 19.700000762939453125 19.899999618530273438 19.899999618530273438 20.100000381469726562 20.600000381469726562 21.200000762939453125 21.899999618530273438 22.5 23 23 23.200000762939453125 23.5 23.700000762939453125 24.399999618530273438 26.200000762939453125 29.299999237060546875 33.09999847412109375 37.200000762939453125 39.90000152587890625 40.40000152587890625 40.59999847412109375 40.700000762939453125 40.200000762939453125 39.59999847412109375 38.90000152587890625 38.5 38 37.90000152587890625 38.200000762939453125 38.59999847412109375 39 38.59999847412109375 38.09999847412109375 38.90000152587890625 40.09999847412109375 41.09999847412109375 42.299999237060546875 43.09999847412109375 43.200000762939453125 43 42.40000152587890625 41.200000762939453125 40.40000152587890625 39.09999847412109375 38.299999237060546875 37.799999237060546875 37.799999237060546875 
49.700000762939453125 51.799999237060546875 52.59999847412109375 53.200000762939453125 53.5 53.200000762939453125 54.700000762939453125 55.299999237060546875 51.40000152587890625 46.09999847412109375 48.90000152587890625 53.90000152587890625 61.200000762939453125 63.700000762939453125 65.90000152587890625 67.3000030517578125 68.6999969482421875 68.8000030517578125 67.6999969482421875 65.90000152587890625 60.90000152587890625 55.299999237060546875 51.700000762939453125 48.90000152587890625 47.40000152587890625 46.299999237060546875 45.299999237060546875 44.700000762939453125 44.09999847412109375 48.700000762939453125 46.799999237060546875 47.299999237060546875 48.59999847412109375 44.90000152587890625 44.5 44.200000762939453125 44 43.40000152587890625 43.09999847412109375 42.5 41.799999237060546875 40.299999237060546875 38.5 37.299999237060546875 37 36.90000152587890625 38.299999237060546875 39.09999847412109375 39.59999847412109375 39.59999847412109375 38.799999237060546875 37.90000152587890625 37.09999847412109375 37.200000762939453125 37.40000152587890625 37.90000152587890625 38.59999847412109375 39 39.299999237060546875 39.59999847412109375 43.299999237060546875 40.90000152587890625 41.700000762939453125 42.200000762939453125 42.59999847412109375 43.40000152587890625 45.799999237060546875 46.200000762939453125 47.40000152587890625 48.90000152587890625 50.40000152587890625 51.90000152587890625 54 56.59999847412109375 60.5 64 66.59999847412109375 69.59999847412109375 72.1999969482421875 73.8000030517578125 74.1999969482421875 75.1999969482421875 75.6999969482421875 75.40000152587890625 75.1999969482421875 75.09999847412109375 74 74.09999847412109375 79.09999847412109375 86 92.59999847412109375 98.5 102.6999969482421875 100.6999969482421875 96.09999847412109375 90.40000152587890625 86.3000030517578125 83.6999969482421875 80.3000030517578125 77.40000152587890625 73.09999847412109375 70.40000152587890625 66.09999847412109375 62.59999847412109375 58.59999847412109375 56.200000762939453125 53 50.299999237060546875 49.200000762939453125 45.40000152587890625 44.200000762939453125 43.09999847412109375 42.09999847412109375 41.5 41.40000152587890625 43.200000762939453125 45 45.59999847412109375 43.59999847412109375 40.90000152587890625 38.40000152587890625 36.799999237060546875 35.299999237060546875 33.200000762939453125 31 29.700000762939453125 29.5 30.100000381469726562 31 32.09999847412109375 33.59999847412109375 34 34 33.200000762939453125 31.100000381469726562 29.299999237060546875 27.100000381469726562 25.399999618530273438 23.700000762939453125 22.200000762939453125 21.100000381469726562 20 19.100000381469726562 18.299999237060546875 16.200000762939453125 19.799999237060546875 20.100000381469726562 20.299999237060546875 20.299999237060546875 20.399999618530273438 20.5 20.899999618530273438 21.5 20.299999237060546875 20.299999237060546875 20.100000381469726562 20.299999237060546875 20.700000762939453125 21.200000762939453125 21.799999237060546875 22.5 23.299999237060546875 23.399999618530273438 23.600000381469726562 24.100000381469726562 24.5 25.700000762939453125 27.700000762939453125 31.100000381469726562 35.59999847412109375 39.299999237060546875 41.200000762939453125 41.700000762939453125 41.59999847412109375 41.40000152587890625 41.09999847412109375 40.59999847412109375 40 39.59999847412109375 39.200000762939453125 39 39.299999237060546875 39.700000762939453125 40 39.799999237060546875 39.09999847412109375 39.90000152587890625 41.09999847412109375 42.299999237060546875 43.200000762939453125 43.59999847412109375 43.700000762939453125 43.299999237060546875 42.299999237060546875 41 39.799999237060546875 38.90000152587890625 38.09999847412109375 38.59999847412109375 38.90000152587890625 
50.90000152587890625 52 53.200000762939453125 54.299999237060546875 54.200000762939453125 54.200000762939453125 56 56.799999237060546875 57.90000152587890625 59 59.200000762939453125 58.40000152587890625 63.59999847412109375 64.90000152587890625 66.6999969482421875 67.8000030517578125 68.59999847412109375 68.3000030517578125 66.90000152587890625 64.6999969482421875 54.40000152587890625 53.5 51.09999847412109375 48 48.200000762939453125 49.799999237060546875 51.90000152587890625 50.200000762939453125 48.200000762939453125 46.799999237060546875 47.200000762939453125 47.40000152587890625 49.59999847412109375 46.200000762939453125 45.5 44.799999237060546875 44 43.200000762939453125 42.299999237060546875 41.299999237060546875 40.200000762939453125 38.90000152587890625 37.700000762939453125 36.90000152587890625 37 38.200000762939453125 40.200000762939453125 41 40.59999847412109375 39.799999237060546875 39 38.200000762939453125 37.700000762939453125 37.59999847412109375 38 38.5 39.299999237060546875 40.200000762939453125 40.299999237060546875 40.5 41.299999237060546875 44.09999847412109375 42 42.59999847412109375 43.200000762939453125 46.700000762939453125 45.90000152587890625 46.59999847412109375 48.09999847412109375 49.799999237060546875 51.90000152587890625 53.90000152587890625 56.700000762939453125 59.799999237060546875 64.5 68.1999969482421875 70.59999847412109375 72.1999969482421875 73.90000152587890625 75.6999969482421875 76.6999969482421875 77.6999969482421875 77.8000030517578125 77.3000030517578125 77 76.6999969482421875 75.5 75.90000152587890625 79.09999847412109375 85.1999969482421875 92.5 99.1999969482421875 102.09999847412109375 99.09999847412109375 93.40000152587890625 87.3000030517578125 82.3000030517578125 80 78.3000030517578125 76.5 74.5 71.59999847412109375 66.09999847412109375 61.799999237060546875 57.700000762939453125 54.700000762939453125 51.799999237060546875 50.40000152587890625 48.09999847412109375 45.5 44.40000152587890625 43.40000152587890625 42.5 41.5 40.09999847412109375 40.09999847412109375 41.09999847412109375 42.299999237060546875 40.799999237060546875 39.09999847412109375 36.5 35 34.09999847412109375 32.299999237060546875 31.299999237060546875 31 31.5 32.40000152587890625 33.5 34.59999847412109375 35.59999847412109375 35.90000152587890625 35.40000152587890625 34 31.799999237060546875 29.299999237060546875 27.200000762939453125 25.600000381469726562 23.899999618530273438 22.200000762939453125 20.899999618530273438 19.600000381469726562 19 18.200000762939453125 18.799999237060546875 20.799999237060546875 20.700000762939453125 20.600000381469726562 20.600000381469726562 20.700000762939453125 20.899999618530273438 21.399999618530273438 22 22.100000381469726562 20.600000381469726562 20.399999618530273438 20.600000381469726562 20.899999618530273438 21.200000762939453125 21.799999237060546875 22.600000381469726562 23.5 23.899999618530273438 24.200000762939453125 24.700000762939453125 25.899999618530273438 27.299999237060546875 29.100000381469726562 34.200000762939453125 38.59999847412109375 41.90000152587890625 42.59999847412109375 43.59999847412109375 42.700000762939453125 42.40000152587890625 42.09999847412109375 41.59999847412109375 41.200000762939453125 40.700000762939453125 40.299999237060546875 40.200000762939453125 40.5 40.700000762939453125 41 40.700000762939453125 40.299999237060546875 40.799999237060546875 42.09999847412109375 43.09999847412109375 43.799999237060546875 44.09999847412109375 43.90000152587890625 43.5 42.5 41.299999237060546875 40 38.700000762939453125 38.5 39.299999237060546875 40.200000762939453125 
51.59999847412109375 51.799999237060546875 52.799999237060546875 54.09999847412109375 54.700000762939453125 55.09999847412109375 56.5 58.09999847412109375 59.200000762939453125 60.200000762939453125 60.799999237060546875 62.299999237060546875 63.59999847412109375 65.5 66.59999847412109375 67.3000030517578125 68 66.8000030517578125 65.1999969482421875 60.700000762939453125 54.5 51.299999237060546875 49.200000762939453125 48.59999847412109375 47.90000152587890625 48.09999847412109375 48.59999847412109375 47.09999847412109375 49.5 49.40000152587890625 52.09999847412109375 49.40000152587890625 51.200000762939453125 48.299999237060546875 47.09999847412109375 45.700000762939453125 43.90000152587890625 43 42.299999237060546875 40.5 39.5 38.40000152587890625 37.700000762939453125 37.299999237060546875 37.299999237060546875 38.59999847412109375 40.90000152587890625 43 41.799999237060546875 40 39.299999237060546875 38.59999847412109375 38.40000152587890625 38.200000762939453125 38.299999237060546875 39 39.700000762939453125 40.799999237060546875 41.09999847412109375 41.40000152587890625 42.09999847412109375 43.40000152587890625 44 43 45.59999847412109375 45.299999237060546875 46.299999237060546875 47.299999237060546875 48.799999237060546875 50.90000152587890625 53.59999847412109375 55.799999237060546875 59.09999847412109375 63.299999237060546875 68.6999969482421875 73.6999969482421875 76 76.8000030517578125 78.1999969482421875 79.5 80.1999969482421875 81 81.1999969482421875 81 80.5 78.90000152587890625 77.5 78.3000030517578125 80.3000030517578125 86.5 94.3000030517578125 102.40000152587890625 100.8000030517578125 97 90.6999969482421875 85.5 80 76.40000152587890625 74.90000152587890625 75.3000030517578125 74.90000152587890625 72.90000152587890625 68.1999969482421875 62 57.90000152587890625 54.40000152587890625 51.09999847412109375 49.799999237060546875 48.299999237060546875 46.40000152587890625 44.799999237060546875 43.700000762939453125 43.09999847412109375 41.799999237060546875 39.90000152587890625 38.299999237060546875 38.200000762939453125 38.40000152587890625 37.200000762939453125 35.90000152587890625 34.59999847412109375 34.299999237060546875 33.5 32.90000152587890625 33.5 33.700000762939453125 33.799999237060546875 34.90000152587890625 36.09999847412109375 36.799999237060546875 36.799999237060546875 36.59999847412109375 36.299999237060546875 34.5 32.40000152587890625 29.899999618530273438 27.600000381469726562 25.899999618530273438 24.100000381469726562 22.5 21.200000762939453125 20 19.100000381469726562 18.299999237060546875 19.899999618530273438 21 21.600000381469726562 21 20.899999618530273438 21 21.200000762939453125 21.399999618530273438 22 21 22.299999237060546875 21.299999237060546875 21.399999618530273438 21.600000381469726562 21.700000762939453125 21.899999618530273438 22.700000762939453125 23.600000381469726562 24.299999237060546875 24.899999618530273438 26.200000762939453125 27.5 29 32.09999847412109375 36.700000762939453125 41.5 44.200000762939453125 44.700000762939453125 44.5 43.799999237060546875 43.299999237060546875 42.799999237060546875 42.59999847412109375 42.09999847412109375 41.700000762939453125 41.09999847412109375 41.299999237060546875 41.5 41.700000762939453125 41.90000152587890625 41.799999237060546875 41.59999847412109375 41.5 42.200000762939453125 43.200000762939453125 44.09999847412109375 44.200000762939453125 43.90000152587890625 43.5 42.700000762939453125 41.5 40.200000762939453125 39.5 39.700000762939453125 40.700000762939453125 41.59999847412109375 
52.200000762939453125 52.5 52.700000762939453125 53.90000152587890625 55.299999237060546875 55.90000152587890625 57.299999237060546875 58.799999237060546875 59.59999847412109375 60.799999237060546875 62.299999237060546875 63.5 64.8000030517578125 66.09999847412109375 66.5 66.6999969482421875 67.40000152587890625 65.1999969482421875 61.299999237060546875 57 53.40000152587890625 49.90000152587890625 48.5 47.299999237060546875 47.09999847412109375 49.09999847412109375 49.90000152587890625 49.700000762939453125 50.90000152587890625 52.59999847412109375 54.40000152587890625 55 52.299999237060546875 50.90000152587890625 49.299999237060546875 47.200000762939453125 43.799999237060546875 42.5 42.09999847412109375 40.90000152587890625 39.40000152587890625 38.5 37.90000152587890625 37.799999237060546875 37.799999237060546875 38.799999237060546875 41.299999237060546875 42.90000152587890625 41.90000152587890625 40.40000152587890625 39.700000762939453125 39.09999847412109375 38.90000152587890625 38.799999237060546875 39.200000762939453125 39.90000152587890625 40.59999847412109375 41.40000152587890625 41.90000152587890625 42.299999237060546875 43.200000762939453125 44.09999847412109375 44.799999237060546875 45.200000762939453125 49.5 45.90000152587890625 47.40000152587890625 48.5 50.09999847412109375 52.700000762939453125 55.40000152587890625 57.90000152587890625 61.799999237060546875 66.8000030517578125 72.6999969482421875 78 81 81.59999847412109375 82.3000030517578125 83.40000152587890625 84.40000152587890625 84.8000030517578125 85 85.09999847412109375 84.5 82.3000030517578125 80.3000030517578125 79.6999969482421875 83.1999969482421875 88.90000152587890625 96.5 102.40000152587890625 99.90000152587890625 95.8000030517578125 89.6999969482421875 83.09999847412109375 78.3000030517578125 74.5 72 70.6999969482421875 71 69.09999847412109375 65.8000030517578125 60.299999237060546875 55.90000152587890625 52.5 50.59999847412109375 49.59999847412109375 48.5 46 44.700000762939453125 43.5 42.299999237060546875 40.799999237060546875 40 38.700000762939453125 37.799999237060546875 37.299999237060546875 36.40000152587890625 35.700000762939453125 35.09999847412109375 35.09999847412109375 35.200000762939453125 34.90000152587890625 35.09999847412109375 35.59999847412109375 35.59999847412109375 36.299999237060546875 37.200000762939453125 37.299999237060546875 37.299999237060546875 37.09999847412109375 36.299999237060546875 34.799999237060546875 32.799999237060546875 30.399999618530273438 28.299999237060546875 26 23.799999237060546875 22.700000762939453125 21.200000762939453125 19.899999618530273438 19.399999618530273438 17.299999237060546875 20.399999618530273438 21.399999618530273438 21.899999618530273438 21.399999618530273438 21.100000381469726562 21.299999237060546875 21.399999618530273438 21.399999618530273438 21.700000762939453125 22.600000381469726562 22.799999237060546875 22.5 22 21.899999618530273438 21.899999618530273438 21.899999618530273438 22.5 23.600000381469726562 24.5 25.700000762939453125 27 28.399999618530273438 30.200000762939453125 33.299999237060546875 37.700000762939453125 43.40000152587890625 45.799999237060546875 45.299999237060546875 44.799999237060546875 44.299999237060546875 43.90000152587890625 43.59999847412109375 43.299999237060546875 43.09999847412109375 42.59999847412109375 42.09999847412109375 42.299999237060546875 42.5 42.799999237060546875 43.09999847412109375 43.09999847412109375 42.90000152587890625 42.799999237060546875 42.59999847412109375 43.200000762939453125 44 44.09999847412109375 43.799999237060546875 43.299999237060546875 42.700000762939453125 41.700000762939453125 41.200000762939453125 40.799999237060546875 41 42.09999847412109375 42.90000152587890625 
51.799999237060546875 52.40000152587890625 53.200000762939453125 54.200000762939453125 55.299999237060546875 56.59999847412109375 58.299999237060546875 59.299999237060546875 60.200000762939453125 61.59999847412109375 63 64.40000152587890625 65.6999969482421875 66.90000152587890625 67.59999847412109375 67.6999969482421875 66.09999847412109375 62.200000762939453125 58.799999237060546875 55.59999847412109375 52.59999847412109375 50.700000762939453125 49.200000762939453125 49.09999847412109375 49.799999237060546875 52 54.59999847412109375 56 58 59.59999847412109375 60.700000762939453125 60.200000762939453125 56.299999237060546875 54.200000762939453125 50.59999847412109375 48.5 45.5 42 40.700000762939453125 40.299999237060546875 39.299999237060546875 38.90000152587890625 38.5 38.5 38.59999847412109375 38.700000762939453125 40.700000762939453125 42.200000762939453125 41.799999237060546875 40.700000762939453125 39.799999237060546875 39.200000762939453125 39.5 39.299999237060546875 39.59999847412109375 40.40000152587890625 41.200000762939453125 41.90000152587890625 42.40000152587890625 43.299999237060546875 44.299999237060546875 45.5 46.40000152587890625 49.799999237060546875 45.5 46.40000152587890625 48.09999847412109375 49.59999847412109375 51 53.700000762939453125 56.59999847412109375 59.90000152587890625 64 68.90000152587890625 74.1999969482421875 78.90000152587890625 82.59999847412109375 84.1999969482421875 86.3000030517578125 88.40000152587890625 89.59999847412109375 90.09999847412109375 91 91 88.40000152587890625 86.1999969482421875 82.59999847412109375 83.8000030517578125 87.5 92.59999847412109375 101 101.09999847412109375 98.5 94.8000030517578125 89.6999969482421875 83.6999969482421875 78.59999847412109375 74.09999847412109375 70.5 67.1999969482421875 66 64.3000030517578125 61.700000762939453125 57.799999237060546875 53.90000152587890625 51.5 50 49.299999237060546875 50 45.700000762939453125 44.299999237060546875 43 41.700000762939453125 40.700000762939453125 40.90000152587890625 41.09999847412109375 40.40000152587890625 39.5 39.40000152587890625 38.299999237060546875 37.700000762939453125 37.200000762939453125 37.299999237060546875 36.59999847412109375 37.200000762939453125 37.09999847412109375 36.90000152587890625 37.299999237060546875 36.799999237060546875 36.90000152587890625 36.59999847412109375 36.700000762939453125 36 35 33.09999847412109375 31 28.700000762939453125 26 23.399999618530273438 22.299999237060546875 21.100000381469726562 20 19.200000762939453125 19.899999618530273438 21.200000762939453125 21.700000762939453125 21.899999618530273438 21.5 21.5 21.5 21.700000762939453125 21.700000762939453125 21.799999237060546875 22.200000762939453125 21.799999237060546875 22.899999618530273438 22.700000762939453125 21.899999618530273438 21.799999237060546875 21.799999237060546875 22.600000381469726562 23.600000381469726562 24.700000762939453125 25.899999618530273438 27.600000381469726562 29.299999237060546875 30.799999237060546875 34.09999847412109375 36.700000762939453125 42.40000152587890625 44.799999237060546875 45.700000762939453125 45.09999847412109375 44.799999237060546875 44.5 44.5 44.299999237060546875 44.09999847412109375 43.799999237060546875 43.59999847412109375 43.40000152587890625 43.700000762939453125 44.09999847412109375 44.40000152587890625 44.59999847412109375 44 43.5 43.59999847412109375 44 44.59999847412109375 44.40000152587890625 44 43.5 43.09999847412109375 42.799999237060546875 42.5 42.40000152587890625 42.40000152587890625 43.40000152587890625 44.200000762939453125 
51.299999237060546875 52 53 54.40000152587890625 55.59999847412109375 57.5 59 59.90000152587890625 61.09999847412109375 62.200000762939453125 63.700000762939453125 65 66.1999969482421875 67.09999847412109375 67.5 66.8000030517578125 64.6999969482421875 61 58 55.09999847412109375 53.200000762939453125 51.90000152587890625 50.200000762939453125 55.09999847412109375 53.700000762939453125 57.299999237060546875 60.299999237060546875 62.299999237060546875 64.90000152587890625 66.8000030517578125 67.1999969482421875 65.5 61.200000762939453125 52 52.700000762939453125 49.799999237060546875 46.299999237060546875 42.59999847412109375 40.90000152587890625 40.200000762939453125 39.59999847412109375 39.200000762939453125 38.59999847412109375 38.5 38.40000152587890625 38.90000152587890625 40.59999847412109375 42 41.90000152587890625 41.200000762939453125 40.5 39.90000152587890625 40.09999847412109375 39.90000152587890625 40 40.799999237060546875 41.700000762939453125 42.40000152587890625 43.200000762939453125 44.200000762939453125 45.09999847412109375 46.700000762939453125 48 48.90000152587890625 48.299999237060546875 46.09999847412109375 48.700000762939453125 50.299999237060546875 51.59999847412109375 55 58.299999237060546875 61.700000762939453125 66.3000030517578125 71.1999969482421875 75.6999969482421875 79.8000030517578125 84 87.59999847412109375 91.3000030517578125 93.8000030517578125 95.3000030517578125 97.3000030517578125 100.09999847412109375 99 96.40000152587890625 94 81.3000030517578125 90.5 92.8000030517578125 96.90000152587890625 102.59999847412109375 100.1999969482421875 96.5 92.3000030517578125 87.09999847412109375 82 77.3000030517578125 72.8000030517578125 69.40000152587890625 65.5 62.90000152587890625 60.59999847412109375 57.200000762939453125 55.200000762939453125 53.40000152587890625 51.09999847412109375 50 49.09999847412109375 50.200000762939453125 46.09999847412109375 44.59999847412109375 43.59999847412109375 43.90000152587890625 43.700000762939453125 43.90000152587890625 43.40000152587890625 42.59999847412109375 41.90000152587890625 41.299999237060546875 40.59999847412109375 40.09999847412109375 39.59999847412109375 39.299999237060546875 39 38.299999237060546875 38 37.09999847412109375 35.700000762939453125 35 34.59999847412109375 34.90000152587890625 35.5 35.200000762939453125 34.59999847412109375 33.200000762939453125 31.100000381469726562 28.700000762939453125 26.100000381469726562 23.600000381469726562 22.200000762939453125 21.100000381469726562 20.200000762939453125 17.299999237060546875 20.799999237060546875 21.399999618530273438 21.899999618530273438 22 22 22 22 22 22.100000381469726562 22.100000381469726562 22.399999618530273438 23 23.100000381469726562 21.399999618530273438 21.600000381469726562 21.700000762939453125 22 22.600000381469726562 23.5 24.5 25.700000762939453125 27.100000381469726562 28.799999237060546875 31 33.700000762939453125 37.59999847412109375 42.09999847412109375 44.200000762939453125 45.200000762939453125 45.59999847412109375 45.5 45.59999847412109375 45.700000762939453125 45.59999847412109375 45.299999237060546875 45 44.799999237060546875 44.59999847412109375 44.90000152587890625 45.40000152587890625 45.700000762939453125 45.90000152587890625 45.5 44.700000762939453125 44.5 44.799999237060546875 45.40000152587890625 45.5 45.200000762939453125 44.799999237060546875 44.799999237060546875 44.40000152587890625 44.09999847412109375 44 43.90000152587890625 44.59999847412109375 45.200000762939453125 
49.90000152587890625 51.40000152587890625 52.700000762939453125 53.90000152587890625 54.799999237060546875 57.40000152587890625 59.09999847412109375 59.700000762939453125 60.40000152587890625 62 64 65.5 66.6999969482421875 67.3000030517578125 67.3000030517578125 66.09999847412109375 64.40000152587890625 61.200000762939453125 58.799999237060546875 56.90000152587890625 54.90000152587890625 52.40000152587890625 54.40000152587890625 57.59999847412109375 61.09999847412109375 64 67.3000030517578125 70.90000152587890625 72.6999969482421875 72.40000152587890625 71.40000152587890625 68.8000030517578125 63.799999237060546875 57.40000152587890625 54.700000762939453125 51.09999847412109375 47.09999847412109375 43.59999847412109375 41.59999847412109375 40.799999237060546875 40.200000762939453125 39.40000152587890625 38.799999237060546875 38.799999237060546875 38.90000152587890625 39.299999237060546875 40.799999237060546875 42.59999847412109375 44.200000762939453125 42.5 41.799999237060546875 41.200000762939453125 40.700000762939453125 40.700000762939453125 40.200000762939453125 41.09999847412109375 41.90000152587890625 42.799999237060546875 43.59999847412109375 44.700000762939453125 45.59999847412109375 47 48.299999237060546875 49 49.09999847412109375 49.09999847412109375 46.700000762939453125 50.40000152587890625 53.700000762939453125 56.5 59 62.90000152587890625 67.1999969482421875 71.8000030517578125 76.1999969482421875 80.40000152587890625 85 91 96.09999847412109375 99.1999969482421875 101.8000030517578125 104.40000152587890625 104.90000152587890625 104.8000030517578125 104.40000152587890625 102.90000152587890625 100.1999969482421875 98.6999969482421875 99.8000030517578125 104 102.1999969482421875 99.1999969482421875 94.5 88.6999969482421875 83.3000030517578125 78.6999969482421875 74.5 71.1999969482421875 68.40000152587890625 64.40000152587890625 60.90000152587890625 58.700000762939453125 56.200000762939453125 54.299999237060546875 53.299999237060546875 52 51.90000152587890625 50.59999847412109375 50.90000152587890625 47.09999847412109375 45.799999237060546875 46.09999847412109375 46.700000762939453125 47.299999237060546875 47.09999847412109375 46 45.09999847412109375 44.200000762939453125 43.09999847412109375 42.700000762939453125 42.40000152587890625 41.90000152587890625 41.40000152587890625 40.299999237060546875 39 37.59999847412109375 35.40000152587890625 33.200000762939453125 32.40000152587890625 32.200000762939453125 32.5 33.200000762939453125 34.09999847412109375 33.799999237060546875 33 31.200000762939453125 28.700000762939453125 26.200000762939453125 23.899999618530273438 22.100000381469726562 20.799999237060546875 20 20.700000762939453125 21.399999618530273438 21.700000762939453125 22.100000381469726562 22.299999237060546875 22.399999618530273438 22.5 22.5 22.399999618530273438 22.299999237060546875 22.399999618530273438 22.299999237060546875 22.799999237060546875 22.5 22.899999618530273438 22 21.600000381469726562 22 22.600000381469726562 23.399999618530273438 24.299999237060546875 25.399999618530273438 26.600000381469726562 28 30.5 32.700000762939453125 38 42.5 43.59999847412109375 45 45.40000152587890625 46.40000152587890625 46.5 46.59999847412109375 46.700000762939453125 46.40000152587890625 46.200000762939453125 45.90000152587890625 45.799999237060546875 46.299999237060546875 46.700000762939453125 46.90000152587890625 47.200000762939453125 46.90000152587890625 46.299999237060546875 45.90000152587890625 45.90000152587890625 46.299999237060546875 46.59999847412109375 46.40000152587890625 46.59999847412109375 46.700000762939453125 46.799999237060546875 46.59999847412109375 45.700000762939453125 45.59999847412109375 45.90000152587890625 45.700000762939453125 
48.799999237060546875 50.700000762939453125 51.90000152587890625 52.799999237060546875 53.59999847412109375 55.59999847412109375 57.5 58.59999847412109375 59.5 61.799999237060546875 63.59999847412109375 65.3000030517578125 66.5 67.1999969482421875 67 65.3000030517578125 63.59999847412109375 61.799999237060546875 60.09999847412109375 55 54.200000762939453125 57.09999847412109375 60.5 64.5 67.6999969482421875 70.8000030517578125 74.1999969482421875 77 76.6999969482421875 75.59999847412109375 73.1999969482421875 69.90000152587890625 64.59999847412109375 59.40000152587890625 53.799999237060546875 50.5 46.40000152587890625 43.90000152587890625 42.5 41.799999237060546875 41.09999847412109375 40.09999847412109375 39.700000762939453125 39.59999847412109375 39.5 40.200000762939453125 42.200000762939453125 44.799999237060546875 45.90000152587890625 44 42.90000152587890625 42.40000152587890625 42 41.5 41 41.200000762939453125 42.09999847412109375 43 43.700000762939453125 44.799999237060546875 46 47.40000152587890625 48.59999847412109375 49.799999237060546875 50.200000762939453125 50.200000762939453125 50.799999237060546875 48.299999237060546875 52.40000152587890625 56.799999237060546875 59.299999237060546875 62.200000762939453125 66.40000152587890625 70.09999847412109375 74.09999847412109375 77.6999969482421875 84.59999847412109375 91.90000152587890625 98.90000152587890625 103.8000030517578125 106.59999847412109375 107.40000152587890625 107.5 107.59999847412109375 106.8000030517578125 105.40000152587890625 103.8000030517578125 104.59999847412109375 105.40000152587890625 103.1999969482421875 101.1999969482421875 96.6999969482421875 92.1999969482421875 85.40000152587890625 79.40000152587890625 75.8000030517578125 72.5 69.3000030517578125 66.09999847412109375 63.200000762939453125 59.90000152587890625 57.59999847412109375 55.700000762939453125 54.299999237060546875 54.200000762939453125 53.299999237060546875 52.90000152587890625 52.59999847412109375 51.40000152587890625 48.5 47.90000152587890625 48.59999847412109375 49.40000152587890625 49.90000152587890625 49.90000152587890625 48.700000762939453125 47.40000152587890625 46.90000152587890625 45.90000152587890625 45.200000762939453125 44.5 44.200000762939453125 42.5 41 38 35.799999237060546875 34 32 30.799999237060546875 30.100000381469726562 30.399999618530273438 30.700000762939453125 31.600000381469726562 32.200000762939453125 32 30.299999237060546875 28.200000762939453125 25.200000762939453125 22.299999237060546875 20.299999237060546875 19.100000381469726562 19.899999618530273438 22.200000762939453125 22 22.200000762939453125 22.5 22.700000762939453125 22.600000381469726562 22.600000381469726562 22.700000762939453125 22.899999618530273438 22.700000762939453125 22.600000381469726562 22.600000381469726562 22.899999618530273438 27 22.600000381469726562 22 21.700000762939453125 22.100000381469726562 22.600000381469726562 23.200000762939453125 24.100000381469726562 25.100000381469726562 26.299999237060546875 27.399999618530273438 28.899999618530273438 31.200000762939453125 36.299999237060546875 41 42.59999847412109375 44 45.59999847412109375 46.700000762939453125 47.40000152587890625 47.5 47.5 47.5 47.200000762939453125 46.90000152587890625 47.09999847412109375 47.5 47.90000152587890625 48.200000762939453125 48.40000152587890625 48.09999847412109375 47.799999237060546875 47.200000762939453125 47.200000762939453125 47.40000152587890625 47.90000152587890625 48.59999847412109375 49.200000762939453125 49.299999237060546875 49.5 49.09999847412109375 48.200000762939453125 47.09999847412109375 46.59999847412109375 46.200000762939453125 
46.59999847412109375 49.299999237060546875 50.299999237060546875 51.299999237060546875 52 52.5 55.40000152587890625 56.90000152587890625 58.700000762939453125 60.700000762939453125 62.5 64.1999969482421875 65.90000152587890625 66.59999847412109375 67.09999847412109375 65.59999847412109375 63.90000152587890625 62.299999237060546875 62.5 54.200000762939453125 60.700000762939453125 63.299999237060546875 67.5 70.90000152587890625 74.1999969482421875 77.09999847412109375 79.3000030517578125 79.90000152587890625 78.8000030517578125 76.6999969482421875 73.5 68.90000152587890625 63.200000762939453125 59.5 55.59999847412109375 51 47.09999847412109375 45.09999847412109375 43.799999237060546875 43.299999237060546875 43 41.90000152587890625 40.799999237060546875 41.200000762939453125 41.5 42.59999847412109375 45.700000762939453125 48.40000152587890625 48.40000152587890625 45.5 44 43.200000762939453125 42.40000152587890625 42.200000762939453125 41.799999237060546875 41.40000152587890625 42.299999237060546875 43.09999847412109375 43.799999237060546875 45 46.59999847412109375 47.700000762939453125 48.90000152587890625 50.09999847412109375 51 51.700000762939453125 52.09999847412109375 52.299999237060546875 52.40000152587890625 52.40000152587890625 59.40000152587890625 62.799999237060546875 65.8000030517578125 68.5 71.6999969482421875 76 83 90.5 98 104.1999969482421875 108 108.8000030517578125 108.90000152587890625 108.90000152587890625 108.5 108.09999847412109375 107 107 104.40000152587890625 101.90000152587890625 97.1999969482421875 92.59999847412109375 88.5 82.1999969482421875 77.3000030517578125 74.09999847412109375 70.59999847412109375 67.6999969482421875 65.09999847412109375 62.09999847412109375 59.299999237060546875 57.200000762939453125 54.90000152587890625 54.5 54.40000152587890625 54.09999847412109375 52.700000762939453125 52.09999847412109375 51.59999847412109375 50.09999847412109375 50.40000152587890625 51.09999847412109375 51.90000152587890625 51.700000762939453125 51.200000762939453125 50.59999847412109375 49.40000152587890625 48.59999847412109375 47.5 46.5 45.299999237060546875 43.799999237060546875 42.299999237060546875 40.40000152587890625 37.5 34.200000762939453125 31.899999618530273438 30.700000762939453125 29.200000762939453125 28.200000762939453125 28.299999237060546875 28.5 29 30.100000381469726562 32.40000152587890625 31.600000381469726562 27.700000762939453125 25.600000381469726562 23.5 25.600000381469726562 21.399999618530273438 20.200000762939453125 22.399999618530273438 22.299999237060546875 22.5 22.799999237060546875 23 23 22.899999618530273438 23 23.200000762939453125 23.100000381469726562 23 23.399999618530273438 23.399999618530273438 23.100000381469726562 23.700000762939453125 22.600000381469726562 22 22.399999618530273438 22.799999237060546875 23.200000762939453125 24 24.799999237060546875 25.799999237060546875 26.899999618530273438 28 29.5 32.700000762939453125 38.299999237060546875 41.5 43.59999847412109375 46.200000762939453125 47.700000762939453125 48.40000152587890625 48.59999847412109375 48.59999847412109375 48.5 48.200000762939453125 48.09999847412109375 48.40000152587890625 48.799999237060546875 49.200000762939453125 49.40000152587890625 49.299999237060546875 49 48.700000762939453125 48.59999847412109375 49.09999847412109375 49.59999847412109375 50 50.59999847412109375 51.700000762939453125 52.09999847412109375 52.299999237060546875 51.59999847412109375 50.799999237060546875 49.40000152587890625 48.200000762939453125 46.59999847412109375 
45.40000152587890625 47.799999237060546875 49.200000762939453125 51.09999847412109375 52 52.799999237060546875 53.90000152587890625 55.299999237060546875 57 58.799999237060546875 60.700000762939453125 62.5 64.3000030517578125 65.5 66 65.90000152587890625 64.40000152587890625 62.90000152587890625 62.59999847412109375 63.5 65.40000152587890625 69.6999969482421875 73.3000030517578125 75.90000152587890625 79.09999847412109375 81.3000030517578125 81.90000152587890625 81.40000152587890625 79.40000152587890625 76.59999847412109375 72.40000152587890625 67.3000030517578125 63.299999237060546875 60.40000152587890625 55.40000152587890625 52.299999237060546875 48.299999237060546875 47.09999847412109375 46.09999847412109375 45.299999237060546875 44.59999847412109375 43.5 41.40000152587890625 41.5 43.59999847412109375 47 50.59999847412109375 53.200000762939453125 52.5 49.40000152587890625 45.700000762939453125 44.09999847412109375 43.200000762939453125 42.90000152587890625 42.59999847412109375 42.200000762939453125 42.5 43.200000762939453125 43.90000152587890625 45.5 46.799999237060546875 48 49.09999847412109375 50.40000152587890625 51.40000152587890625 52.299999237060546875 53.200000762939453125 53.90000152587890625 55.09999847412109375 54.5 50.299999237060546875 58.200000762939453125 64.8000030517578125 68 71.09999847412109375 74.90000152587890625 81.40000152587890625 89 96.6999969482421875 103.3000030517578125 107.5 109.40000152587890625 110.1999969482421875 110 109.3000030517578125 109 107.6999969482421875 104.6999969482421875 99.8000030517578125 94.1999969482421875 90.90000152587890625 87.3000030517578125 83.59999847412109375 80.09999847412109375 76.6999969482421875 73.8000030517578125 70.90000152587890625 68.09999847412109375 64.8000030517578125 62.200000762939453125 59.200000762939453125 56.90000152587890625 55.59999847412109375 55.200000762939453125 55 53.90000152587890625 53.200000762939453125 52.90000152587890625 53.299999237060546875 53.700000762939453125 52.09999847412109375 53 53.59999847412109375 52.90000152587890625 52 50.799999237060546875 50.700000762939453125 49.299999237060546875 48.09999847412109375 47.200000762939453125 45.5 43.200000762939453125 40.90000152587890625 38.200000762939453125 35.700000762939453125 32.700000762939453125 29.700000762939453125 29 28 26.600000381469726562 26.600000381469726562 26.899999618530273438 27.299999237060546875 28.5 27.100000381469726562 26.899999618530273438 27.100000381469726562 27.600000381469726562 27.200000762939453125 27 20.799999237060546875 23 22.600000381469726562 22.799999237060546875 22.899999618530273438 23.100000381469726562 23.200000762939453125 23.299999237060546875 23.200000762939453125 23.299999237060546875 23.299999237060546875 23.399999618530273438 23.299999237060546875 23.299999237060546875 23.299999237060546875 23.299999237060546875 22.399999618530273438 23.100000381469726562 22.100000381469726562 22.600000381469726562 23 23.200000762939453125 23.799999237060546875 24.600000381469726562 25.5 26.399999618530273438 27.399999618530273438 29 31.600000381469726562 35.59999847412109375 40.200000762939453125 43.59999847412109375 46.700000762939453125 48.40000152587890625 49.200000762939453125 49.700000762939453125 49.59999847412109375 49.5 49.40000152587890625 49.59999847412109375 49.90000152587890625 50.09999847412109375 50.299999237060546875 50.200000762939453125 50.09999847412109375 50 49.90000152587890625 50.299999237060546875 50.90000152587890625 51.799999237060546875 52.200000762939453125 52.59999847412109375 53.799999237060546875 54.799999237060546875 55 54.200000762939453125 53.09999847412109375 51.700000762939453125 49.299999237060546875 47 
46.799999237060546875 48.299999237060546875 50.09999847412109375 51.90000152587890625 52.40000152587890625 53.40000152587890625 54.40000152587890625 54.90000152587890625 56.200000762939453125 57.59999847412109375 59.299999237060546875 60.90000152587890625 62.700000762939453125 64.40000152587890625 65.40000152587890625 65 63.59999847412109375 62.59999847412109375 62.59999847412109375 63.40000152587890625 66.90000152587890625 73.1999969482421875 76.1999969482421875 79 81.40000152587890625 82.90000152587890625 82.59999847412109375 81.3000030517578125 79.1999969482421875 75.59999847412109375 72.5 66.6999969482421875 63.09999847412109375 61.90000152587890625 61.200000762939453125 53.90000152587890625 52.09999847412109375 49.90000152587890625 49 47.799999237060546875 46.59999847412109375 44.700000762939453125 42.799999237060546875 43.90000152587890625 47.5 51.40000152587890625 55.59999847412109375 57.59999847412109375 56.59999847412109375 52.700000762939453125 47.799999237060546875 45 44.200000762939453125 43.700000762939453125 43.299999237060546875 42.799999237060546875 43.09999847412109375 43.59999847412109375 44.5 45.799999237060546875 46.90000152587890625 48.09999847412109375 49.200000762939453125 50.5 50.299999237060546875 52.299999237060546875 53.700000762939453125 55.40000152587890625 57 59.09999847412109375 57.40000152587890625 50.700000762939453125 64.40000152587890625 68.5 71.3000030517578125 74.6999969482421875 80.59999847412109375 87.40000152587890625 94.09999847412109375 101.5 107.09999847412109375 110.09999847412109375 110.5 109.5 108.8000030517578125 106.3000030517578125 104.5 96 91.5 87.3000030517578125 83.40000152587890625 81.59999847412109375 80 78.09999847412109375 75.40000152587890625 74 71.5 68.5 65.1999969482421875 63 59.799999237060546875 56.90000152587890625 55.700000762939453125 55.59999847412109375 54.90000152587890625 55 55 56.200000762939453125 55 54.40000152587890625 52 52 52.5 51.90000152587890625 51.299999237060546875 51 50.5 49.700000762939453125 48.40000152587890625 46.90000152587890625 45.299999237060546875 43.299999237060546875 40.90000152587890625 37.799999237060546875 34.299999237060546875 31.700000762939453125 29.5 27.899999618530273438 27.100000381469726562 26.200000762939453125 25.899999618530273438 26.299999237060546875 26.600000381469726562 26.600000381469726562 26.600000381469726562 26.700000762939453125 26.600000381469726562 27.100000381469726562 27.5 27.200000762939453125 21.600000381469726562 23.200000762939453125 23.399999618530273438 23.5 23.5 23.299999237060546875 23.399999618530273438 23.5 23.600000381469726562 23.5 23.5 23.5 23.5 23.5 23.5 23.5 23.600000381469726562 23 22.600000381469726562 22.799999237060546875 22.899999618530273438 23.200000762939453125 23.700000762939453125 24.399999618530273438 25.399999618530273438 26.399999618530273438 27.5 28.899999618530273438 31.100000381469726562 34.200000762939453125 39 42.40000152587890625 45.299999237060546875 48.40000152587890625 49.40000152587890625 50.200000762939453125 50.59999847412109375 50.200000762939453125 50.59999847412109375 50.90000152587890625 51.200000762939453125 51.5 51.700000762939453125 51.799999237060546875 52 51.59999847412109375 51.299999237060546875 51.799999237060546875 52.700000762939453125 53.700000762939453125 54.5 54.799999237060546875 55.799999237060546875 57.09999847412109375 57.40000152587890625 56.799999237060546875 55.09999847412109375 53 50.40000152587890625 48.09999847412109375 
48.299999237060546875 50.09999847412109375 51.5 52.59999847412109375 53.90000152587890625 55.299999237060546875 56.200000762939453125 56.40000152587890625 56.200000762939453125 57 58.5 60.09999847412109375 61.59999847412109375 63.09999847412109375 64.09999847412109375 63.799999237060546875 62.799999237060546875 62 62.299999237060546875 63.299999237060546875 66.1999969482421875 71.8000030517578125 76.40000152587890625 80.09999847412109375 82.59999847412109375 83.90000152587890625 82.8000030517578125 81.1999969482421875 79 76 72.5 68.3000030517578125 64.90000152587890625 63.09999847412109375 61.700000762939453125 58.59999847412109375 51.59999847412109375 52.799999237060546875 50.90000152587890625 49.40000152587890625 46.90000152587890625 45.200000762939453125 44.299999237060546875 45.799999237060546875 50.59999847412109375 55 59.299999237060546875 59.5 57.200000762939453125 53 48.90000152587890625 46.40000152587890625 45.40000152587890625 44.700000762939453125 44.200000762939453125 43.5 43.40000152587890625 43.700000762939453125 44.700000762939453125 45.799999237060546875 47 48.09999847412109375 49.09999847412109375 50.200000762939453125 50.299999237060546875 52.299999237060546875 55.200000762939453125 57.59999847412109375 58.90000152587890625 60.799999237060546875 62.700000762939453125 64 68.59999847412109375 69.8000030517578125 71.6999969482421875 75.90000152587890625 81 87.1999969482421875 95.90000152587890625 104.09999847412109375 108.90000152587890625 110.40000152587890625 109.5 106.8000030517578125 102.1999969482421875 97.59999847412109375 95.8000030517578125 90 85.59999847412109375 82 79.1999969482421875 77.59999847412109375 76.59999847412109375 75.1999969482421875 73.5 72.6999969482421875 71.3000030517578125 68.5 64.90000152587890625 62 59.299999237060546875 57.59999847412109375 56.299999237060546875 56.299999237060546875 56.200000762939453125 56.5 57.59999847412109375 59.5 55.700000762939453125 53.90000152587890625 51.59999847412109375 50.299999237060546875 49.40000152587890625 48.700000762939453125 48.799999237060546875 49.09999847412109375 49.200000762939453125 48.700000762939453125 47.200000762939453125 46.09999847412109375 44.200000762939453125 42.59999847412109375 39.700000762939453125 36.09999847412109375 33.200000762939453125 30.700000762939453125 29.399999618530273438 27.5 26 25.399999618530273438 25.200000762939453125 25.299999237060546875 25.799999237060546875 26.100000381469726562 26.100000381469726562 26.100000381469726562 26.100000381469726562 26.200000762939453125 27.200000762939453125 21.100000381469726562 24.200000762939453125 24.299999237060546875 24.200000762939453125 24.200000762939453125 24.100000381469726562 23.899999618530273438 23.700000762939453125 23.700000762939453125 23.799999237060546875 23.700000762939453125 23.799999237060546875 23.799999237060546875 23.799999237060546875 23.700000762939453125 23.700000762939453125 23.600000381469726562 23.799999237060546875 24 23.399999618530273438 22.799999237060546875 22.799999237060546875 23.200000762939453125 23.600000381469726562 24.399999618530273438 25.399999618530273438 26.5 27.600000381469726562 29.100000381469726562 31.299999237060546875 34 36.59999847412109375 39 43.700000762939453125 46.799999237060546875 47.40000152587890625 48.90000152587890625 50.5 51 51.40000152587890625 51.700000762939453125 52 52.299999237060546875 52 52.700000762939453125 52.799999237060546875 52.700000762939453125 52.59999847412109375 53.40000152587890625 54.5 55.700000762939453125 56.799999237060546875 57.200000762939453125 57.90000152587890625 59.09999847412109375 59.5 59 56.700000762939453125 54.5 52.200000762939453125 49.90000152587890625 
50.59999847412109375 51.90000152587890625 53.200000762939453125 53.59999847412109375 55.09999847412109375 56.59999847412109375 58 57.799999237060546875 57.09999847412109375 57.40000152587890625 57.90000152587890625 59 60.5 61.59999847412109375 62.09999847412109375 60.799999237060546875 60.799999237060546875 60 60.59999847412109375 62.200000762939453125 66 71.5 76.8000030517578125 80.59999847412109375 83.40000152587890625 84.5 83 81.3000030517578125 78.6999969482421875 75.90000152587890625 72.90000152587890625 70.09999847412109375 68.09999847412109375 65.59999847412109375 63.09999847412109375 61.09999847412109375 58.59999847412109375 53.40000152587890625 52.90000152587890625 49.700000762939453125 46.90000152587890625 44.5 44.200000762939453125 48.299999237060546875 53.700000762939453125 57.59999847412109375 60.5 61.700000762939453125 58.700000762939453125 54.700000762939453125 51 47.90000152587890625 46.5 45.700000762939453125 44.90000152587890625 44.299999237060546875 44 44.09999847412109375 44.59999847412109375 45.5 47.200000762939453125 48.200000762939453125 49.40000152587890625 50.5 51.09999847412109375 53.799999237060546875 57.59999847412109375 59.59999847412109375 60.59999847412109375 62.200000762939453125 64.5 67.40000152587890625 69.3000030517578125 71.5 74 77.40000152587890625 82.90000152587890625 88.40000152587890625 98.1999969482421875 106.6999969482421875 109.6999969482421875 110.1999969482421875 108.6999969482421875 96.3000030517578125 91.40000152587890625 91.1999969482421875 89.59999847412109375 85.8000030517578125 81.3000030517578125 78.1999969482421875 75.5 73.6999969482421875 72.59999847412109375 71.59999847412109375 70.59999847412109375 70.1999969482421875 69.59999847412109375 67 64.09999847412109375 60.5 59.09999847412109375 57.5 57.700000762939453125 58.59999847412109375 59.299999237060546875 60.90000152587890625 59.40000152587890625 58 54.799999237060546875 52.40000152587890625 49.299999237060546875 47.5 46.200000762939453125 46.09999847412109375 46.200000762939453125 46.299999237060546875 46.700000762939453125 46.5 46.299999237060546875 45.299999237060546875 43.40000152587890625 40.90000152587890625 38 34.59999847412109375 32.09999847412109375 30 28.5 26.899999618530273438 25.899999618530273438 25 24.600000381469726562 24.899999618530273438 24.899999618530273438 25.5 25.600000381469726562 25.700000762939453125 24.799999237060546875 24.200000762939453125 24.299999237060546875 22.799999237060546875 26.299999237060546875 26.5 26.299999237060546875 26 25.299999237060546875 24.799999237060546875 24.600000381469726562 24.399999618530273438 24.200000762939453125 23.899999618530273438 24 24.100000381469726562 24 23.899999618530273438 24 24.200000762939453125 24.200000762939453125 24.399999618530273438 23.899999618530273438 23.299999237060546875 22.899999618530273438 23.299999237060546875 23.600000381469726562 24.5 25.100000381469726562 26 27.299999237060546875 29.200000762939453125 31.100000381469726562 32.09999847412109375 34.299999237060546875 37 39.90000152587890625 43.09999847412109375 45.200000762939453125 48.200000762939453125 49.90000152587890625 51.299999237060546875 52 52.200000762939453125 51.59999847412109375 51.700000762939453125 51.59999847412109375 51.90000152587890625 52.5 53.200000762939453125 53.299999237060546875 55 56.299999237060546875 57.799999237060546875 58.90000152587890625 59.5 60.5 61.299999237060546875 61.40000152587890625 61.200000762939453125 59.40000152587890625 56.799999237060546875 54.09999847412109375 52.299999237060546875 
52.200000762939453125 52.799999237060546875 53.5 54.700000762939453125 56.09999847412109375 57.5 58.5 58.700000762939453125 57.90000152587890625 57.700000762939453125 58.299999237060546875 58.799999237060546875 59.299999237060546875 60.200000762939453125 60.299999237060546875 50.09999847412109375 58.09999847412109375 58.5 58.90000152587890625 59.59999847412109375 65 71.6999969482421875 76.90000152587890625 80.6999969482421875 83.6999969482421875 84.8000030517578125 83.6999969482421875 82.5 79.3000030517578125 76.8000030517578125 73.90000152587890625 71.90000152587890625 69.8000030517578125 68 65.3000030517578125 62.5 59.299999237060546875 56.40000152587890625 52.200000762939453125 51.40000152587890625 46.200000762939453125 44.5 46.40000152587890625 50.799999237060546875 55.59999847412109375 59.200000762939453125 62.59999847412109375 64.90000152587890625 61.200000762939453125 56.90000152587890625 53.200000762939453125 48.90000152587890625 47 46.200000762939453125 45.5 44.90000152587890625 44.299999237060546875 44.799999237060546875 45.40000152587890625 46.299999237060546875 47.5 48.799999237060546875 50.200000762939453125 51.200000762939453125 52.799999237060546875 56.299999237060546875 59.799999237060546875 61.90000152587890625 63 63.90000152587890625 66.40000152587890625 68.6999969482421875 71.90000152587890625 74.40000152587890625 76.59999847412109375 79.8000030517578125 84.40000152587890625 91.3000030517578125 101 108.59999847412109375 109.40000152587890625 109.5 105.3000030517578125 91.09999847412109375 86.90000152587890625 85.3000030517578125 84.09999847412109375 81.8000030517578125 78 75.40000152587890625 73.09999847412109375 70.8000030517578125 68.6999969482421875 68.1999969482421875 67.1999969482421875 66.5 66.5 64.40000152587890625 61.799999237060546875 59.299999237060546875 57.5 57.799999237060546875 58.200000762939453125 59.59999847412109375 60.40000152587890625 61.09999847412109375 58.200000762939453125 54.799999237060546875 52.200000762939453125 50.799999237060546875 47 45.40000152587890625 44.40000152587890625 43.5 43.09999847412109375 43 43.299999237060546875 43.799999237060546875 43.799999237060546875 43.299999237060546875 41.700000762939453125 39.200000762939453125 36.299999237060546875 33.299999237060546875 31.100000381469726562 29.200000762939453125 27.799999237060546875 26.600000381469726562 26.100000381469726562 25.100000381469726562 24.700000762939453125 25 24.200000762939453125 25.399999618530273438 25.200000762939453125 24.5 24.700000762939453125 24.399999618530273438 20.399999618530273438 26.5 27.100000381469726562 28.299999237060546875 28.899999618530273438 28.399999618530273438 27.600000381469726562 26.700000762939453125 26.100000381469726562 25.399999618530273438 25.100000381469726562 24.799999237060546875 24.700000762939453125 24.5 24.299999237060546875 24.100000381469726562 24.399999618530273438 24.899999618530273438 24.899999618530273438 24.299999237060546875 24.299999237060546875 23.700000762939453125 23.100000381469726562 23.100000381469726562 23.700000762939453125 24.5 25 25.700000762939453125 26.899999618530273438 28.200000762939453125 29.799999237060546875 31.299999237060546875 33.299999237060546875 36.40000152587890625 39.5 42.799999237060546875 44.90000152587890625 47.200000762939453125 49 50.799999237060546875 51.700000762939453125 51.59999847412109375 50.40000152587890625 50.200000762939453125 50.09999847412109375 50.200000762939453125 51.09999847412109375 51.90000152587890625 53.5 55.700000762939453125 57.90000152587890625 59.700000762939453125 61 61.90000152587890625 62.59999847412109375 63.200000762939453125 63.200000762939453125 62.799999237060546875 60.90000152587890625 58.40000152587890625 55.299999237060546875 53.299999237060546875 
53 53.799999237060546875 54 54.799999237060546875 55.59999847412109375 56.09999847412109375 57.09999847412109375 57.799999237060546875 57.90000152587890625 57.90000152587890625 58.59999847412109375 59.299999237060546875 59.5 59 54.700000762939453125 53.59999847412109375 55.90000152587890625 56 56.299999237060546875 57.299999237060546875 63.200000762939453125 68.90000152587890625 74.90000152587890625 80.90000152587890625 83.8000030517578125 85 83.90000152587890625 82.1999969482421875 79.90000152587890625 77.3000030517578125 75.09999847412109375 73 70.8000030517578125 68.1999969482421875 64.59999847412109375 61.799999237060546875 58.09999847412109375 54.5 51.09999847412109375 47.5 46.40000152587890625 45.59999847412109375 48.299999237060546875 52 56 60.40000152587890625 62.90000152587890625 64.90000152587890625 62.59999847412109375 58.5 53.799999237060546875 49.5 47.700000762939453125 46.90000152587890625 46.09999847412109375 45.59999847412109375 45.40000152587890625 45.59999847412109375 46.09999847412109375 47.09999847412109375 48.299999237060546875 49.700000762939453125 51 52.5 54.799999237060546875 58.299999237060546875 61.700000762939453125 63.90000152587890625 65.40000152587890625 65.8000030517578125 67.3000030517578125 69.40000152587890625 73.5 77.1999969482421875 79.5 83.1999969482421875 87.1999969482421875 95.90000152587890625 104.5 108.40000152587890625 108.40000152587890625 108.6999969482421875 98.59999847412109375 87.6999969482421875 83.09999847412109375 81.59999847412109375 79.09999847412109375 76.40000152587890625 73.8000030517578125 71.3000030517578125 69.40000152587890625 67.40000152587890625 65.6999969482421875 64.59999847412109375 63.59999847412109375 63 62.700000762939453125 60.90000152587890625 58.90000152587890625 56.799999237060546875 56.09999847412109375 56.799999237060546875 58 59.200000762939453125 60.299999237060546875 60.5 57.40000152587890625 53.5 51.799999237060546875 48.5 46 45.299999237060546875 44.5 43.799999237060546875 42.700000762939453125 41.700000762939453125 40.90000152587890625 40.700000762939453125 40.700000762939453125 40.299999237060546875 38.90000152587890625 37.200000762939453125 34.90000152587890625 32.40000152587890625 31.600000381469726562 29.899999618530273438 28.799999237060546875 27.600000381469726562 26.600000381469726562 25.799999237060546875 25 25.299999237060546875 25.5 25.299999237060546875 24.600000381469726562 24.5 25.299999237060546875 24.600000381469726562 22.5 26.200000762939453125 28.200000762939453125 30 31.100000381469726562 30.700000762939453125 30 29 28.100000381469726562 27.299999237060546875 26.600000381469726562 26.200000762939453125 25.600000381469726562 25 24.799999237060546875 24.5 24.700000762939453125 25 25.700000762939453125 24.299999237060546875 24.700000762939453125 24.100000381469726562 23.5 22.899999618530273438 23.700000762939453125 24.200000762939453125 25 25.700000762939453125 26.799999237060546875 27.799999237060546875 29.100000381469726562 30.700000762939453125 32.90000152587890625 36.09999847412109375 39.5 42.90000152587890625 46 47.40000152587890625 48.799999237060546875 50.200000762939453125 51.299999237060546875 50.799999237060546875 49.299999237060546875 48.700000762939453125 48.5 48.200000762939453125 49.299999237060546875 50.700000762939453125 53.299999237060546875 55.700000762939453125 58.5 60.299999237060546875 61.799999237060546875 63 64.09999847412109375 64.1999969482421875 64.3000030517578125 63.09999847412109375 61.5 58.799999237060546875 56.09999847412109375 55.200000762939453125 
53.5 54.40000152587890625 54.700000762939453125 54.40000152587890625 54.299999237060546875 54.299999237060546875 54.59999847412109375 55.700000762939453125 57 58.799999237060546875 60.299999237060546875 60.799999237060546875 59.799999237060546875 55 48.200000762939453125 55.700000762939453125 54 53.90000152587890625 54.59999847412109375 55.90000152587890625 59.09999847412109375 65.8000030517578125 73.59999847412109375 80.1999969482421875 84 85.40000152587890625 84.09999847412109375 82.59999847412109375 80.5 77.90000152587890625 75.59999847412109375 73.5 70.8000030517578125 68.09999847412109375 64.1999969482421875 60.40000152587890625 56.299999237060546875 52.59999847412109375 49.700000762939453125 48 48.200000762939453125 48 46.40000152587890625 53.09999847412109375 54.40000152587890625 58.09999847412109375 62.299999237060546875 64.8000030517578125 63.59999847412109375 59.09999847412109375 54.700000762939453125 51.59999847412109375 49 47.700000762939453125 47.09999847412109375 46.90000152587890625 46.59999847412109375 46.5 46.799999237060546875 47.700000762939453125 49.09999847412109375 50.90000152587890625 52.40000152587890625 54.09999847412109375 56.59999847412109375 59.40000152587890625 62.5 64.40000152587890625 65.40000152587890625 66.40000152587890625 67.5 70.1999969482421875 74.1999969482421875 78.09999847412109375 82.09999847412109375 87.5 93 102 107.8000030517578125 108.1999969482421875 107.3000030517578125 106.6999969482421875 96.1999969482421875 86.8000030517578125 83.8000030517578125 80.40000152587890625 76.6999969482421875 74 71 68.3000030517578125 66.40000152587890625 64.6999969482421875 63.40000152587890625 62 61.09999847412109375 60.200000762939453125 59.200000762939453125 56.90000152587890625 56.5 54.700000762939453125 54.299999237060546875 54.299999237060546875 56.200000762939453125 57.09999847412109375 58.700000762939453125 60 57.799999237060546875 53.799999237060546875 51.799999237060546875 49.09999847412109375 47.700000762939453125 46.40000152587890625 45.299999237060546875 44.59999847412109375 44 42.299999237060546875 41.200000762939453125 40.200000762939453125 40.299999237060546875 39.299999237060546875 37.40000152587890625 35.90000152587890625 34.799999237060546875 33.799999237060546875 33.200000762939453125 31.799999237060546875 30 29 27.600000381469726562 26.5 25.700000762939453125 25.299999237060546875 25 24.799999237060546875 24.299999237060546875 24.299999237060546875 24.700000762939453125 23.5 24.799999237060546875 26.899999618530273438 29.700000762939453125 31.299999237060546875 32.5 32.799999237060546875 32.40000152587890625 31.5 30.600000381469726562 29.700000762939453125 28.899999618530273438 27.799999237060546875 27 25.899999618530273438 25.299999237060546875 25 25 25.200000762939453125 25.600000381469726562 25.200000762939453125 25.700000762939453125 25 24.299999237060546875 23.399999618530273438 23.5 23.799999237060546875 24.600000381469726562 25.5 26.399999618530273438 27.100000381469726562 28.200000762939453125 29.899999618530273438 32.59999847412109375 35.5 39.799999237060546875 44.299999237060546875 46.40000152587890625 46.90000152587890625 48 49.200000762939453125 49.299999237060546875 48.59999847412109375 47.299999237060546875 47 46.700000762939453125 46.5 47.09999847412109375 48.299999237060546875 50.59999847412109375 54.299999237060546875 57.09999847412109375 59.59999847412109375 61.799999237060546875 63.799999237060546875 64.90000152587890625 65.09999847412109375 65.1999969482421875 64.3000030517578125 62 59.200000762939453125 57.700000762939453125 57.200000762939453125 
53.90000152587890625 54.299999237060546875 54 53.09999847412109375 51.700000762939453125 50.90000152587890625 51.90000152587890625 53.5 55.799999237060546875 58.799999237060546875 61.799999237060546875 61.90000152587890625 58.90000152587890625 50 53.299999237060546875 52.90000152587890625 52.799999237060546875 52.700000762939453125 53.90000152587890625 55.40000152587890625 59.59999847412109375 66.09999847412109375 74.09999847412109375 81.09999847412109375 84.40000152587890625 85.59999847412109375 84.6999969482421875 82.90000152587890625 81.09999847412109375 78.59999847412109375 76.09999847412109375 73.5 70.8000030517578125 67.8000030517578125 64.1999969482421875 60.40000152587890625 56.40000152587890625 52.5 49.5 48.59999847412109375 50.200000762939453125 50.5 48.799999237060546875 48.200000762939453125 51.59999847412109375 55.5 59.700000762939453125 63.799999237060546875 64.40000152587890625 61.299999237060546875 57.5 53.299999237060546875 50.200000762939453125 48.700000762939453125 48.09999847412109375 47.799999237060546875 47.700000762939453125 47.5 47.5 48.5 50.200000762939453125 52.09999847412109375 53.799999237060546875 55.799999237060546875 57.700000762939453125 60.5 63.299999237060546875 65 65.40000152587890625 66.40000152587890625 67.90000152587890625 71.1999969482421875 75.09999847412109375 79.59999847412109375 85.5 92.3000030517578125 99.8000030517578125 108 109.8000030517578125 108.5 107.09999847412109375 102.59999847412109375 93.8000030517578125 88.90000152587890625 84.8000030517578125 80.6999969482421875 77.3000030517578125 74.59999847412109375 71.5 68.6999969482421875 65 63.40000152587890625 62.299999237060546875 61.200000762939453125 60.299999237060546875 59.5 58.799999237060546875 57.90000152587890625 57.59999847412109375 56.59999847412109375 54.5 52.90000152587890625 53.700000762939453125 54.200000762939453125 56 57.5 57.09999847412109375 54.09999847412109375 54.09999847412109375 51.09999847412109375 50.299999237060546875 48.40000152587890625 47.700000762939453125 46.700000762939453125 46.40000152587890625 45.5 43.799999237060546875 43.200000762939453125 42.799999237060546875 41.799999237060546875 40.40000152587890625 38.799999237060546875 37.5 36.40000152587890625 35.200000762939453125 33.299999237060546875 31.200000762939453125 29.5 28 26.799999237060546875 26.200000762939453125 25.100000381469726562 24.299999237060546875 23.799999237060546875 23.5 23.700000762939453125 23.899999618530273438 21.299999237060546875 23.899999618530273438 26.799999237060546875 29.799999237060546875 32.09999847412109375 33.799999237060546875 34.40000152587890625 34.5 33.90000152587890625 33 32 31 29.600000381469726562 28.299999237060546875 27.299999237060546875 26 25.399999618530273438 25.200000762939453125 25.299999237060546875 25.600000381469726562 25.899999618530273438 25.899999618530273438 25 24.600000381469726562 24 23.600000381469726562 23.799999237060546875 24 24.899999618530273438 25.899999618530273438 26.5 27.399999618530273438 29.299999237060546875 31.899999618530273438 34.59999847412109375 39.40000152587890625 42.90000152587890625 44.799999237060546875 46.40000152587890625 47.90000152587890625 48.799999237060546875 47.09999847412109375 46.200000762939453125 44.799999237060546875 44.59999847412109375 44.40000152587890625 44.40000152587890625 44.799999237060546875 46.09999847412109375 47.90000152587890625 50.799999237060546875 53.09999847412109375 56.5 60.299999237060546875 62.5 64.6999969482421875 65.6999969482421875 66.3000030517578125 65.1999969482421875 63.09999847412109375 60.799999237060546875 59.90000152587890625 59.59999847412109375 
53.5 53.299999237060546875 52.700000762939453125 51.200000762939453125 49.59999847412109375 49.09999847412109375 50.40000152587890625 52.59999847412109375 55.700000762939453125 60.299999237060546875 62.799999237060546875 62.200000762939453125 58.200000762939453125 53.40000152587890625 53 51.40000152587890625 52 52.40000152587890625 53.799999237060546875 57.200000762939453125 62 68.8000030517578125 74.1999969482421875 81.1999969482421875 84.59999847412109375 85.6999969482421875 85.09999847412109375 83.1999969482421875 81.09999847412109375 78.1999969482421875 75.5 73 70.40000152587890625 66.8000030517578125 63.09999847412109375 59.299999237060546875 55.5 51.700000762939453125 50 49.5 52 52.40000152587890625 51.700000762939453125 50.40000152587890625 48.90000152587890625 52 56.59999847412109375 61.59999847412109375 64.40000152587890625 63 58.90000152587890625 54.700000762939453125 51.40000152587890625 49.700000762939453125 49.200000762939453125 48.700000762939453125 48.59999847412109375 48.5 48.299999237060546875 49.700000762939453125 51.200000762939453125 52.799999237060546875 54.799999237060546875 56 58.40000152587890625 61.40000152587890625 64.3000030517578125 65.09999847412109375 65.59999847412109375 66.40000152587890625 68.3000030517578125 71.6999969482421875 77.6999969482421875 81.1999969482421875 86.5 95.6999969482421875 103.8000030517578125 108.8000030517578125 110.1999969482421875 109.09999847412109375 105.1999969482421875 100.5 93 88.90000152587890625 84.90000152587890625 80.40000152587890625 77.40000152587890625 74.09999847412109375 70.1999969482421875 67.90000152587890625 66.59999847412109375 66.3000030517578125 65.3000030517578125 64.1999969482421875 62.59999847412109375 62.700000762939453125 63 62.5 61.200000762939453125 59.5 57.299999237060546875 54.299999237060546875 52 51.5 51.5 52.59999847412109375 53.09999847412109375 54.799999237060546875 53 51.200000762939453125 51.09999847412109375 50.299999237060546875 49.09999847412109375 48.09999847412109375 46.90000152587890625 46.90000152587890625 47.09999847412109375 45.799999237060546875 45.299999237060546875 44.09999847412109375 42.40000152587890625 40.799999237060546875 39.799999237060546875 38.200000762939453125 36.299999237060546875 33.90000152587890625 31.299999237060546875 29.5 28.100000381469726562 26.700000762939453125 25.700000762939453125 24.5 24.299999237060546875 23.899999618530273438 23.299999237060546875 23.399999618530273438 23.299999237060546875 23 23 25.399999618530273438 28.600000381469726562 32.09999847412109375 34.299999237060546875 35.59999847412109375 35.90000152587890625 35.59999847412109375 34.90000152587890625 34.200000762939453125 33.09999847412109375 31.600000381469726562 30 28.5 27.200000762939453125 26.299999237060546875 25.700000762939453125 25.600000381469726562 25.799999237060546875 26.700000762939453125 26.899999618530273438 25.799999237060546875 25.100000381469726562 24.600000381469726562 24.200000762939453125 24 24.100000381469726562 24.299999237060546875 25.299999237060546875 26.100000381469726562 27 28.299999237060546875 30.5 33.299999237060546875 36.90000152587890625 40.700000762939453125 43.200000762939453125 45.59999847412109375 47.09999847412109375 47.40000152587890625 44.799999237060546875 43.799999237060546875 42.40000152587890625 42.200000762939453125 42 42 42.5 43.700000762939453125 45.299999237060546875 47.200000762939453125 49.09999847412109375 51.59999847412109375 54.799999237060546875 58.5 61.700000762939453125 63.40000152587890625 65.6999969482421875 65.59999847412109375 64.40000152587890625 62.799999237060546875 61.40000152587890625 61.799999237060546875 
52.299999237060546875 51.799999237060546875 50.09999847412109375 48.799999237060546875 47.799999237060546875 47.59999847412109375 49.200000762939453125 51.299999237060546875 54.90000152587890625 58.90000152587890625 61.5 60.5 57.40000152587890625 53.299999237060546875 51.09999847412109375 50.90000152587890625 52.09999847412109375 52.799999237060546875 55.700000762939453125 61.40000152587890625 68.3000030517578125 72.6999969482421875 77.40000152587890625 82.1999969482421875 84.8000030517578125 85.8000030517578125 85.3000030517578125 82.8000030517578125 80.40000152587890625 76.8000030517578125 73.90000152587890625 71.3000030517578125 68.5 65.1999969482421875 61.40000152587890625 57.299999237060546875 54.09999847412109375 51.700000762939453125 51.700000762939453125 52 52.90000152587890625 53.90000152587890625 53.5 52 50.59999847412109375 50 52.700000762939453125 57.5 62.59999847412109375 63.40000152587890625 60.09999847412109375 56.299999237060546875 52.799999237060546875 50.799999237060546875 50 49.59999847412109375 49.40000152587890625 49 48.700000762939453125 49.799999237060546875 50.90000152587890625 52.5 54.09999847412109375 55.799999237060546875 58.799999237060546875 62.200000762939453125 65.09999847412109375 65.1999969482421875 65.1999969482421875 66.40000152587890625 68.90000152587890625 74.59999847412109375 79.6999969482421875 82.40000152587890625 87.09999847412109375 95.6999969482421875 103.3000030517578125 107.8000030517578125 110.1999969482421875 108.5 100.90000152587890625 94.3000030517578125 90.1999969482421875 87.3000030517578125 83.8000030517578125 78.90000152587890625 75.40000152587890625 72 70.3000030517578125 69.40000152587890625 68.90000152587890625 68.40000152587890625 68.09999847412109375 66.6999969482421875 65.90000152587890625 66.8000030517578125 67.5 66.09999847412109375 63.90000152587890625 61.90000152587890625 59.59999847412109375 56.799999237060546875 54.200000762939453125 52.90000152587890625 50.5 49.299999237060546875 49 50.40000152587890625 49.40000152587890625 49.09999847412109375 48.5 47.90000152587890625 47.799999237060546875 47.200000762939453125 46.90000152587890625 47.09999847412109375 46.59999847412109375 46.5 45.40000152587890625 44.09999847412109375 42.700000762939453125 41.09999847412109375 39.5 38 35.90000152587890625 33.299999237060546875 30.799999237060546875 28.899999618530273438 27.299999237060546875 26.700000762939453125 26.200000762939453125 25 24.700000762939453125 24.700000762939453125 24 23.399999618530273438 22.299999237060546875 21.600000381469726562 22.399999618530273438 24 27.200000762939453125 30.399999618530273438 33.700000762939453125 35.59999847412109375 36.5 36.5 36.299999237060546875 35.799999237060546875 35.09999847412109375 33.59999847412109375 31.899999618530273438 30.100000381469726562 28.700000762939453125 27.5 26.399999618530273438 26.200000762939453125 25.899999618530273438 26.799999237060546875 26.899999618530273438 26 26 25.299999237060546875 24.899999618530273438 24.399999618530273438 24.5 24.399999618530273438 24.600000381469726562 25.600000381469726562 26.399999618530273438 27.299999237060546875 29.5 31.299999237060546875 33.799999237060546875 37.09999847412109375 41 43.299999237060546875 43.90000152587890625 43.200000762939453125 41.40000152587890625 41 40.09999847412109375 40 39.90000152587890625 40.200000762939453125 40.59999847412109375 41.59999847412109375 43.200000762939453125 44.799999237060546875 46.5 48.299999237060546875 50.299999237060546875 53 56.299999237060546875 60.799999237060546875 64.59999847412109375 66.6999969482421875 66.09999847412109375 64.59999847412109375 64.1999969482421875 63.299999237060546875 
51.200000762939453125 49.200000762939453125 47.299999237060546875 46.299999237060546875 46.09999847412109375 46.5 47.90000152587890625 49.799999237060546875 53 55.5 58.59999847412109375 57.40000152587890625 53.5 51.200000762939453125 50.40000152587890625 51.09999847412109375 52.59999847412109375 55 60.799999237060546875 68.90000152587890625 74.1999969482421875 76.40000152587890625 80.40000152587890625 84.1999969482421875 85.40000152587890625 86.40000152587890625 84.8000030517578125 82.1999969482421875 79.5 75.6999969482421875 72.3000030517578125 69.40000152587890625 66.59999847412109375 63.40000152587890625 59.5 56.5 55.5 54.5 54 54 54.40000152587890625 54.799999237060546875 54.59999847412109375 53.5 52.59999847412109375 51.299999237060546875 50.90000152587890625 52.90000152587890625 57.40000152587890625 62.40000152587890625 60.700000762939453125 58.5 54.799999237060546875 52.5 51.40000152587890625 50.799999237060546875 50.200000762939453125 49.200000762939453125 49.299999237060546875 49.799999237060546875 50.700000762939453125 52.09999847412109375 53.40000152587890625 54.90000152587890625 58 61 63.59999847412109375 63.799999237060546875 64.5 66 68.3000030517578125 73.8000030517578125 80.6999969482421875 83.1999969482421875 86.1999969482421875 92.6999969482421875 99.59999847412109375 106.40000152587890625 111.1999969482421875 109.59999847412109375 101.1999969482421875 91 87.8000030517578125 86.8000030517578125 85.09999847412109375 80.40000152587890625 75.8000030517578125 74.8000030517578125 73.59999847412109375 72.6999969482421875 72 71.6999969482421875 71.3000030517578125 70.09999847412109375 70.5 70.8000030517578125 69.40000152587890625 67.3000030517578125 65.1999969482421875 63.200000762939453125 61.200000762939453125 59 56.200000762939453125 54.700000762939453125 52.700000762939453125 51.09999847412109375 49.799999237060546875 51.299999237060546875 47.40000152587890625 46 45.09999847412109375 45.299999237060546875 44.700000762939453125 44.5 45.09999847412109375 46.200000762939453125 45.700000762939453125 45.799999237060546875 44.700000762939453125 43 41.5 39.799999237060546875 38.09999847412109375 36.40000152587890625 34 31.700000762939453125 29.5 27.700000762939453125 26.899999618530273438 26.799999237060546875 26.799999237060546875 25.600000381469726562 25.600000381469726562 25.600000381469726562 25.200000762939453125 24.600000381469726562 24.100000381469726562 25.5 22.299999237060546875 22.899999618530273438 25.700000762939453125 28.799999237060546875 32.09999847412109375 34.59999847412109375 36.299999237060546875 37.09999847412109375 37.299999237060546875 36.700000762939453125 36 35.299999237060546875 33.90000152587890625 32 30.200000762939453125 28.899999618530273438 27.600000381469726562 26.700000762939453125 26.299999237060546875 26.700000762939453125 26.899999618530273438 26.700000762939453125 26 25.700000762939453125 25.5 25 24.700000762939453125 24.600000381469726562 24.799999237060546875 25.200000762939453125 26 26.399999618530273438 27 28.600000381469726562 31.600000381469726562 34.59999847412109375 37.700000762939453125 39.299999237060546875 39.799999237060546875 39.09999847412109375 38.299999237060546875 38.09999847412109375 37.90000152587890625 38 38.299999237060546875 38.59999847412109375 39.299999237060546875 40.299999237060546875 41.799999237060546875 43.09999847412109375 44.700000762939453125 46.40000152587890625 47.90000152587890625 50.200000762939453125 54.09999847412109375 60.200000762939453125 64.90000152587890625 67.8000030517578125 67.59999847412109375 66.90000152587890625 66.1999969482421875 65.3000030517578125 
48.299999237060546875 46.40000152587890625 45 44.40000152587890625 44.799999237060546875 45.299999237060546875 46.09999847412109375 47.90000152587890625 49.59999847412109375 50.09999847412109375 52.90000152587890625 51.40000152587890625 50.299999237060546875 49.90000152587890625 50.700000762939453125 52.200000762939453125 54.799999237060546875 59.09999847412109375 66.59999847412109375 74.5 80 81.6999969482421875 83.90000152587890625 85.5 86.5 86.3000030517578125 84.3000030517578125 81.5 78.5 74.6999969482421875 70.90000152587890625 67.5 64.3000030517578125 61.200000762939453125 58.799999237060546875 58.59999847412109375 58.59999847412109375 59.40000152587890625 57.5 57.299999237060546875 56.90000152587890625 56.299999237060546875 55.40000152587890625 54.5 54 53.5 52.200000762939453125 52.5 55.5 56.90000152587890625 62 60.40000152587890625 57.40000152587890625 54.799999237060546875 52.90000152587890625 52.200000762939453125 51.5 51 50.90000152587890625 51.299999237060546875 51.90000152587890625 52.799999237060546875 53.40000152587890625 54.200000762939453125 56.59999847412109375 59.09999847412109375 60.59999847412109375 61.40000152587890625 63.299999237060546875 65.8000030517578125 69.3000030517578125 73.90000152587890625 80.5 83.3000030517578125 86.40000152587890625 90.5 96.3000030517578125 102.40000152587890625 110.5 110.6999969482421875 102.3000030517578125 91.8000030517578125 89 87.5 87.09999847412109375 84.6999969482421875 81 79.40000152587890625 77.59999847412109375 76.09999847412109375 75.1999969482421875 75.1999969482421875 75.1999969482421875 74.6999969482421875 74.1999969482421875 72.8000030517578125 70.90000152587890625 68.40000152587890625 66.59999847412109375 64.3000030517578125 62.09999847412109375 60.5 58.5 56.5 54.40000152587890625 52.700000762939453125 52.40000152587890625 50.5 47.5 45.700000762939453125 44 43.5 42.799999237060546875 42.40000152587890625 42.59999847412109375 43.5 44.59999847412109375 44.700000762939453125 43.90000152587890625 42.299999237060546875 40.299999237060546875 38.700000762939453125 36.59999847412109375 34.59999847412109375 32.59999847412109375 30.299999237060546875 28.299999237060546875 27.600000381469726562 27 27 27.399999618530273438 26.600000381469726562 26.5 26.5 26.100000381469726562 25.700000762939453125 25.200000762939453125 24.899999618530273438 23.899999618530273438 24 24.700000762939453125 27.200000762939453125 30.299999237060546875 32.59999847412109375 35.09999847412109375 37.200000762939453125 37.90000152587890625 37.5 36.799999237060546875 36.200000762939453125 35.200000762939453125 33.299999237060546875 31.600000381469726562 30.200000762939453125 28.799999237060546875 27.600000381469726562 27 26.899999618530273438 25.899999618530273438 28.100000381469726562 26.700000762939453125 26.299999237060546875 26 25.600000381469726562 25.200000762939453125 25.100000381469726562 25.100000381469726562 25.200000762939453125 24.799999237060546875 25.299999237060546875 25.799999237060546875 26.5 28.200000762939453125 30.399999618530273438 32.59999847412109375 34 34.90000152587890625 35.200000762939453125 35.09999847412109375 35.59999847412109375 36 36.299999237060546875 36.700000762939453125 37.200000762939453125 38.200000762939453125 39.40000152587890625 40.5 41.700000762939453125 43 44.5 46.5 49.299999237060546875 53.799999237060546875 59.40000152587890625 65.3000030517578125 68.90000152587890625 69.1999969482421875 69.09999847412109375 67.40000152587890625 66.1999969482421875 
45.5 44.40000152587890625 43.59999847412109375 43 43.200000762939453125 44.09999847412109375 44.799999237060546875 45.299999237060546875 45.59999847412109375 48.700000762939453125 48.200000762939453125 48.200000762939453125 48.59999847412109375 49.90000152587890625 51.200000762939453125 53.5 56.09999847412109375 62.5 70.8000030517578125 78.59999847412109375 81.5 83.5 85 86.59999847412109375 86.8000030517578125 86.09999847412109375 83 80.3000030517578125 77.5 73.6999969482421875 69.59999847412109375 66 62.59999847412109375 60.40000152587890625 61.200000762939453125 62.40000152587890625 62.90000152587890625 63.299999237060546875 61.799999237060546875 60.90000152587890625 60.40000152587890625 58.90000152587890625 57 56.5 56 55 52.700000762939453125 52.5 55 60.09999847412109375 57.799999237060546875 63.5 61.09999847412109375 57.799999237060546875 55.299999237060546875 54.40000152587890625 53.5 53.200000762939453125 52.700000762939453125 52.799999237060546875 53.200000762939453125 54.09999847412109375 54.59999847412109375 54.40000152587890625 55.09999847412109375 56.799999237060546875 58.40000152587890625 60.200000762939453125 63.299999237060546875 66.40000152587890625 70.59999847412109375 74.1999969482421875 78.6999969482421875 82.1999969482421875 85.1999969482421875 88.8000030517578125 94 99.40000152587890625 106.40000152587890625 111.8000030517578125 105.40000152587890625 94.1999969482421875 94.3000030517578125 100.59999847412109375 98.59999847412109375 89.90000152587890625 86.3000030517578125 83.8000030517578125 81.6999969482421875 80.1999969482421875 79.5 79.40000152587890625 79 78.3000030517578125 76.59999847412109375 74.09999847412109375 71.40000152587890625 69.09999847412109375 67.3000030517578125 65.59999847412109375 63.5 61.799999237060546875 60.299999237060546875 58.299999237060546875 56.09999847412109375 54.700000762939453125 53.299999237060546875 51.59999847412109375 48.59999847412109375 47.299999237060546875 45.5 43.700000762939453125 43 41.799999237060546875 41.09999847412109375 41.59999847412109375 42.40000152587890625 42.5 42.09999847412109375 40.90000152587890625 39.200000762939453125 37.299999237060546875 35.09999847412109375 33 31.299999237060546875 29.299999237060546875 28.799999237060546875 27.899999618530273438 27.799999237060546875 28.200000762939453125 28.600000381469726562 28.100000381469726562 27.899999618530273438 27.600000381469726562 27.5 27.299999237060546875 26 25.100000381469726562 24.200000762939453125 25.200000762939453125 25 29.5 30.600000381469726562 32.40000152587890625 33.90000152587890625 36.299999237060546875 37.799999237060546875 38.5 38.59999847412109375 38.200000762939453125 36.40000152587890625 34.5 32.90000152587890625 31.200000762939453125 29.600000381469726562 28.600000381469726562 27.899999618530273438 27.5 26.700000762939453125 26.700000762939453125 26.899999618530273438 26.700000762939453125 26.399999618530273438 26 25.700000762939453125 25.5 25.5 25.200000762939453125 25 24.799999237060546875 25.299999237060546875 26 27.100000381469726562 27 28.200000762939453125 30.5 31.899999618530273438 32.59999847412109375 33.40000152587890625 34 34.799999237060546875 35 35.299999237060546875 36 37.09999847412109375 38.40000152587890625 39.5 40.5 41.90000152587890625 43.700000762939453125 45.90000152587890625 48.299999237060546875 51.700000762939453125 56.09999847412109375 62.200000762939453125 67.1999969482421875 68.6999969482421875 68.3000030517578125 66.40000152587890625 64.6999969482421875 
43.90000152587890625 42.90000152587890625 42.299999237060546875 41.799999237060546875 41.700000762939453125 42.799999237060546875 43 42.59999847412109375 44.59999847412109375 45.5 46.299999237060546875 46.90000152587890625 47.799999237060546875 49.59999847412109375 51.90000152587890625 54.700000762939453125 59.700000762939453125 65.90000152587890625 73 79.90000152587890625 81.09999847412109375 83.40000152587890625 85.09999847412109375 86.8000030517578125 87 85.40000152587890625 82.59999847412109375 79.59999847412109375 76.5 72.59999847412109375 68.59999847412109375 65.5 63.200000762939453125 63.59999847412109375 65.40000152587890625 66.8000030517578125 67.1999969482421875 67 65.6999969482421875 64.09999847412109375 62.59999847412109375 60.799999237060546875 59.09999847412109375 58.40000152587890625 58.09999847412109375 56.40000152587890625 53.90000152587890625 52.5 55 59.59999847412109375 63.59999847412109375 63.200000762939453125 61.700000762939453125 59.09999847412109375 59.59999847412109375 58 56.5 55.5 54.200000762939453125 53.90000152587890625 55 56.59999847412109375 57.200000762939453125 56.90000152587890625 56.09999847412109375 57.09999847412109375 58.90000152587890625 60.90000152587890625 63.799999237060546875 67.09999847412109375 70.09999847412109375 73.09999847412109375 77 80.40000152587890625 83.5 86.6999969482421875 91 95.8000030517578125 103.6999969482421875 111.1999969482421875 109.59999847412109375 99.09999847412109375 106.6999969482421875 104.3000030517578125 100.09999847412109375 96.8000030517578125 91.09999847412109375 88.40000152587890625 86 84.6999969482421875 83.40000152587890625 82.5 81.8000030517578125 79.90000152587890625 77.40000152587890625 73.8000030517578125 70.09999847412109375 68.09999847412109375 67 65.8000030517578125 64.6999969482421875 63.200000762939453125 62 59.799999237060546875 57.90000152587890625 55.40000152587890625 53 53 49.799999237060546875 48.40000152587890625 46.59999847412109375 44.799999237060546875 43.09999847412109375 41.90000152587890625 40.59999847412109375 40 39.90000152587890625 39.799999237060546875 39.299999237060546875 38.40000152587890625 37.40000152587890625 35.59999847412109375 33.700000762939453125 32.200000762939453125 31.100000381469726562 29.899999618530273438 29.600000381469726562 28.799999237060546875 29.299999237060546875 29.5 29.799999237060546875 29.600000381469726562 29.299999237060546875 29.100000381469726562 28.700000762939453125 28 26.5 25 24.700000762939453125 25.100000381469726562 25.200000762939453125 28.5 30.100000381469726562 29.899999618530273438 31.799999237060546875 34.700000762939453125 37.299999237060546875 38.5 39.799999237060546875 39.799999237060546875 38.200000762939453125 36.299999237060546875 34.5 32.59999847412109375 31 29.600000381469726562 28.799999237060546875 28.100000381469726562 28.600000381469726562 27.700000762939453125 27.299999237060546875 27.200000762939453125 26.899999618530273438 26.5 26 25.799999237060546875 25.799999237060546875 25.700000762939453125 25.5 25.299999237060546875 25.600000381469726562 26 26.600000381469726562 27.700000762939453125 28.100000381469726562 29.100000381469726562 29.799999237060546875 31 32 32.90000152587890625 33.59999847412109375 33.700000762939453125 34 34.90000152587890625 36.09999847412109375 37.40000152587890625 38.5 39.59999847412109375 41.40000152587890625 43.299999237060546875 45.40000152587890625 47.299999237060546875 49.59999847412109375 53.200000762939453125 57.200000762939453125 60.200000762939453125 61.700000762939453125 62.5 61.700000762939453125 60.200000762939453125 
42.59999847412109375 41.200000762939453125 40.90000152587890625 41.40000152587890625 41.90000152587890625 41.799999237060546875 43.5 43.799999237060546875 44.200000762939453125 45 45.700000762939453125 46.700000762939453125 48.09999847412109375 49.799999237060546875 52.5 56.200000762939453125 61.59999847412109375 66.3000030517578125 71.5 75.90000152587890625 80.3000030517578125 83.6999969482421875 86.09999847412109375 87.5 86.8000030517578125 85.40000152587890625 82.5 79.40000152587890625 75.59999847412109375 71.6999969482421875 68.3000030517578125 66.40000152587890625 66 67.3000030517578125 69.6999969482421875 70.59999847412109375 71.1999969482421875 70.8000030517578125 69.59999847412109375 67.6999969482421875 65.90000152587890625 64 61.799999237060546875 60.09999847412109375 59.09999847412109375 57.59999847412109375 56 53.5 56.200000762939453125 61.40000152587890625 66.8000030517578125 69.40000152587890625 69.09999847412109375 65.3000030517578125 62.09999847412109375 59.299999237060546875 60.59999847412109375 58 56.200000762939453125 55.799999237060546875 57.90000152587890625 59.700000762939453125 59.90000152587890625 59.90000152587890625 58.299999237060546875 58.200000762939453125 60 61.90000152587890625 63.5 66.59999847412109375 70.1999969482421875 72.59999847412109375 75.5 79.1999969482421875 82.59999847412109375 85.5 89.1999969482421875 94.90000152587890625 104.6999969482421875 110.6999969482421875 111.40000152587890625 108.8000030517578125 106.90000152587890625 104.90000152587890625 102.59999847412109375 99.90000152587890625 96.1999969482421875 91.1999969482421875 87.1999969482421875 86.59999847412109375 85.5 84.09999847412109375 82.09999847412109375 79.59999847412109375 76.8000030517578125 72.3000030517578125 69 67.3000030517578125 66.3000030517578125 65.09999847412109375 64.5 63.90000152587890625 62.799999237060546875 60.90000152587890625 59.09999847412109375 56.700000762939453125 51.200000762939453125 53.5 51 49 46.90000152587890625 45.299999237060546875 43.5 41.700000762939453125 40.200000762939453125 39.299999237060546875 38.59999847412109375 37.40000152587890625 37 36.09999847412109375 35.299999237060546875 33.700000762939453125 32.799999237060546875 31.799999237060546875 31.100000381469726562 30.399999618530273438 30.5 30.700000762939453125 31.399999618530273438 31.399999618530273438 31.399999618530273438 30.799999237060546875 30.600000381469726562 30.100000381469726562 29.299999237060546875 28.700000762939453125 27.200000762939453125 25 24.200000762939453125 24.299999237060546875 24.100000381469726562 25.299999237060546875 26.399999618530273438 27.399999618530273438 30 32.59999847412109375 35.299999237060546875 38.200000762939453125 40.40000152587890625 40.90000152587890625 39.59999847412109375 38.299999237060546875 36.799999237060546875 35 33.40000152587890625 31.5 30.100000381469726562 29.299999237060546875 28.600000381469726562 26 27.799999237060546875 27.600000381469726562 27.5 27.299999237060546875 26.700000762939453125 26.299999237060546875 26.299999237060546875 26.200000762939453125 26 25.799999237060546875 26 26.399999618530273438 26.5 27.700000762939453125 28.399999618530273438 28.5 29 30.299999237060546875 31.399999618530273438 32.09999847412109375 32.299999237060546875 32.5 33.09999847412109375 34 35.09999847412109375 36.5 37.59999847412109375 39 40.59999847412109375 42.5 44.40000152587890625 46 48 50.200000762939453125 52.59999847412109375 54.90000152587890625 55.90000152587890625 56.5 56.59999847412109375 56.700000762939453125 
42.200000762939453125 40.40000152587890625 40.700000762939453125 41.299999237060546875 42.90000152587890625 43.299999237060546875 43.40000152587890625 43.59999847412109375 44.299999237060546875 44.799999237060546875 45.700000762939453125 46.700000762939453125 48.09999847412109375 50.09999847412109375 52.59999847412109375 55.799999237060546875 60.5 65.3000030517578125 69.5 73.90000152587890625 80.90000152587890625 85.40000152587890625 87.90000152587890625 88.09999847412109375 87.5 85.8000030517578125 82.59999847412109375 79.59999847412109375 75.59999847412109375 71.59999847412109375 70.09999847412109375 69.09999847412109375 69.90000152587890625 72.1999969482421875 73.09999847412109375 74.1999969482421875 74.5 74.3000030517578125 73.09999847412109375 71.09999847412109375 69.09999847412109375 66.6999969482421875 64.5 61.90000152587890625 60.09999847412109375 59.200000762939453125 57.59999847412109375 55.700000762939453125 58.09999847412109375 63.200000762939453125 68.8000030517578125 72.8000030517578125 72.90000152587890625 70.3000030517578125 67.40000152587890625 66.09999847412109375 63.59999847412109375 60.299999237060546875 63 62.299999237060546875 60 62 63 62.59999847412109375 60.799999237060546875 59.700000762939453125 61 63 64.6999969482421875 65.90000152587890625 68 71.59999847412109375 74.90000152587890625 78.40000152587890625 81.1999969482421875 83.6999969482421875 88.8000030517578125 97.5 106.59999847412109375 110.3000030517578125 110.90000152587890625 109.09999847412109375 106.6999969482421875 104.40000152587890625 101.6999969482421875 98.3000030517578125 96.5 92.40000152587890625 88.1999969482421875 87.09999847412109375 86.1999969482421875 84.6999969482421875 81.6999969482421875 78.90000152587890625 76.5 71.40000152587890625 68 66.6999969482421875 65.3000030517578125 63.799999237060546875 62.90000152587890625 61.799999237060546875 60.700000762939453125 59.799999237060546875 58.700000762939453125 57 54.700000762939453125 53.700000762939453125 51.90000152587890625 50.09999847412109375 48 45.59999847412109375 43.59999847412109375 41.5 40 38.700000762939453125 37.700000762939453125 36.40000152587890625 35.200000762939453125 34.40000152587890625 33.700000762939453125 33.09999847412109375 32.40000152587890625 31.799999237060546875 31.600000381469726562 31.600000381469726562 32.40000152587890625 33.09999847412109375 33.59999847412109375 33.5 33 32 31.399999618530273438 30.899999618530273438 30.200000762939453125 28.799999237060546875 26.799999237060546875 25.899999618530273438 24.899999618530273438 24.399999618530273438 23.799999237060546875 24.100000381469726562 25.200000762939453125 26.600000381469726562 28.700000762939453125 30.700000762939453125 33.700000762939453125 37 40.200000762939453125 41.799999237060546875 41.40000152587890625 40.5 38.90000152587890625 37.200000762939453125 35.09999847412109375 33.200000762939453125 31.399999618530273438 30.600000381469726562 29.600000381469726562 28.299999237060546875 28.600000381469726562 27.899999618530273438 27.600000381469726562 27.5 27.399999618530273438 27 26.899999618530273438 26.700000762939453125 26.600000381469726562 26.399999618530273438 26.399999618530273438 26.600000381469726562 26.700000762939453125 27.200000762939453125 28 28.299999237060546875 29.100000381469726562 29.899999618530273438 30.600000381469726562 30.799999237060546875 31.299999237060546875 31.899999618530273438 32.59999847412109375 33.5 34.5 35.5 36.59999847412109375 37.799999237060546875 39.299999237060546875 41.200000762939453125 43.200000762939453125 44.799999237060546875 46.700000762939453125 48.40000152587890625 49.59999847412109375 50.90000152587890625 51.90000152587890625 52.700000762939453125 53.40000152587890625 54.200000762939453125 
43.299999237060546875 39.90000152587890625 40.700000762939453125 41.799999237060546875 42.299999237060546875 42.90000152587890625 43.5 44.40000152587890625 45.200000762939453125 45.5 46.40000152587890625 47.299999237060546875 48.5 50.200000762939453125 53.90000152587890625 56.200000762939453125 60.700000762939453125 66.09999847412109375 71.1999969482421875 75.59999847412109375 81.8000030517578125 86.8000030517578125 88.5 88.5 88.40000152587890625 87 83.90000152587890625 80.59999847412109375 76.59999847412109375 74.5 74 72.90000152587890625 74.59999847412109375 76.1999969482421875 76.5 77.6999969482421875 77.5 77.40000152587890625 76.3000030517578125 74.1999969482421875 72 69.5 66.09999847412109375 63.59999847412109375 61.799999237060546875 60.90000152587890625 60.09999847412109375 57.09999847412109375 59.799999237060546875 64.8000030517578125 69.59999847412109375 73.5 76.09999847412109375 74.40000152587890625 72.8000030517578125 71 67.5 63.299999237060546875 62.40000152587890625 63.40000152587890625 64.3000030517578125 64.09999847412109375 64.90000152587890625 64.8000030517578125 62.59999847412109375 61.59999847412109375 62.299999237060546875 64.8000030517578125 66.3000030517578125 67.59999847412109375 69.3000030517578125 72.1999969482421875 74.6999969482421875 76.90000152587890625 79.90000152587890625 84.8000030517578125 93 102.3000030517578125 108.5 110.59999847412109375 110.5 108.1999969482421875 102.5 99.40000152587890625 96.6999969482421875 95.59999847412109375 96.1999969482421875 93.8000030517578125 89.6999969482421875 87.6999969482421875 86.40000152587890625 83.90000152587890625 81.40000152587890625 78.3000030517578125 75.59999847412109375 71.40000152587890625 68.6999969482421875 66.90000152587890625 65.1999969482421875 63.299999237060546875 61.700000762939453125 60.09999847412109375 59 58.200000762939453125 57.200000762939453125 56.59999847412109375 54.09999847412109375 52.799999237060546875 51.200000762939453125 49.09999847412109375 46.59999847412109375 44.09999847412109375 42.40000152587890625 41 39.90000152587890625 38.59999847412109375 37.299999237060546875 36.200000762939453125 35.200000762939453125 34.40000152587890625 33.799999237060546875 33.299999237060546875 32.59999847412109375 32.5 32.700000762939453125 33.40000152587890625 33.90000152587890625 34.299999237060546875 34.799999237060546875 34.799999237060546875 34.299999237060546875 34.200000762939453125 33.40000152587890625 32 31.100000381469726562 29.5 27.200000762939453125 25.799999237060546875 25.299999237060546875 25 23.899999618530273438 23.600000381469726562 24.700000762939453125 26.200000762939453125 27.899999618530273438 29.899999618530273438 32.299999237060546875 36 39.299999237060546875 42.5 43.09999847412109375 42.5 40.90000152587890625 39.09999847412109375 37 35 33.200000762939453125 32.09999847412109375 30.799999237060546875 30 28.799999237060546875 28.5 28.299999237060546875 28 27.700000762939453125 27.5 27.399999618530273438 27.200000762939453125 27.100000381469726562 26.899999618530273438 26.799999237060546875 26.899999618530273438 27 27.299999237060546875 27.700000762939453125 28.399999618530273438 29.200000762939453125 29.799999237060546875 30.100000381469726562 30.600000381469726562 31 31.600000381469726562 32.299999237060546875 33.200000762939453125 33.90000152587890625 34.59999847412109375 35.59999847412109375 36.5 38 39.799999237060546875 41.5 43.200000762939453125 45 46.799999237060546875 47.700000762939453125 48.09999847412109375 49 50.299999237060546875 51.700000762939453125 53.09999847412109375 
38.799999237060546875 41.09999847412109375 41.5 41.59999847412109375 42.59999847412109375 43.59999847412109375 44.299999237060546875 45 45.700000762939453125 46.299999237060546875 47.40000152587890625 48.200000762939453125 49.200000762939453125 51.5 56.200000762939453125 60.59999847412109375 66.6999969482421875 72.3000030517578125 77.90000152587890625 81.3000030517578125 84.59999847412109375 87.90000152587890625 88.8000030517578125 88.8000030517578125 88.59999847412109375 87.8000030517578125 85 81.8000030517578125 78 78 78 77.3000030517578125 78.09999847412109375 79.6999969482421875 80.1999969482421875 80.3000030517578125 79.8000030517578125 79.59999847412109375 78.59999847412109375 76.59999847412109375 74.09999847412109375 71.3000030517578125 68.09999847412109375 66.09999847412109375 64.90000152587890625 63.700000762939453125 62 58.799999237060546875 60.299999237060546875 65.09999847412109375 70 74.40000152587890625 77.8000030517578125 78.8000030517578125 77.09999847412109375 74.09999847412109375 69.90000152587890625 65.09999847412109375 62.09999847412109375 62.200000762939453125 62.700000762939453125 64.8000030517578125 65.90000152587890625 66 64.1999969482421875 63.59999847412109375 64.09999847412109375 66.1999969482421875 68.3000030517578125 69.6999969482421875 71.40000152587890625 74 75.8000030517578125 77.1999969482421875 81.09999847412109375 89.3000030517578125 96.1999969482421875 104.40000152587890625 109.6999969482421875 110.8000030517578125 110 105.09999847412109375 99.40000152587890625 94.59999847412109375 90.8000030517578125 89.3000030517578125 90.6999969482421875 93.09999847412109375 90.6999969482421875 88.09999847412109375 85.1999969482421875 81.8000030517578125 80.09999847412109375 77.6999969482421875 74.90000152587890625 71.90000152587890625 69.3000030517578125 67.59999847412109375 66 64.6999969482421875 62.200000762939453125 60 57.90000152587890625 56.59999847412109375 55.299999237060546875 52 53 51.299999237060546875 49.200000762939453125 47.09999847412109375 45.09999847412109375 42.59999847412109375 40.799999237060546875 39.59999847412109375 39 38 37 36 35.09999847412109375 34.299999237060546875 34 33.700000762939453125 33.700000762939453125 33.799999237060546875 33.799999237060546875 34.299999237060546875 35 35.299999237060546875 35.700000762939453125 35.700000762939453125 35.299999237060546875 35.200000762939453125 35.700000762939453125 34.200000762939453125 32.5 30.100000381469726562 27.399999618530273438 26 24.5 24.799999237060546875 23.100000381469726562 23.5 24.799999237060546875 26.299999237060546875 27.700000762939453125 29.299999237060546875 31.799999237060546875 35.200000762939453125 38.700000762939453125 43.299999237060546875 44.200000762939453125 43.59999847412109375 42.5 40.59999847412109375 38.799999237060546875 36.90000152587890625 36.09999847412109375 37.5 37.5 31.299999237060546875 30 26.700000762939453125 29.399999618530273438 29.399999618530273438 28.299999237060546875 28 27.799999237060546875 27.700000762939453125 27.700000762939453125 27.600000381469726562 27.5 27.5 27.299999237060546875 27.5 27.799999237060546875 28.5 29.399999618530273438 29.899999618530273438 30.299999237060546875 30.899999618530273438 31.399999618530273438 31.700000762939453125 32.09999847412109375 32.90000152587890625 33.40000152587890625 33.90000152587890625 34.700000762939453125 35.700000762939453125 36.90000152587890625 38.299999237060546875 40 41.700000762939453125 43 44 44.700000762939453125 45.40000152587890625 46.40000152587890625 48.299999237060546875 50.90000152587890625 53.09999847412109375 
40.799999237060546875 42.799999237060546875 42.90000152587890625 43.09999847412109375 43.90000152587890625 44.5 45.200000762939453125 45.700000762939453125 46.5 47.59999847412109375 48.700000762939453125 49.700000762939453125 50.799999237060546875 53.59999847412109375 59.700000762939453125 68.40000152587890625 72.8000030517578125 78.40000152587890625 80.40000152587890625 83.5 86.5 87.6999969482421875 88.8000030517578125 89.1999969482421875 88.90000152587890625 88.5 85.8000030517578125 82.5 80.8000030517578125 81.09999847412109375 81.5 81.1999969482421875 81.5 82.90000152587890625 82.90000152587890625 82.90000152587890625 82.5 81.90000152587890625 80.3000030517578125 78 75.90000152587890625 73.40000152587890625 70.5 68.90000152587890625 66.40000152587890625 63.59999847412109375 61.700000762939453125 59.40000152587890625 61.5 65.8000030517578125 70.5 75.6999969482421875 79.09999847412109375 81.40000152587890625 79.59999847412109375 75.6999969482421875 71.09999847412109375 66.5 62.799999237060546875 61.40000152587890625 62.200000762939453125 64.90000152587890625 66 66.90000152587890625 67.3000030517578125 67 67.1999969482421875 66.8000030517578125 69.6999969482421875 72.1999969482421875 73.1999969482421875 75.8000030517578125 78.1999969482421875 80.40000152587890625 85.09999847412109375 93.3000030517578125 100.6999969482421875 108 109.6999969482421875 110 107.8000030517578125 102.6999969482421875 97.59999847412109375 92.6999969482421875 89.09999847412109375 85.8000030517578125 84.8000030517578125 87.5 89 86.90000152587890625 82.5 81.1999969482421875 77.59999847412109375 75.09999847412109375 74 71.5 68.6999969482421875 67.1999969482421875 66.59999847412109375 66 63.200000762939453125 61 58.5 56.299999237060546875 54 51 51.700000762939453125 48.700000762939453125 46.59999847412109375 45.09999847412109375 43.09999847412109375 41 39.799999237060546875 38.700000762939453125 38 37.09999847412109375 36.90000152587890625 36.59999847412109375 35.40000152587890625 34.59999847412109375 34.700000762939453125 34.59999847412109375 34.5 34.90000152587890625 34.40000152587890625 34.40000152587890625 34.09999847412109375 34.5 35.09999847412109375 35.90000152587890625 35.700000762939453125 35.700000762939453125 36.200000762939453125 35.40000152587890625 33.09999847412109375 29.799999237060546875 27.600000381469726562 25.5 25 23.899999618530273438 22.700000762939453125 24 25.299999237060546875 26.5 27.799999237060546875 29.200000762939453125 31.700000762939453125 34.5 37.59999847412109375 43.09999847412109375 44.5 44.799999237060546875 43.90000152587890625 42.40000152587890625 40.700000762939453125 39.59999847412109375 39 39 38.90000152587890625 36.09999847412109375 32.299999237060546875 31.700000762939453125 26.899999618530273438 29.700000762939453125 28.899999618530273438 28.600000381469726562 28.200000762939453125 28 28.100000381469726562 28.100000381469726562 28.100000381469726562 28.100000381469726562 28 28 28.299999237060546875 28.799999237060546875 29.5 30.100000381469726562 30.600000381469726562 31.200000762939453125 31.700000762939453125 32 32.299999237060546875 32.799999237060546875 33.299999237060546875 33.90000152587890625 34.299999237060546875 35.09999847412109375 36.09999847412109375 37.09999847412109375 38.5 39.5 40.799999237060546875 41.59999847412109375 42.5 43.40000152587890625 44.700000762939453125 46.90000152587890625 49.40000152587890625 52.09999847412109375 
42.90000152587890625 43.09999847412109375 44.200000762939453125 44.799999237060546875 45.40000152587890625 45.90000152587890625 46 46.90000152587890625 48 49.09999847412109375 50.09999847412109375 51.09999847412109375 52.200000762939453125 55.40000152587890625 60.90000152587890625 69.40000152587890625 74.6999969482421875 78.59999847412109375 81.8000030517578125 85.59999847412109375 87.40000152587890625 88.3000030517578125 88.8000030517578125 89.1999969482421875 89.3000030517578125 89.1999969482421875 87.09999847412109375 85.09999847412109375 84.40000152587890625 84.6999969482421875 84.90000152587890625 84.8000030517578125 84.90000152587890625 85.5 85.3000030517578125 85.3000030517578125 84.5 83.6999969482421875 81.6999969482421875 79.1999969482421875 77.3000030517578125 74.90000152587890625 71.3000030517578125 68.90000152587890625 66.5 63.700000762939453125 61.59999847412109375 61.90000152587890625 62.200000762939453125 66.1999969482421875 71.40000152587890625 76.40000152587890625 80.09999847412109375 82.90000152587890625 81.8000030517578125 77.8000030517578125 72.59999847412109375 68.59999847412109375 66.1999969482421875 64.6999969482421875 63.700000762939453125 65.5 66.59999847412109375 67.59999847412109375 68.59999847412109375 69.6999969482421875 67.40000152587890625 70.1999969482421875 71.5 72.8000030517578125 73.59999847412109375 76.40000152587890625 80.40000152587890625 84.40000152587890625 89.09999847412109375 96.90000152587890625 103.5 109 109.40000152587890625 109.3000030517578125 102.40000152587890625 99.1999969482421875 97.59999847412109375 92.40000152587890625 88.59999847412109375 85 82.5 82.59999847412109375 81.1999969482421875 80.90000152587890625 79.5 79.8000030517578125 77.8000030517578125 73.90000152587890625 72 69.3000030517578125 67.09999847412109375 66.5 66 65.5 63.200000762939453125 61.09999847412109375 59.09999847412109375 56.799999237060546875 53.40000152587890625 51.200000762939453125 51 47.59999847412109375 45.200000762939453125 43.59999847412109375 41.700000762939453125 40.299999237060546875 39.09999847412109375 38.09999847412109375 37.5 37.40000152587890625 37.200000762939453125 37 36.40000152587890625 35.5 35.700000762939453125 35.700000762939453125 35.40000152587890625 34 33.200000762939453125 32.59999847412109375 32.299999237060546875 32.90000152587890625 33.90000152587890625 34.90000152587890625 35.5 34.799999237060546875 35.799999237060546875 34.59999847412109375 32.799999237060546875 29.600000381469726562 26 25.200000762939453125 24.299999237060546875 24.299999237060546875 24.100000381469726562 25 25.600000381469726562 26.899999618530273438 28.399999618530273438 29.700000762939453125 31.600000381469726562 33.09999847412109375 36.799999237060546875 41.40000152587890625 45 45.799999237060546875 45.299999237060546875 44.299999237060546875 42.799999237060546875 41.40000152587890625 40.40000152587890625 39.299999237060546875 39 38 34.09999847412109375 31.5 31.200000762939453125 27.399999618530273438 29.5 29.100000381469726562 28.600000381469726562 28.399999618530273438 28.600000381469726562 28.5 28.5 28.5 28.399999618530273438 28.700000762939453125 28.799999237060546875 29.299999237060546875 29.600000381469726562 30.100000381469726562 30.799999237060546875 31.5 32.09999847412109375 32.5 33 33.40000152587890625 33.799999237060546875 34.200000762939453125 34.59999847412109375 34.90000152587890625 35.299999237060546875 36.09999847412109375 37.200000762939453125 38.09999847412109375 39.40000152587890625 40.40000152587890625 41.200000762939453125 41.90000152587890625 43.09999847412109375 45.40000152587890625 47.59999847412109375 50.200000762939453125 
43.200000762939453125 43.299999237060546875 45.40000152587890625 46.5 47.200000762939453125 47.40000152587890625 47.40000152587890625 48.200000762939453125 49.299999237060546875 50.5 51.5 52.5 54.40000152587890625 57.799999237060546875 61.90000152587890625 68.5 74.59999847412109375 78.90000152587890625 81.8000030517578125 85.59999847412109375 87.59999847412109375 88.3000030517578125 88.6999969482421875 89.09999847412109375 89.40000152587890625 89.59999847412109375 88.90000152587890625 88.5 87.5 87.40000152587890625 87.3000030517578125 87.40000152587890625 87.8000030517578125 88.09999847412109375 87.8000030517578125 87.09999847412109375 86.3000030517578125 85.09999847412109375 83 80.59999847412109375 78.40000152587890625 76.09999847412109375 71.6999969482421875 68.40000152587890625 65.90000152587890625 63.90000152587890625 61.40000152587890625 61.700000762939453125 63.799999237060546875 67.3000030517578125 71.90000152587890625 76.6999969482421875 80.59999847412109375 83.6999969482421875 84.8000030517578125 82 78.09999847412109375 74.5 72.09999847412109375 68.90000152587890625 66.5 65.8000030517578125 67.5 68.6999969482421875 70.6999969482421875 73.1999969482421875 73.8000030517578125 72.90000152587890625 67.59999847412109375 73.40000152587890625 74.5 76.90000152587890625 81.1999969482421875 86.09999847412109375 92.40000152587890625 98.8000030517578125 98.5 108.59999847412109375 109.6999969482421875 107.40000152587890625 100.40000152587890625 95.3000030517578125 94.5 92.3000030517578125 88 85.6999969482421875 82.90000152587890625 80.59999847412109375 76.90000152587890625 76.90000152587890625 76.90000152587890625 78.5 79.5 74.3000030517578125 70.40000152587890625 67.6999969482421875 65.8000030517578125 65 64.40000152587890625 63.90000152587890625 63 61 59.200000762939453125 56.59999847412109375 54.09999847412109375 51.59999847412109375 50.700000762939453125 48 44.700000762939453125 43 41.700000762939453125 40.40000152587890625 39.09999847412109375 38 37.59999847412109375 37.40000152587890625 37.40000152587890625 37.09999847412109375 37 36.5 36.5 36.299999237060546875 35.09999847412109375 33.200000762939453125 31.700000762939453125 31 30.700000762939453125 31.5 32.09999847412109375 32.09999847412109375 31.700000762939453125 31.299999237060546875 32.200000762939453125 32.90000152587890625 31.600000381469726562 29.600000381469726562 25.5 24.600000381469726562 24.200000762939453125 23.299999237060546875 23.899999618530273438 25.200000762939453125 26.100000381469726562 27.100000381469726562 28.700000762939453125 30.200000762939453125 31.600000381469726562 33 36.299999237060546875 41.40000152587890625 46.09999847412109375 46.700000762939453125 46.40000152587890625 45.799999237060546875 45.09999847412109375 43.90000152587890625 41.700000762939453125 40.5 38.90000152587890625 37.200000762939453125 34.09999847412109375 31.899999618530273438 31.299999237060546875 30.899999618530273438 28.200000762939453125 29.5 29.100000381469726562 29.100000381469726562 28.899999618530273438 28.899999618530273438 28.799999237060546875 28.799999237060546875 28.799999237060546875 29.399999618530273438 29.399999618530273438 29.399999618530273438 29.700000762939453125 30.200000762939453125 30.899999618530273438 31.600000381469726562 32.299999237060546875 33.09999847412109375 33.700000762939453125 34.299999237060546875 34.90000152587890625 35 35.299999237060546875 35.5 35.700000762939453125 36.09999847412109375 36.5 37.299999237060546875 38.09999847412109375 39.299999237060546875 39.90000152587890625 40.5 42 43.59999847412109375 45.200000762939453125 47.200000762939453125 
42.90000152587890625 44.40000152587890625 46 47.09999847412109375 47.59999847412109375 47.5 48 48.700000762939453125 49.90000152587890625 51.200000762939453125 52.40000152587890625 54 56.700000762939453125 60.59999847412109375 65.5 69.8000030517578125 74.1999969482421875 78.90000152587890625 81.3000030517578125 85 87.3000030517578125 88.3000030517578125 88.59999847412109375 88.5 88.90000152587890625 89.3000030517578125 88.3000030517578125 89.09999847412109375 89.90000152587890625 89.90000152587890625 89.6999969482421875 89.6999969482421875 89.90000152587890625 90 89.59999847412109375 89 87.90000152587890625 86.1999969482421875 84 81.8000030517578125 79.5 77.3000030517578125 73.40000152587890625 69.5 66.59999847412109375 64.3000030517578125 62.5 61.5 65.09999847412109375 69.6999969482421875 73.6999969482421875 77.90000152587890625 81.1999969482421875 85.09999847412109375 87.6999969482421875 86.40000152587890625 84.40000152587890625 82 78.6999969482421875 73.5 69.59999847412109375 67.6999969482421875 68.6999969482421875 70.90000152587890625 73.6999969482421875 76.5 78 77.90000152587890625 74.6999969482421875 71.8000030517578125 75.1999969482421875 77.5 82.59999847412109375 88.6999969482421875 95.09999847412109375 99.8000030517578125 107.8000030517578125 109.5 109.8000030517578125 104.90000152587890625 98.5 94.90000152587890625 93.1999969482421875 87.59999847412109375 85.5 83.40000152587890625 81.40000152587890625 80.90000152587890625 78.5 76.90000152587890625 74.6999969482421875 74.40000152587890625 76.1999969482421875 72.5 68.90000152587890625 66.3000030517578125 64.5 63.59999847412109375 62.799999237060546875 62.09999847412109375 60.90000152587890625 59.59999847412109375 58.5 56.200000762939453125 51.40000152587890625 52.09999847412109375 50.700000762939453125 47.90000152587890625 45.40000152587890625 43.5 41.90000152587890625 40.40000152587890625 39.09999847412109375 38 37.59999847412109375 37.40000152587890625 37.40000152587890625 36.90000152587890625 37.09999847412109375 37.299999237060546875 36.59999847412109375 35.40000152587890625 34.09999847412109375 32.299999237060546875 30.600000381469726562 30.100000381469726562 29.700000762939453125 29.899999618530273438 30.299999237060546875 30 30.299999237060546875 30.399999618530273438 30.399999618530273438 31.100000381469726562 29.299999237060546875 27.799999237060546875 25 24 23.299999237060546875 23.700000762939453125 24.399999618530273438 25.100000381469726562 26.100000381469726562 27 28.600000381469726562 30.399999618530273438 32.09999847412109375 33.799999237060546875 36.799999237060546875 42.40000152587890625 46.90000152587890625 49 48.09999847412109375 47.5 47.09999847412109375 47 44 41.799999237060546875 40.299999237060546875 37.5 35.200000762939453125 32.90000152587890625 31.600000381469726562 30.899999618530273438 30.299999237060546875 28.700000762939453125 29.700000762939453125 30.5 29.299999237060546875 29.200000762939453125 29.200000762939453125 29.100000381469726562 29.100000381469726562 29.399999618530273438 29.399999618530273438 29.5 29.700000762939453125 30.399999618530273438 31 31.700000762939453125 32.40000152587890625 33.40000152587890625 34.09999847412109375 35.09999847412109375 35.799999237060546875 35.799999237060546875 36.09999847412109375 36.299999237060546875 36.59999847412109375 37 37.299999237060546875 37.700000762939453125 37.799999237060546875 38.700000762939453125 39.40000152587890625 39.700000762939453125 41 42.59999847412109375 44.09999847412109375 45.40000152587890625 
42 44.40000152587890625 44.90000152587890625 46.700000762939453125 47 47.5 48.200000762939453125 49.09999847412109375 50.200000762939453125 51.5 53.40000152587890625 55.799999237060546875 59.40000152587890625 63.5 68.1999969482421875 72.1999969482421875 75.3000030517578125 78.3000030517578125 81.5 84.5 86.5 87.59999847412109375 87.40000152587890625 86.59999847412109375 87.6999969482421875 88.09999847412109375 88.3000030517578125 89.5 90.5 91.1999969482421875 91.3000030517578125 91.40000152587890625 91.59999847412109375 91.59999847412109375 91.1999969482421875 90.8000030517578125 89.09999847412109375 86.90000152587890625 84.40000152587890625 81.90000152587890625 79.59999847412109375 77.6999969482421875 73.90000152587890625 70.5 68 65.59999847412109375 63.700000762939453125 62.299999237060546875 65.1999969482421875 70.40000152587890625 75.3000030517578125 78.8000030517578125 81.90000152587890625 86.1999969482421875 89.3000030517578125 90.09999847412109375 89.8000030517578125 87.8000030517578125 83.59999847412109375 77.90000152587890625 73.40000152587890625 71.3000030517578125 70.3000030517578125 73.8000030517578125 77.40000152587890625 80.59999847412109375 82.6999969482421875 81.40000152587890625 78.5 76.1999969482421875 73 78.1999969482421875 85.59999847412109375 92.1999969482421875 98.09999847412109375 100.09999847412109375 109.1999969482421875 110.59999847412109375 108.90000152587890625 102.1999969482421875 96.3000030517578125 94.40000152587890625 91.59999847412109375 85.90000152587890625 83.40000152587890625 81.09999847412109375 79.09999847412109375 80.6999969482421875 80.09999847412109375 73.09999847412109375 69.1999969482421875 68.8000030517578125 71.40000152587890625 69.8000030517578125 67.90000152587890625 65.6999969482421875 63.59999847412109375 62.59999847412109375 61.700000762939453125 60.299999237060546875 59 58.40000152587890625 57.09999847412109375 55.59999847412109375 51.40000152587890625 51.799999237060546875 50.59999847412109375 48.40000152587890625 46.09999847412109375 43.90000152587890625 42.09999847412109375 40.40000152587890625 39.299999237060546875 38.299999237060546875 37.799999237060546875 37.40000152587890625 36.90000152587890625 36.40000152587890625 36.40000152587890625 36 34.59999847412109375 33.59999847412109375 32.700000762939453125 30.899999618530273438 30.200000762939453125 29.899999618530273438 29.600000381469726562 29.399999618530273438 29.100000381469726562 28.700000762939453125 28.399999618530273438 28.5 28.600000381469726562 29.399999618530273438 26.200000762939453125 26.100000381469726562 24.5 23.600000381469726562 24 24.5 25.100000381469726562 25.799999237060546875 26.200000762939453125 27 28.600000381469726562 30.399999618530273438 32.09999847412109375 34.09999847412109375 37.09999847412109375 43.40000152587890625 48 50.799999237060546875 49.799999237060546875 49.299999237060546875 48.90000152587890625 48.700000762939453125 46 43.700000762939453125 41.799999237060546875 38.799999237060546875 36.200000762939453125 33.799999237060546875 31.799999237060546875 30.899999618530273438 30.299999237060546875 29.399999618530273438 33.700000762939453125 29.700000762939453125 29.600000381469726562 29.5 29.5 29.399999618530273438 29.399999618530273438 29.200000762939453125 29.200000762939453125 29.5 29.600000381469726562 30.200000762939453125 30.899999618530273438 31.700000762939453125 32.59999847412109375 33.59999847412109375 34.59999847412109375 36 36.40000152587890625 36.700000762939453125 37 37.09999847412109375 37.299999237060546875 37.700000762939453125 38.200000762939453125 38.59999847412109375 38.90000152587890625 39.200000762939453125 39.5 39.40000152587890625 40 41.59999847412109375 43 44.299999237060546875 
41.799999237060546875 43 44.5 45.09999847412109375 45.90000152587890625 47.09999847412109375 48.299999237060546875 49.299999237060546875 50.700000762939453125 52.299999237060546875 54.700000762939453125 58.09999847412109375 62.700000762939453125 66.90000152587890625 70.40000152587890625 73.40000152587890625 75.59999847412109375 77.8000030517578125 80.3000030517578125 82 83.40000152587890625 84.1999969482421875 85.1999969482421875 85 86.59999847412109375 87.59999847412109375 88.5 89.5 90.40000152587890625 91.3000030517578125 92 92.6999969482421875 92.6999969482421875 92.59999847412109375 92.8000030517578125 92 90.40000152587890625 87.6999969482421875 84.3000030517578125 80.90000152587890625 77.6999969482421875 75.8000030517578125 73.09999847412109375 70.09999847412109375 67.3000030517578125 65.59999847412109375 62.700000762939453125 62.5 65 68.3000030517578125 73.5 78 81 86 89.6999969482421875 92 93 91.6999969482421875 87.8000030517578125 81.40000152587890625 76.90000152587890625 72.90000152587890625 73.40000152587890625 77.09999847412109375 82.1999969482421875 85.5 86.40000152587890625 84.6999969482421875 81.1999969482421875 80 81 84.09999847412109375 89 96 100.1999969482421875 103 110.09999847412109375 110.3000030517578125 107.6999969482421875 100.09999847412109375 95.09999847412109375 93.59999847412109375 90.1999969482421875 85.40000152587890625 82.5 80.1999969482421875 76.8000030517578125 75.1999969482421875 73.6999969482421875 68.6999969482421875 67.1999969482421875 66.6999969482421875 70.6999969482421875 67.3000030517578125 65.09999847412109375 64.5 63.59999847412109375 62.299999237060546875 61.299999237060546875 59.59999847412109375 57.799999237060546875 56.799999237060546875 55.5 56 50.90000152587890625 51.299999237060546875 50.09999847412109375 48.40000152587890625 46.59999847412109375 44.200000762939453125 42.40000152587890625 40.799999237060546875 39.5 38.700000762939453125 38.200000762939453125 37.5 36.700000762939453125 36.200000762939453125 35.09999847412109375 34.200000762939453125 33.200000762939453125 32.299999237060546875 31.100000381469726562 30.399999618530273438 29.899999618530273438 29.399999618530273438 29 28.5 28 27.600000381469726562 26.299999237060546875 25.899999618530273438 26.600000381469726562 26.299999237060546875 24.700000762939453125 24.200000762939453125 23.600000381469726562 23.700000762939453125 24.299999237060546875 25 25.700000762939453125 26.299999237060546875 26.700000762939453125 27.799999237060546875 29.299999237060546875 30.399999618530273438 32.299999237060546875 34.40000152587890625 37.5 43.09999847412109375 47.90000152587890625 51.40000152587890625 51.40000152587890625 50.90000152587890625 49.799999237060546875 48.299999237060546875 46.90000152587890625 45.09999847412109375 42.700000762939453125 40 37.5 35 32.09999847412109375 30.899999618530273438 30.299999237060546875 30.600000381469726562 29.399999618530273438 29.899999618530273438 29.799999237060546875 29.600000381469726562 29.5 29.5 29.5 29.5 29.299999237060546875 29.600000381469726562 29.600000381469726562 29.899999618530273438 31.100000381469726562 32.299999237060546875 33 34 35.5 36.90000152587890625 37.5 37.700000762939453125 38 38.299999237060546875 38.59999847412109375 39.200000762939453125 39.40000152587890625 39.5 39.59999847412109375 39.90000152587890625 40.09999847412109375 40.200000762939453125 40.40000152587890625 40.5 41.700000762939453125 43 
41.799999237060546875 43 44.40000152587890625 45.5 47.09999847412109375 48.200000762939453125 48.5 49.5 51 52.700000762939453125 55.59999847412109375 59.200000762939453125 62.90000152587890625 67 70.5 73.09999847412109375 74.90000152587890625 76.3000030517578125 77.5 77.8000030517578125 78.90000152587890625 79.59999847412109375 82.59999847412109375 82.90000152587890625 85 87.40000152587890625 88.40000152587890625 89.3000030517578125 90.1999969482421875 91.1999969482421875 92.90000152587890625 94.1999969482421875 98 98 94.3000030517578125 92.90000152587890625 91.1999969482421875 88.3000030517578125 84.40000152587890625 80.3000030517578125 77 74.59999847412109375 71.8000030517578125 69 66.1999969482421875 64.5 64.5 65.40000152587890625 66.40000152587890625 68.40000152587890625 71.6999969482421875 76.3000030517578125 79.8000030517578125 85 89.09999847412109375 92.1999969482421875 94 94.6999969482421875 90.5 84.59999847412109375 79.6999969482421875 75.8000030517578125 76.3000030517578125 81.59999847412109375 87.3000030517578125 91.6999969482421875 91 88.09999847412109375 84.3000030517578125 83.90000152587890625 84.59999847412109375 86.6999969482421875 92.6999969482421875 99.1999969482421875 100.59999847412109375 109.8000030517578125 110.1999969482421875 109.90000152587890625 104.5 95.6999969482421875 94.40000152587890625 92.3000030517578125 87.59999847412109375 83.90000152587890625 81.5 78.1999969482421875 75 74.5 72.90000152587890625 66.8000030517578125 67.09999847412109375 67 68.1999969482421875 65.3000030517578125 63.5 63.200000762939453125 63 62 60.90000152587890625 58.799999237060546875 56.90000152587890625 55.5 54.799999237060546875 52.299999237060546875 52.799999237060546875 50.799999237060546875 49.700000762939453125 48.59999847412109375 46.799999237060546875 44.40000152587890625 42.59999847412109375 41 39.799999237060546875 39.09999847412109375 38.5 37.59999847412109375 36.799999237060546875 35.59999847412109375 34.5 33.40000152587890625 32.40000152587890625 31.5 31.100000381469726562 30.600000381469726562 30 29.399999618530273438 28.700000762939453125 27.700000762939453125 27.100000381469726562 26.200000762939453125 25.200000762939453125 24.899999618530273438 24.600000381469726562 24.600000381469726562 23.399999618530273438 23.600000381469726562 24 24.200000762939453125 24.799999237060546875 25.5 26.299999237060546875 26.899999618530273438 27.700000762939453125 29 30.100000381469726562 30.700000762939453125 32.200000762939453125 34.40000152587890625 36.59999847412109375 41.90000152587890625 46.700000762939453125 50.40000152587890625 52.40000152587890625 51.799999237060546875 50.59999847412109375 49.299999237060546875 47.5 46.200000762939453125 44.09999847412109375 41.700000762939453125 39 35.299999237060546875 32.59999847412109375 31 30.700000762939453125 30.299999237060546875 30.100000381469726562 29.399999618530273438 29.899999618530273438 29.700000762939453125 29.600000381469726562 29.600000381469726562 29.700000762939453125 30 30.200000762939453125 29.600000381469726562 29.600000381469726562 30.200000762939453125 31.399999618530273438 32.59999847412109375 33.59999847412109375 34.5 36.09999847412109375 37.59999847412109375 38.59999847412109375 38.90000152587890625 39.90000152587890625 40 40.40000152587890625 40.90000152587890625 40.700000762939453125 40.90000152587890625 41.299999237060546875 41.5 41.299999237060546875 41.40000152587890625 41.5 41.700000762939453125 42.200000762939453125 42.299999237060546875 
42 43.299999237060546875 44.799999237060546875 45.700000762939453125 48.09999847412109375 48.700000762939453125 48.799999237060546875 49.5 50.700000762939453125 52.299999237060546875 55.09999847412109375 59.299999237060546875 62.90000152587890625 66.3000030517578125 69.6999969482421875 71.5 73 73.5 73 72.5 73.1999969482421875 77 80.09999847412109375 80.59999847412109375 83.09999847412109375 85.5 87.6999969482421875 89.09999847412109375 89.90000152587890625 90.8000030517578125 92.8000030517578125 94.59999847412109375 98.8000030517578125 98.5 95.3000030517578125 94.1999969482421875 92 89.1999969482421875 85.09999847412109375 81.59999847412109375 78.90000152587890625 76.59999847412109375 73.3000030517578125 70.3000030517578125 67.5 66.8000030517578125 67.1999969482421875 66.90000152587890625 67.3000030517578125 67.59999847412109375 69.59999847412109375 73.90000152587890625 78.59999847412109375 83.1999969482421875 87.1999969482421875 91.3000030517578125 95.3000030517578125 96.40000152587890625 94.6999969482421875 87.6999969482421875 82.09999847412109375 78.3000030517578125 79.09999847412109375 84.6999969482421875 92.90000152587890625 96.8000030517578125 94.8000030517578125 91.3000030517578125 88.1999969482421875 87.3000030517578125 87.5 88.8000030517578125 95.8000030517578125 102.09999847412109375 100.8000030517578125 110.59999847412109375 110.3000030517578125 109.3000030517578125 102.1999969482421875 95.40000152587890625 93.90000152587890625 90.1999969482421875 85.6999969482421875 83 80.90000152587890625 78.5 76.59999847412109375 73.40000152587890625 68.5 67.1999969482421875 66.6999969482421875 67 66.09999847412109375 63.09999847412109375 63.09999847412109375 63 62.5 61.40000152587890625 60.200000762939453125 58.09999847412109375 56.59999847412109375 54.59999847412109375 54 51 51.299999237060546875 50.40000152587890625 49.200000762939453125 48 46.200000762939453125 44.09999847412109375 42.700000762939453125 41.299999237060546875 40.09999847412109375 39.59999847412109375 39 37.799999237060546875 36.40000152587890625 35.200000762939453125 34 32.90000152587890625 32.200000762939453125 31.600000381469726562 31.100000381469726562 30.5 29.899999618530273438 29.299999237060546875 28.700000762939453125 27.700000762939453125 26.700000762939453125 25.5 24.700000762939453125 24.399999618530273438 24.100000381469726562 23.5 23.799999237060546875 25.299999237060546875 24.100000381469726562 24.700000762939453125 25.399999618530273438 26 26.799999237060546875 27.700000762939453125 28.299999237060546875 29.5 30.200000762939453125 30.700000762939453125 31.899999618530273438 33.700000762939453125 35.40000152587890625 39.09999847412109375 45 49.299999237060546875 52.09999847412109375 52.59999847412109375 51.90000152587890625 50.700000762939453125 49.200000762939453125 47.200000762939453125 45 43 39.59999847412109375 35.700000762939453125 32.90000152587890625 32.5 30.899999618530273438 31.399999618530273438 31.299999237060546875 30.799999237060546875 29.799999237060546875 29.700000762939453125 29.799999237060546875 29.700000762939453125 29.799999237060546875 30.200000762939453125 30 29.5 29.700000762939453125 30.299999237060546875 31.5 32.700000762939453125 33.90000152587890625 35.09999847412109375 36.59999847412109375 38.09999847412109375 39.40000152587890625 41.09999847412109375 42.700000762939453125 42.40000152587890625 42.700000762939453125 42.40000152587890625 42 42.200000762939453125 42.5 43 42.90000152587890625 42.700000762939453125 42.90000152587890625 43.09999847412109375 43.200000762939453125 43.5 
41.90000152587890625 43.700000762939453125 45.299999237060546875 45.700000762939453125 47.299999237060546875 47.59999847412109375 47.799999237060546875 48.700000762939453125 50 51.59999847412109375 54.200000762939453125 58 61.799999237060546875 64.90000152587890625 67.40000152587890625 68.6999969482421875 68.8000030517578125 69 68.59999847412109375 67.5 69.1999969482421875 74.90000152587890625 77.3000030517578125 77.09999847412109375 79.40000152587890625 82.3000030517578125 84.3000030517578125 86.6999969482421875 87.90000152587890625 89.5 91.90000152587890625 94.59999847412109375 97.40000152587890625 97.6999969482421875 96.5 95 93 90.8000030517578125 87.40000152587890625 84.5 81.6999969482421875 78.59999847412109375 74.90000152587890625 71.3000030517578125 69.59999847412109375 69.59999847412109375 69.1999969482421875 68.59999847412109375 68.3000030517578125 67.3000030517578125 66.6999969482421875 71.8000030517578125 77.3000030517578125 82.40000152587890625 86.5 90.6999969482421875 94.59999847412109375 96.8000030517578125 97.1999969482421875 91.09999847412109375 85.3000030517578125 80.59999847412109375 81.3000030517578125 87.5 94.5 99.3000030517578125 100 95.90000152587890625 93.40000152587890625 93.1999969482421875 92.5 92.90000152587890625 99.5 101 108.3000030517578125 110.09999847412109375 109.8000030517578125 106.40000152587890625 99.59999847412109375 94.8000030517578125 93.3000030517578125 87.90000152587890625 84.5 82.09999847412109375 81.1999969482421875 79.59999847412109375 77.59999847412109375 75.1999969482421875 66.5 67.5 66.90000152587890625 69.09999847412109375 63.40000152587890625 62.59999847412109375 62.700000762939453125 62.90000152587890625 61.5 60.299999237060546875 59.299999237060546875 57.90000152587890625 55.700000762939453125 54.299999237060546875 54.90000152587890625 54.799999237060546875 44.799999237060546875 48.299999237060546875 47.700000762939453125 47 45.200000762939453125 43.299999237060546875 42.5 41.299999237060546875 40.299999237060546875 40.09999847412109375 39 37.40000152587890625 36.09999847412109375 34.90000152587890625 33.700000762939453125 32.59999847412109375 32 31.700000762939453125 31.100000381469726562 30.5 29.700000762939453125 28.700000762939453125 27.799999237060546875 26.899999618530273438 26.100000381469726562 25.399999618530273438 24.700000762939453125 24 24 24 24.100000381469726562 26.100000381469726562 24.5 25.299999237060546875 26 26.799999237060546875 27.5 28.299999237060546875 28.899999618530273438 29.700000762939453125 30.299999237060546875 31.100000381469726562 32.09999847412109375 33.299999237060546875 34.700000762939453125 36.90000152587890625 42.700000762939453125 47.90000152587890625 51.90000152587890625 53.200000762939453125 53.200000762939453125 52 50.5 47.700000762939453125 45.40000152587890625 43.5 39.5 35.200000762939453125 30.899999618530273438 30.899999618530273438 33.200000762939453125 33.09999847412109375 32.90000152587890625 31 30.399999618530273438 31.899999618530273438 29.700000762939453125 29.799999237060546875 30 29.799999237060546875 29.5 29.5 29.899999618530273438 30.399999618530273438 31.5 32.5 34 36.200000762939453125 37.5 38.59999847412109375 40.299999237060546875 42.700000762939453125 44.299999237060546875 45 45.200000762939453125 44.700000762939453125 43.799999237060546875 44 44.200000762939453125 44.5 44.700000762939453125 44.90000152587890625 44.90000152587890625 44.90000152587890625 44.700000762939453125 44.700000762939453125 
41.59999847412109375 42.90000152587890625 44.200000762939453125 45.09999847412109375 45.40000152587890625 46.299999237060546875 46.90000152587890625 47.90000152587890625 49.200000762939453125 50.799999237060546875 53.200000762939453125 56.799999237060546875 59.799999237060546875 62.200000762939453125 64 64.8000030517578125 63.799999237060546875 63.700000762939453125 62.700000762939453125 62.09999847412109375 66.40000152587890625 70.5 72.09999847412109375 73 76.3000030517578125 79.8000030517578125 82 84 85 87.40000152587890625 90.59999847412109375 93.6999969482421875 96.3000030517578125 97.09999847412109375 96.40000152587890625 95.6999969482421875 94.09999847412109375 92 89.5 86.6999969482421875 83.5 79.8000030517578125 76.09999847412109375 74.3000030517578125 73.09999847412109375 73 73.09999847412109375 72.6999969482421875 71 69.1999969482421875 68 70.59999847412109375 75.40000152587890625 80 84.59999847412109375 89.8000030517578125 93.40000152587890625 96 98.59999847412109375 95.5 89.5 83.8000030517578125 82.90000152587890625 89.40000152587890625 94.1999969482421875 102.1999969482421875 104.5 100.1999969482421875 99.1999969482421875 98.6999969482421875 98.6999969482421875 98.3000030517578125 101.09999847412109375 101 110.90000152587890625 109.8000030517578125 109.09999847412109375 104 97.09999847412109375 94.59999847412109375 92.5 86.3000030517578125 83.3000030517578125 81.1999969482421875 79.90000152587890625 79.5 76.3000030517578125 72.8000030517578125 66.6999969482421875 66.59999847412109375 66.90000152587890625 68.5 62 61.200000762939453125 60.90000152587890625 61.299999237060546875 59.59999847412109375 58.59999847412109375 58.09999847412109375 56.200000762939453125 55 54.200000762939453125 51.200000762939453125 48 45.299999237060546875 45 45.59999847412109375 45.5 44.200000762939453125 43.09999847412109375 42.09999847412109375 40.90000152587890625 40.200000762939453125 40.09999847412109375 38.90000152587890625 37.09999847412109375 35.5 34.40000152587890625 33.200000762939453125 32.299999237060546875 31.700000762939453125 31.399999618530273438 31 30.200000762939453125 29.200000762939453125 28.200000762939453125 27.200000762939453125 26.5 25.899999618530273438 25 24.200000762939453125 24 24.399999618530273438 24.5 24.600000381469726562 25.5 25.100000381469726562 25.899999618530273438 26.899999618530273438 27.700000762939453125 28.299999237060546875 28.799999237060546875 29.399999618530273438 30 30.799999237060546875 31.600000381469726562 32.59999847412109375 33.799999237060546875 35 37.09999847412109375 41.799999237060546875 47.09999847412109375 51.59999847412109375 53.799999237060546875 53.799999237060546875 53.200000762939453125 51.40000152587890625 48.40000152587890625 45.59999847412109375 43.40000152587890625 39 34.5 30.899999618530273438 34.09999847412109375 37.09999847412109375 35.799999237060546875 33.40000152587890625 31.799999237060546875 31.100000381469726562 30.899999618530273438 29.799999237060546875 29.899999618530273438 29.799999237060546875 29.700000762939453125 29.5 29.5 30 30.299999237060546875 31.299999237060546875 32.59999847412109375 34.5 37.700000762939453125 39.200000762939453125 40.09999847412109375 41.200000762939453125 43.700000762939453125 45.40000152587890625 45.90000152587890625 46.59999847412109375 46.5 46 46.09999847412109375 46.200000762939453125 46.40000152587890625 46.299999237060546875 46.299999237060546875 46.40000152587890625 46.59999847412109375 46.59999847412109375 46.09999847412109375 
41.200000762939453125 42.299999237060546875 43.299999237060546875 44.09999847412109375 44.09999847412109375 45 45.90000152587890625 46.90000152587890625 48.5 50.09999847412109375 52.299999237060546875 54.700000762939453125 56.5 57.5 59.200000762939453125 59.09999847412109375 58.200000762939453125 57.90000152587890625 57 57.700000762939453125 61.90000152587890625 64.59999847412109375 65.8000030517578125 69.59999847412109375 76.1999969482421875 78.90000152587890625 80.1999969482421875 80.1999969482421875 81.90000152587890625 85.3000030517578125 88.09999847412109375 91.59999847412109375 95.09999847412109375 96.1999969482421875 96.3000030517578125 96 95 93.3000030517578125 91.1999969482421875 88.09999847412109375 84.09999847412109375 80.1999969482421875 78.1999969482421875 78.5 77.90000152587890625 77.3000030517578125 76.6999969482421875 76 74.09999847412109375 72 70.5 70.09999847412109375 73.6999969482421875 77.40000152587890625 82.3000030517578125 87.8000030517578125 90.90000152587890625 93.90000152587890625 97.3000030517578125 98.6999969482421875 92.90000152587890625 88.09999847412109375 88.8000030517578125 90.8000030517578125 93.6999969482421875 103.09999847412109375 107.1999969482421875 105.40000152587890625 104.6999969482421875 105.3000030517578125 104.90000152587890625 104 105.59999847412109375 109.5 111.1999969482421875 109.3000030517578125 108.40000152587890625 100.5 95.90000152587890625 94.1999969482421875 88.6999969482421875 85.3000030517578125 82.6999969482421875 79.90000152587890625 77.09999847412109375 76.8000030517578125 75.40000152587890625 73.59999847412109375 65.90000152587890625 66.09999847412109375 67 64.6999969482421875 61.09999847412109375 59.09999847412109375 57.700000762939453125 59 57.299999237060546875 56.09999847412109375 54.700000762939453125 54 54.09999847412109375 56 50.5 45.299999237060546875 44.799999237060546875 44.5 44.59999847412109375 44.799999237060546875 43.5 43 41.700000762939453125 40.5 39.799999237060546875 39.200000762939453125 37.799999237060546875 36 34.799999237060546875 33.700000762939453125 32.59999847412109375 32 31.5 31.100000381469726562 30.700000762939453125 30.100000381469726562 29 28 27.200000762939453125 26 24.899999618530273438 23.700000762939453125 24.100000381469726562 24.399999618530273438 24.700000762939453125 25 25.200000762939453125 25.100000381469726562 25.399999618530273438 26.299999237060546875 27.600000381469726562 28.200000762939453125 28.700000762939453125 29.299999237060546875 29.899999618530273438 30.600000381469726562 31.200000762939453125 32.200000762939453125 33.700000762939453125 34.59999847412109375 35.700000762939453125 38.40000152587890625 43.5 48.59999847412109375 51.90000152587890625 54.299999237060546875 54.59999847412109375 53.59999847412109375 51.799999237060546875 48.799999237060546875 45.5 42.40000152587890625 38.40000152587890625 34.799999237060546875 33 35.799999237060546875 38.5 38.700000762939453125 35.5 33.299999237060546875 32.09999847412109375 31.799999237060546875 33.09999847412109375 30.200000762939453125 29.899999618530273438 29.700000762939453125 29.600000381469726562 29.5 29.899999618530273438 30 31 32.700000762939453125 34.59999847412109375 38.40000152587890625 42 43.09999847412109375 43 44 46.59999847412109375 47.59999847412109375 48 47.799999237060546875 47.700000762939453125 48 48.200000762939453125 48.299999237060546875 48.5 48.200000762939453125 48.40000152587890625 48.700000762939453125 48.40000152587890625 47.700000762939453125 
40.59999847412109375 41.59999847412109375 42.5 43 43.59999847412109375 44.09999847412109375 45 46.09999847412109375 47.5 49.09999847412109375 50.5 51.799999237060546875 53.09999847412109375 53.40000152587890625 54 53.799999237060546875 53 52.700000762939453125 52.90000152587890625 53.200000762939453125 55.5 58.59999847412109375 63.299999237060546875 68.40000152587890625 76.09999847412109375 77.3000030517578125 76.09999847412109375 75.40000152587890625 78.09999847412109375 82 85.90000152587890625 89.5 93 94.90000152587890625 95.8000030517578125 96.09999847412109375 95.09999847412109375 93.6999969482421875 91.6999969482421875 88.40000152587890625 84.6999969482421875 81.90000152587890625 81.5 83.09999847412109375 83.1999969482421875 82.40000152587890625 81.1999969482421875 79.3000030517578125 77.3000030517578125 74.90000152587890625 72.8000030517578125 72.5 72 73.90000152587890625 79.6999969482421875 84.59999847412109375 87.90000152587890625 90.90000152587890625 92.09999847412109375 93.90000152587890625 97.6999969482421875 93.8000030517578125 92.09999847412109375 93.40000152587890625 97.6999969482421875 105.09999847412109375 108.5 109.09999847412109375 108.6999969482421875 108.6999969482421875 108.59999847412109375 108.09999847412109375 108.8000030517578125 110.90000152587890625 111.09999847412109375 107.6999969482421875 104.5 102.59999847412109375 96 93.59999847412109375 86.59999847412109375 84.1999969482421875 82 78.8000030517578125 77 74.59999847412109375 68.90000152587890625 66.1999969482421875 66.1999969482421875 66.40000152587890625 69.5 62.40000152587890625 60.5 58.40000152587890625 56.200000762939453125 56.200000762939453125 55.40000152587890625 53.90000152587890625 51.90000152587890625 51 56.200000762939453125 51.40000152587890625 46 44.90000152587890625 44.299999237060546875 43.59999847412109375 43.799999237060546875 44.09999847412109375 44 42.59999847412109375 41.200000762939453125 39.59999847412109375 38.59999847412109375 38 36.40000152587890625 34.90000152587890625 33.799999237060546875 32.799999237060546875 32.299999237060546875 31.799999237060546875 31.5 31.200000762939453125 30.399999618530273438 30 29.399999618530273438 28.5 27.700000762939453125 25.5 24.399999618530273438 24.399999618530273438 24.600000381469726562 25 25.299999237060546875 25.299999237060546875 25.5 25.899999618530273438 26 27 28.299999237060546875 29 29.5 29.899999618530273438 30.399999618530273438 30.899999618530273438 31.600000381469726562 33.299999237060546875 34.59999847412109375 35.90000152587890625 37.299999237060546875 40.200000762939453125 45.59999847412109375 49.5 52.200000762939453125 53.200000762939453125 53.5 53 51.90000152587890625 49 45.299999237060546875 41.700000762939453125 38.200000762939453125 35.200000762939453125 33.59999847412109375 38 40.59999847412109375 40.90000152587890625 37.90000152587890625 35.09999847412109375 33.799999237060546875 33.40000152587890625 32.90000152587890625 30.5 30.200000762939453125 29.899999618530273438 29.700000762939453125 29.600000381469726562 29.5 29.700000762939453125 30.899999618530273438 32.5 34.90000152587890625 38.200000762939453125 42.700000762939453125 46.299999237060546875 46.700000762939453125 45.799999237060546875 47.09999847412109375 49.5 50 49.700000762939453125 49.5 49.299999237060546875 49.799999237060546875 50.40000152587890625 50.700000762939453125 50.200000762939453125 50.40000152587890625 50.5 50.200000762939453125 49.5 
39.700000762939453125 40.799999237060546875 42.09999847412109375 42.40000152587890625 42.700000762939453125 43.40000152587890625 44.40000152587890625 45.40000152587890625 46.799999237060546875 48.200000762939453125 49.40000152587890625 50 50 50.09999847412109375 49.799999237060546875 49.40000152587890625 49.09999847412109375 48.799999237060546875 49.200000762939453125 50 52.90000152587890625 57.200000762939453125 63.09999847412109375 69.40000152587890625 74.3000030517578125 73.59999847412109375 71.90000152587890625 71.5 74.5 78.59999847412109375 82.6999969482421875 86.90000152587890625 90.8000030517578125 93.5 94.5 95 95.1999969482421875 93.90000152587890625 91.90000152587890625 88.59999847412109375 86.09999847412109375 85.59999847412109375 85.5 86.8000030517578125 87.5 86.40000152587890625 84.6999969482421875 81.59999847412109375 79.09999847412109375 76.40000152587890625 73.90000152587890625 72.6999969482421875 71.59999847412109375 72 74.09999847412109375 77.40000152587890625 82.40000152587890625 85.1999969482421875 86.90000152587890625 90.1999969482421875 94.40000152587890625 99.3000030517578125 100.8000030517578125 97.6999969482421875 105 109 109.40000152587890625 110.40000152587890625 110.90000152587890625 111 111.5 110.90000152587890625 111.1999969482421875 111.8000030517578125 107.3000030517578125 101.1999969482421875 99.59999847412109375 99.1999969482421875 98.1999969482421875 92.8000030517578125 86.3000030517578125 83.5 82 83.09999847412109375 79.3000030517578125 73.8000030517578125 66.6999969482421875 66.5 66.5 66.59999847412109375 69.5 62.59999847412109375 60.40000152587890625 58.700000762939453125 58.200000762939453125 56.299999237060546875 54.700000762939453125 52.90000152587890625 51.09999847412109375 54.5 54.40000152587890625 50.90000152587890625 46.09999847412109375 45 44 42.90000152587890625 42.700000762939453125 42.799999237060546875 43.700000762939453125 42 40.59999847412109375 38.40000152587890625 37.5 36.700000762939453125 35.200000762939453125 33.799999237060546875 33.09999847412109375 32.59999847412109375 32.09999847412109375 31.600000381469726562 31.399999618530273438 30.700000762939453125 29.899999618530273438 29.399999618530273438 28.899999618530273438 28.399999618530273438 27.600000381469726562 25.899999618530273438 24.799999237060546875 24.600000381469726562 25.100000381469726562 25.399999618530273438 25.799999237060546875 25.799999237060546875 26.100000381469726562 26.600000381469726562 27 27.899999618530273438 29 29.799999237060546875 30.100000381469726562 30.399999618530273438 30.799999237060546875 31.299999237060546875 32.09999847412109375 33.700000762939453125 35.09999847412109375 36.200000762939453125 37.799999237060546875 41.40000152587890625 45.09999847412109375 49.700000762939453125 51.799999237060546875 52.200000762939453125 52.200000762939453125 50.90000152587890625 49.90000152587890625 47.90000152587890625 44.799999237060546875 40.59999847412109375 36.799999237060546875 34.90000152587890625 34.700000762939453125 39.700000762939453125 43.90000152587890625 43.40000152587890625 40.700000762939453125 37.700000762939453125 35.5 34.09999847412109375 33.5 32.59999847412109375 30.600000381469726562 30.399999618530273438 30.100000381469726562 29.899999618530273438 29.799999237060546875 29.899999618530273438 30.700000762939453125 31.899999618530273438 34.200000762939453125 37.59999847412109375 42 46.90000152587890625 49 50 48.90000152587890625 50.09999847412109375 51.700000762939453125 51.299999237060546875 51.5 51.700000762939453125 51.5 51.90000152587890625 52.299999237060546875 52.700000762939453125 52.200000762939453125 51.799999237060546875 51.799999237060546875 50.799999237060546875 
39.5 40.700000762939453125 41.799999237060546875 42.299999237060546875 42.200000762939453125 42.799999237060546875 43.5 44.59999847412109375 45.90000152587890625 47.200000762939453125 48.40000152587890625 48.59999847412109375 47.700000762939453125 47.200000762939453125 47 47 46.59999847412109375 46.299999237060546875 47.59999847412109375 49.40000152587890625 52.799999237060546875 58.799999237060546875 64.59999847412109375 69 71.8000030517578125 69.90000152587890625 67.40000152587890625 67.1999969482421875 71.3000030517578125 75.40000152587890625 79.5 83.6999969482421875 87.90000152587890625 91.6999969482421875 93.09999847412109375 93.6999969482421875 94.09999847412109375 93.8000030517578125 92.1999969482421875 90.09999847412109375 89.3000030517578125 89.40000152587890625 89.40000152587890625 90 90.09999847412109375 88.90000152587890625 87.40000152587890625 84 80.90000152587890625 78.40000152587890625 75.09999847412109375 73.8000030517578125 72.6999969482421875 72.59999847412109375 73.59999847412109375 76.90000152587890625 77.90000152587890625 79.40000152587890625 83.90000152587890625 88.3000030517578125 92.5 95.90000152587890625 97.5 100.40000152587890625 101.59999847412109375 105.59999847412109375 108.40000152587890625 109.5 111.3000030517578125 111.8000030517578125 112.59999847412109375 111.59999847412109375 111.09999847412109375 109.1999969482421875 102.8000030517578125 97 91.59999847412109375 91.6999969482421875 91.3000030517578125 88.09999847412109375 85.40000152587890625 83.40000152587890625 81.40000152587890625 82.3000030517578125 80 73.09999847412109375 66.3000030517578125 66.09999847412109375 66.40000152587890625 67.90000152587890625 68.8000030517578125 62.299999237060546875 62.90000152587890625 64.40000152587890625 63 57.40000152587890625 54.40000152587890625 52.299999237060546875 50.09999847412109375 55.5 51.59999847412109375 48.90000152587890625 47.5 45.5 44 42.200000762939453125 41.200000762939453125 41.200000762939453125 41.299999237060546875 42.40000152587890625 39 37.200000762939453125 36.5 35.59999847412109375 34.299999237060546875 33.200000762939453125 32.700000762939453125 32.200000762939453125 31.700000762939453125 31.299999237060546875 30.899999618530273438 30.100000381469726562 29.600000381469726562 29.100000381469726562 28.5 27.600000381469726562 26.799999237060546875 25.799999237060546875 25 24.799999237060546875 25.600000381469726562 25.899999618530273438 26.200000762939453125 26.399999618530273438 26.600000381469726562 27.5 28 28.799999237060546875 29.799999237060546875 30.600000381469726562 31.299999237060546875 31.899999618530273438 31.899999618530273438 31.899999618530273438 32.799999237060546875 33.90000152587890625 35.299999237060546875 36.799999237060546875 38.09999847412109375 41.09999847412109375 44.299999237060546875 48.09999847412109375 50.299999237060546875 50.5 50.09999847412109375 48.200000762939453125 47.40000152587890625 45.59999847412109375 42.799999237060546875 39 35.700000762939453125 34.5 36.59999847412109375 41.40000152587890625 45.299999237060546875 46.40000152587890625 44.90000152587890625 41.700000762939453125 37.90000152587890625 35.299999237060546875 33.5 34.40000152587890625 31.600000381469726562 30.799999237060546875 30.399999618530273438 30 30.200000762939453125 30.299999237060546875 30.899999618530273438 32.200000762939453125 33.799999237060546875 36.200000762939453125 40.5 45.90000152587890625 49.799999237060546875 52.59999847412109375 53.90000152587890625 53.09999847412109375 52.90000152587890625 53.40000152587890625 54.09999847412109375 53.700000762939453125 53.40000152587890625 53.90000152587890625 54.90000152587890625 55.299999237060546875 54.799999237060546875 54.700000762939453125 53.40000152587890625 52.200000762939453125 
39.299999237060546875 40.5 41.40000152587890625 41.90000152587890625 42.200000762939453125 42.09999847412109375 42.90000152587890625 44.5 45.40000152587890625 46.299999237060546875 47.5 46.90000152587890625 45.799999237060546875 45.299999237060546875 44.90000152587890625 45 44.90000152587890625 45.299999237060546875 46.90000152587890625 49.90000152587890625 54.09999847412109375 59.700000762939453125 64.59999847412109375 68.1999969482421875 68.1999969482421875 65.59999847412109375 62.700000762939453125 63.700000762939453125 68.1999969482421875 73 76.40000152587890625 80.59999847412109375 85.8000030517578125 89.59999847412109375 91.09999847412109375 92.1999969482421875 92.1999969482421875 91.6999969482421875 92.09999847412109375 92.3000030517578125 92 92.40000152587890625 92.90000152587890625 92.6999969482421875 92 90.90000152587890625 89.1999969482421875 86.90000152587890625 83.1999969482421875 79.59999847412109375 76.3000030517578125 74.6999969482421875 74 74.3000030517578125 75.59999847412109375 76.40000152587890625 77 77.8000030517578125 81.6999969482421875 85.90000152587890625 89.1999969482421875 91.40000152587890625 92.5 95.40000152587890625 98.3000030517578125 100.6999969482421875 103.8000030517578125 108.40000152587890625 111 112 112.3000030517578125 110.90000152587890625 108.8000030517578125 100.3000030517578125 95.90000152587890625 92.5 88.1999969482421875 85.3000030517578125 84.40000152587890625 84.3000030517578125 82 71 79.3000030517578125 80.09999847412109375 78 74.1999969482421875 68.5 66.8000030517578125 66.90000152587890625 69.1999969482421875 65.8000030517578125 61.799999237060546875 64.8000030517578125 64.8000030517578125 61 57 55.59999847412109375 55.5 54.59999847412109375 49 48 47.40000152587890625 46.299999237060546875 44.299999237060546875 42.799999237060546875 41.09999847412109375 40.09999847412109375 39.799999237060546875 39 39 40.700000762939453125 36.299999237060546875 35.299999237060546875 34.40000152587890625 33.700000762939453125 32.700000762939453125 32.200000762939453125 31.700000762939453125 31.299999237060546875 30.799999237060546875 30.399999618530273438 29.899999618530273438 29.399999618530273438 28.899999618530273438 28.200000762939453125 27.100000381469726562 26.100000381469726562 25.600000381469726562 25.100000381469726562 25.399999618530273438 25.899999618530273438 26.299999237060546875 26.600000381469726562 26.600000381469726562 27.600000381469726562 28.399999618530273438 29 29.799999237060546875 30.600000381469726562 31.299999237060546875 32 32.59999847412109375 33.299999237060546875 33.40000152587890625 33.90000152587890625 34.799999237060546875 35.59999847412109375 37 38.5 39.90000152587890625 42.59999847412109375 45.5 47.59999847412109375 47.59999847412109375 46.700000762939453125 45.40000152587890625 44.799999237060546875 43.5 41.40000152587890625 38.59999847412109375 35.799999237060546875 35.299999237060546875 37.700000762939453125 43.299999237060546875 47.200000762939453125 48.200000762939453125 48.200000762939453125 46.40000152587890625 42.40000152587890625 37.59999847412109375 35.5 35.59999847412109375 32.59999847412109375 31.299999237060546875 30.700000762939453125 30.100000381469726562 30.5 30.600000381469726562 30.700000762939453125 31.5 33.5 35.700000762939453125 39.299999237060546875 44.299999237060546875 49.40000152587890625 54.09999847412109375 56.200000762939453125 56.59999847412109375 56.40000152587890625 56.59999847412109375 56.59999847412109375 56.799999237060546875 56.200000762939453125 55.700000762939453125 56.09999847412109375 56.59999847412109375 56.09999847412109375 55.799999237060546875 55.299999237060546875 54.09999847412109375 
39.09999847412109375 40 41.09999847412109375 41.700000762939453125 41.90000152587890625 42.09999847412109375 42.59999847412109375 44.299999237060546875 45.700000762939453125 46.5 45.90000152587890625 45.09999847412109375 44.09999847412109375 43.5 43 43.09999847412109375 43.40000152587890625 44.59999847412109375 45.90000152587890625 48.59999847412109375 53.09999847412109375 59.40000152587890625 62.59999847412109375 64.3000030517578125 63.299999237060546875 60.799999237060546875 58 60.299999237060546875 65 73.1999969482421875 75.90000152587890625 79 84.3000030517578125 86.90000152587890625 88.8000030517578125 89.3000030517578125 89.3000030517578125 88.8000030517578125 90.6999969482421875 92 93 93 93.5 94.09999847412109375 93.5 92.5 90.90000152587890625 88.1999969482421875 84.90000152587890625 81.8000030517578125 78.8000030517578125 76.5 76.09999847412109375 76.40000152587890625 77.8000030517578125 79 79.40000152587890625 79.59999847412109375 79.90000152587890625 82.90000152587890625 84.6999969482421875 86.6999969482421875 89.1999969482421875 93.09999847412109375 96.40000152587890625 97.09999847412109375 100.3000030517578125 105.5 110 111.5 111.90000152587890625 110.59999847412109375 103.1999969482421875 96.09999847412109375 92.40000152587890625 89.5 86.59999847412109375 84.09999847412109375 80.40000152587890625 79.40000152587890625 79.6999969482421875 80.40000152587890625 71.90000152587890625 70.8000030517578125 78.09999847412109375 80.5 72.3000030517578125 69.1999969482421875 67.40000152587890625 64.3000030517578125 62.5 64.1999969482421875 64.8000030517578125 61.59999847412109375 59.200000762939453125 57.799999237060546875 58.59999847412109375 56.59999847412109375 52.299999237060546875 52 48.5 45.40000152587890625 44.200000762939453125 42.5 41.09999847412109375 40 39.5 39 38.40000152587890625 37.90000152587890625 36.90000152587890625 40.5 34.200000762939453125 34.09999847412109375 33.5 32.5 31.799999237060546875 31.299999237060546875 30.799999237060546875 30.700000762939453125 30 29.399999618530273438 29 28.5 27.399999618530273438 26.299999237060546875 25.799999237060546875 25.5 23.899999618530273438 25.600000381469726562 26.100000381469726562 26.5 27 27.299999237060546875 28.700000762939453125 28.899999618530273438 29.799999237060546875 30.600000381469726562 31.5 32.40000152587890625 33 33.59999847412109375 34.299999237060546875 34.5 34.5 35.09999847412109375 35.700000762939453125 36.90000152587890625 37.799999237060546875 39.299999237060546875 41.09999847412109375 43.200000762939453125 44.200000762939453125 44.700000762939453125 45.09999847412109375 44.200000762939453125 43.799999237060546875 43.40000152587890625 41.40000152587890625 38.799999237060546875 36 36.200000762939453125 39.90000152587890625 45.40000152587890625 48.799999237060546875 50 51.09999847412109375 50.5 47.799999237060546875 42.299999237060546875 37.200000762939453125 35.799999237060546875 32.700000762939453125 31.799999237060546875 31 30.700000762939453125 30.799999237060546875 30.899999618530273438 30.799999237060546875 31.100000381469726562 31.799999237060546875 34.40000152587890625 37.90000152587890625 42.200000762939453125 49.799999237060546875 56.200000762939453125 58.299999237060546875 59.700000762939453125 60.299999237060546875 60 59.200000762939453125 59.200000762939453125 58.40000152587890625 58.09999847412109375 58.09999847412109375 57.799999237060546875 57.299999237060546875 56.90000152587890625 56 55.700000762939453125 
38.700000762939453125 39.5 40.40000152587890625 41.299999237060546875 41.700000762939453125 42.40000152587890625 42.59999847412109375 43.90000152587890625 45.59999847412109375 45.299999237060546875 44.299999237060546875 43.299999237060546875 42.5 41.90000152587890625 41.700000762939453125 41.799999237060546875 42.59999847412109375 43.700000762939453125 44.90000152587890625 47.700000762939453125 51.5 55.799999237060546875 59.40000152587890625 60.200000762939453125 58.299999237060546875 55.799999237060546875 54.40000152587890625 57.299999237060546875 69.90000152587890625 72.8000030517578125 74.8000030517578125 78.6999969482421875 81.8000030517578125 84.59999847412109375 85.8000030517578125 85.90000152587890625 84.6999969482421875 85.40000152587890625 87.90000152587890625 89.90000152587890625 90.40000152587890625 92.09999847412109375 93.09999847412109375 94.59999847412109375 94.59999847412109375 93.8000030517578125 92.1999969482421875 89.40000152587890625 86.6999969482421875 84.09999847412109375 81.09999847412109375 79.6999969482421875 78.6999969482421875 79.1999969482421875 81.40000152587890625 82.3000030517578125 82.90000152587890625 81.6999969482421875 80.90000152587890625 81.5 82.8000030517578125 84.3000030517578125 86 90.3000030517578125 92.09999847412109375 94.3000030517578125 96.90000152587890625 101.40000152587890625 105.8000030517578125 109.90000152587890625 111.40000152587890625 108.6999969482421875 101.8000030517578125 98.59999847412109375 95.6999969482421875 92.8000030517578125 89.59999847412109375 84.5 80.6999969482421875 77.40000152587890625 74.5 73.59999847412109375 73.09999847412109375 71.6999969482421875 71.09999847412109375 70.8000030517578125 75.09999847412109375 70.90000152587890625 64.5 64.6999969482421875 64.8000030517578125 64.6999969482421875 61.90000152587890625 60.299999237060546875 58 62.59999847412109375 56.200000762939453125 54.09999847412109375 52.799999237060546875 49 47.59999847412109375 44.799999237060546875 42.200000762939453125 40.90000152587890625 39.5 38.59999847412109375 38 37.5 37.09999847412109375 36.799999237060546875 36.200000762939453125 35.59999847412109375 34.299999237060546875 33.700000762939453125 32.90000152587890625 32.09999847412109375 31.600000381469726562 31 30.200000762939453125 30 29.600000381469726562 29.100000381469726562 28.5 27.5 26.899999618530273438 26.299999237060546875 25.799999237060546875 25.399999618530273438 25.600000381469726562 25.799999237060546875 26.299999237060546875 26.899999618530273438 27.600000381469726562 27.600000381469726562 28.5 29.5 30.399999618530273438 31.399999618530273438 32.299999237060546875 33.09999847412109375 33.90000152587890625 34.5 34.90000152587890625 35.299999237060546875 35.40000152587890625 35.40000152587890625 36 36.799999237060546875 37.700000762939453125 38.799999237060546875 40.700000762939453125 41.700000762939453125 42.200000762939453125 43.700000762939453125 44.200000762939453125 44.09999847412109375 43.700000762939453125 43.40000152587890625 41.200000762939453125 38.59999847412109375 37 37.90000152587890625 41.200000762939453125 46.40000152587890625 49.59999847412109375 51.09999847412109375 52.59999847412109375 53.299999237060546875 51.59999847412109375 45.40000152587890625 39.59999847412109375 36.40000152587890625 34 32.5 31.5 31 31.100000381469726562 31.399999618530273438 31.600000381469726562 31.200000762939453125 31 33.299999237060546875 36.799999237060546875 41.299999237060546875 47.5 51.700000762939453125 59.200000762939453125 61.200000762939453125 60.59999847412109375 62.09999847412109375 61.799999237060546875 61.200000762939453125 61 60.5 60.5 59.59999847412109375 58.59999847412109375 58.09999847412109375 57.40000152587890625 57.200000762939453125 
38.09999847412109375 38.59999847412109375 39.90000152587890625 40.59999847412109375 42 42.700000762939453125 43.299999237060546875 43.299999237060546875 44.90000152587890625 44.09999847412109375 43 42.09999847412109375 41.299999237060546875 40.5 40.40000152587890625 40.59999847412109375 41.299999237060546875 42.5 44 45.90000152587890625 48.299999237060546875 51 54 55 53.40000152587890625 52.299999237060546875 52.40000152587890625 57.299999237060546875 62.5 67.6999969482421875 71.90000152587890625 76.1999969482421875 79.3000030517578125 81.09999847412109375 82.5 81.59999847412109375 79.6999969482421875 81.6999969482421875 84.6999969482421875 85.3000030517578125 85.6999969482421875 87.8000030517578125 91.59999847412109375 93.90000152587890625 93.8000030517578125 94.59999847412109375 93.6999969482421875 91.5 89.59999847412109375 87.8000030517578125 84.59999847412109375 83.40000152587890625 82.09999847412109375 82.40000152587890625 84.8000030517578125 86.1999969482421875 86.6999969482421875 85 82.5 81.59999847412109375 82.8000030517578125 83.8000030517578125 85.6999969482421875 88.09999847412109375 90.09999847412109375 91.8000030517578125 94.1999969482421875 98.59999847412109375 103.8000030517578125 109.09999847412109375 111.6999969482421875 110.1999969482421875 110.09999847412109375 109.59999847412109375 105.8000030517578125 96.8000030517578125 90.1999969482421875 85.09999847412109375 80.6999969482421875 76.59999847412109375 73.59999847412109375 72.3000030517578125 72.1999969482421875 71.09999847412109375 70.1999969482421875 70.09999847412109375 70.1999969482421875 70.40000152587890625 69 65 63.40000152587890625 60.40000152587890625 63.299999237060546875 63.799999237060546875 59.40000152587890625 58.200000762939453125 56.59999847412109375 55.299999237060546875 50.799999237060546875 47.59999847412109375 45.90000152587890625 43.700000762939453125 41.200000762939453125 39.59999847412109375 38.09999847412109375 37.299999237060546875 36.90000152587890625 36.40000152587890625 35.799999237060546875 35.700000762939453125 35.09999847412109375 34.299999237060546875 34.700000762939453125 33.200000762939453125 32.200000762939453125 31.799999237060546875 31.299999237060546875 30.600000381469726562 29.600000381469726562 29.299999237060546875 28.899999618530273438 28.5 28 27 26.600000381469726562 26.200000762939453125 25.700000762939453125 25.5 25.600000381469726562 26 26.700000762939453125 27.200000762939453125 27.799999237060546875 28.399999618530273438 29.299999237060546875 30.5 30.899999618530273438 31.899999618530273438 32.90000152587890625 33.700000762939453125 34.299999237060546875 34.799999237060546875 35.09999847412109375 35.5 35.59999847412109375 36 36.700000762939453125 37.5 38.200000762939453125 38.90000152587890625 40.59999847412109375 40.90000152587890625 42.299999237060546875 44 44.09999847412109375 44.09999847412109375 43.90000152587890625 43.299999237060546875 41 38.59999847412109375 37.59999847412109375 39.59999847412109375 43 46.799999237060546875 50.200000762939453125 52.200000762939453125 53.799999237060546875 55 52.799999237060546875 47.09999847412109375 42.799999237060546875 38.299999237060546875 35 33.200000762939453125 32.200000762939453125 30.899999618530273438 31.399999618530273438 31.700000762939453125 31.600000381469726562 31.600000381469726562 32.200000762939453125 33.5 36.299999237060546875 39.200000762939453125 43.5 47.40000152587890625 51.5 55.700000762939453125 61.90000152587890625 63.09999847412109375 63.200000762939453125 62.5 62.299999237060546875 62.200000762939453125 61.90000152587890625 61.09999847412109375 60.200000762939453125 59.40000152587890625 59.09999847412109375 58.700000762939453125 
37.700000762939453125 38.09999847412109375 39.40000152587890625 40.5 41.5 42.5 43 43 43.200000762939453125 42.799999237060546875 41.700000762939453125 40.799999237060546875 40 39.299999237060546875 39.40000152587890625 39.799999237060546875 40.200000762939453125 41.59999847412109375 43.09999847412109375 44.5 45.90000152587890625 47.200000762939453125 49.700000762939453125 49.700000762939453125 49.90000152587890625 49.40000152587890625 50.90000152587890625 55.299999237060546875 60.200000762939453125 64.6999969482421875 70 74 75.90000152587890625 77.40000152587890625 78.09999847412109375 77.40000152587890625 74.3000030517578125 76.09999847412109375 78 76.90000152587890625 77.3000030517578125 79.40000152587890625 81.40000152587890625 86.90000152587890625 91.40000152587890625 94.40000152587890625 95.1999969482421875 93.59999847412109375 92.8000030517578125 91.3000030517578125 89 87.40000152587890625 85.6999969482421875 85.59999847412109375 87.90000152587890625 89.40000152587890625 88.90000152587890625 86.3000030517578125 83.40000152587890625 83.1999969482421875 84.3000030517578125 84.6999969482421875 85.6999969482421875 88.1999969482421875 90.1999969482421875 92.8000030517578125 95.40000152587890625 100.3000030517578125 106 110.40000152587890625 111.59999847412109375 111.09999847412109375 112.3000030517578125 109.5 106.40000152587890625 97.6999969482421875 91.1999969482421875 86.40000152587890625 82.09999847412109375 76.59999847412109375 74.59999847412109375 73.5 72.1999969482421875 70.5 68.1999969482421875 66.59999847412109375 64.3000030517578125 62.90000152587890625 63 61 59.200000762939453125 59.299999237060546875 60.09999847412109375 60 59.299999237060546875 58.59999847412109375 57.200000762939453125 52.90000152587890625 47.90000152587890625 45.90000152587890625 44.200000762939453125 42.09999847412109375 40.09999847412109375 38.700000762939453125 37.299999237060546875 36.40000152587890625 35.59999847412109375 35.299999237060546875 35 34.59999847412109375 34.299999237060546875 33.700000762939453125 33.09999847412109375 37.799999237060546875 32 31.5 30.799999237060546875 30 29.100000381469726562 28.799999237060546875 28.399999618530273438 28 27.299999237060546875 26.799999237060546875 26.5 26.100000381469726562 25.799999237060546875 25.600000381469726562 25.600000381469726562 26 27.100000381469726562 27.600000381469726562 28.200000762939453125 28.600000381469726562 30.100000381469726562 30.399999618530273438 31 32 32.90000152587890625 33.59999847412109375 34.299999237060546875 35.09999847412109375 35.5 36 36.40000152587890625 36.799999237060546875 37.40000152587890625 38.200000762939453125 38.799999237060546875 39.40000152587890625 39.700000762939453125 39.799999237060546875 42.40000152587890625 44 44 44 43.700000762939453125 43.09999847412109375 41.200000762939453125 38.90000152587890625 38.90000152587890625 41.299999237060546875 43.59999847412109375 46.700000762939453125 50.700000762939453125 53.59999847412109375 55.59999847412109375 56.59999847412109375 54.5 50.299999237060546875 47.5 42.59999847412109375 37.40000152587890625 33.799999237060546875 33.5 31 31.600000381469726562 32 31.899999618530273438 31.799999237060546875 32.09999847412109375 32.799999237060546875 35.299999237060546875 37.59999847412109375 42.09999847412109375 50.200000762939453125 58.799999237060546875 63.700000762939453125 64.1999969482421875 64.3000030517578125 64.59999847412109375 64 63.700000762939453125 63.59999847412109375 63.299999237060546875 62.799999237060546875 62 61.299999237060546875 60.90000152587890625 60.200000762939453125 
36.90000152587890625 37.700000762939453125 38.799999237060546875 39.90000152587890625 40.90000152587890625 41.59999847412109375 42 41.5 40.799999237060546875 41.200000762939453125 40.200000762939453125 39.40000152587890625 38.799999237060546875 38.40000152587890625 38.5 38.799999237060546875 39.5 40.799999237060546875 41.799999237060546875 42.799999237060546875 44 45.200000762939453125 46.5 47 47.09999847412109375 47.40000152587890625 49.5 53.200000762939453125 57.40000152587890625 63.90000152587890625 68.90000152587890625 71.40000152587890625 72.1999969482421875 74.5 74.5 71.90000152587890625 67.1999969482421875 68.5 69.6999969482421875 68.3000030517578125 68.5 71.8000030517578125 74.59999847412109375 80.1999969482421875 85.90000152587890625 93.3000030517578125 96.40000152587890625 96.59999847412109375 96.1999969482421875 95 93.1999969482421875 92 89.8000030517578125 90.1999969482421875 91.59999847412109375 91.3000030517578125 89.6999969482421875 86.90000152587890625 83.6999969482421875 84.09999847412109375 85.8000030517578125 86.6999969482421875 87.90000152587890625 89.5 92.1999969482421875 96 99 102 110 111.6999969482421875 110.59999847412109375 111.3000030517578125 111.40000152587890625 106.1999969482421875 100.1999969482421875 96.6999969482421875 92.5 88.8000030517578125 84.6999969482421875 79.90000152587890625 77.90000152587890625 75.40000152587890625 72.1999969482421875 70.8000030517578125 68.1999969482421875 65.6999969482421875 62.90000152587890625 60.40000152587890625 57.90000152587890625 56.90000152587890625 56.40000152587890625 56.40000152587890625 57.59999847412109375 58.5 58.200000762939453125 56.59999847412109375 56.200000762939453125 48.799999237060546875 46.799999237060546875 44.799999237060546875 42.700000762939453125 40.799999237060546875 39.09999847412109375 37.700000762939453125 36.40000152587890625 35.59999847412109375 34.700000762939453125 33.90000152587890625 33.40000152587890625 33.59999847412109375 33.700000762939453125 33.200000762939453125 32.5 32.299999237060546875 35 31.299999237060546875 30.600000381469726562 29.700000762939453125 28.899999618530273438 28.5 28.100000381469726562 27.700000762939453125 27.299999237060546875 26.899999618530273438 26.600000381469726562 26.299999237060546875 25.899999618530273438 25.799999237060546875 25.700000762939453125 26.299999237060546875 27.200000762939453125 28 28.299999237060546875 28.799999237060546875 30.600000381469726562 30.5 31 32 32.59999847412109375 33.5 34.299999237060546875 35.200000762939453125 36.09999847412109375 36.700000762939453125 37.200000762939453125 37.700000762939453125 38.200000762939453125 38.40000152587890625 39.700000762939453125 39.59999847412109375 38.700000762939453125 39.200000762939453125 43.200000762939453125 43.700000762939453125 44.09999847412109375 44 43.40000152587890625 42.799999237060546875 41.200000762939453125 39.40000152587890625 39.5 41.09999847412109375 43.40000152587890625 46.09999847412109375 50.5 54.299999237060546875 57.09999847412109375 57.90000152587890625 56.700000762939453125 54.09999847412109375 52.09999847412109375 48 38.5 35.5 37.40000152587890625 31.700000762939453125 31.799999237060546875 32 31.399999618530273438 31.899999618530273438 32.200000762939453125 32.40000152587890625 34.200000762939453125 36.5 40.200000762939453125 44.5 55.5 63.5 65.40000152587890625 65.59999847412109375 65.40000152587890625 65.1999969482421875 64.90000152587890625 64.8000030517578125 64.6999969482421875 64.09999847412109375 63.5 62.90000152587890625 62.40000152587890625 61.700000762939453125 
36.299999237060546875 37 38.09999847412109375 39.09999847412109375 40 40.59999847412109375 40.59999847412109375 40.09999847412109375 39.09999847412109375 38.90000152587890625 38.90000152587890625 38.200000762939453125 38.09999847412109375 37.700000762939453125 37.90000152587890625 38.299999237060546875 39.40000152587890625 40.200000762939453125 41 42 42.40000152587890625 43.40000152587890625 44.299999237060546875 44.59999847412109375 45.09999847412109375 46.299999237060546875 48.59999847412109375 52.40000152587890625 57.90000152587890625 63.59999847412109375 67.09999847412109375 67.8000030517578125 69.3000030517578125 70.6999969482421875 68.09999847412109375 64.40000152587890625 61.700000762939453125 61.200000762939453125 62.40000152587890625 62.700000762939453125 62.799999237060546875 65.40000152587890625 69.6999969482421875 78.5 83.6999969482421875 92.1999969482421875 96.09999847412109375 97.3000030517578125 96.59999847412109375 95.6999969482421875 96.1999969482421875 95.1999969482421875 94.1999969482421875 94.8000030517578125 95.40000152587890625 93.5 90.6999969482421875 88.1999969482421875 85.3000030517578125 87.3000030517578125 89.40000152587890625 90.1999969482421875 89.6999969482421875 91.5 95.59999847412109375 99.1999969482421875 104 106.59999847412109375 109.6999969482421875 111.8000030517578125 112.09999847412109375 111.3000030517578125 108 101.40000152587890625 95.5 94.09999847412109375 93.59999847412109375 90.5 86.1999969482421875 82.09999847412109375 79.40000152587890625 75.8000030517578125 71.90000152587890625 70.1999969482421875 68.8000030517578125 66 62.90000152587890625 60.09999847412109375 56.90000152587890625 55.200000762939453125 54.299999237060546875 53.59999847412109375 54 54.299999237060546875 53.59999847412109375 52 52.5 46.799999237060546875 45.200000762939453125 43.299999237060546875 41.40000152587890625 39.59999847412109375 38.200000762939453125 37.09999847412109375 35.90000152587890625 35 34.40000152587890625 33.700000762939453125 33.299999237060546875 32.799999237060546875 32.90000152587890625 32.59999847412109375 32 31.5 33.5 31.200000762939453125 30.200000762939453125 29.299999237060546875 28.700000762939453125 28.5 28.200000762939453125 27.799999237060546875 27.399999618530273438 27 26.700000762939453125 26.399999618530273438 26.200000762939453125 26 25.799999237060546875 26.600000381469726562 27.5 28.299999237060546875 28.600000381469726562 29.200000762939453125 30.600000381469726562 30.799999237060546875 31.399999618530273438 32 32.40000152587890625 32.799999237060546875 33.90000152587890625 35.09999847412109375 36.200000762939453125 37.200000762939453125 37.799999237060546875 37.90000152587890625 38.299999237060546875 37.5 37.5 40.200000762939453125 40.90000152587890625 42.09999847412109375 43.5 43.59999847412109375 44.09999847412109375 44 43.200000762939453125 42.40000152587890625 40.700000762939453125 39.799999237060546875 39.799999237060546875 41.09999847412109375 43.09999847412109375 46.09999847412109375 51.90000152587890625 57 60.59999847412109375 61.299999237060546875 59.90000152587890625 57.299999237060546875 52 48.700000762939453125 43.09999847412109375 41.200000762939453125 39.40000152587890625 32.90000152587890625 32.40000152587890625 31.899999618530273438 31.899999618530273438 32.09999847412109375 32.299999237060546875 32.5 33.09999847412109375 35.40000152587890625 38.5 42.59999847412109375 50.59999847412109375 65.1999969482421875 65.6999969482421875 65.8000030517578125 65.6999969482421875 65.8000030517578125 65.6999969482421875 65.6999969482421875 65.6999969482421875 65.09999847412109375 64.5 64 63.5 63 
35.40000152587890625 36.200000762939453125 36.90000152587890625 37.700000762939453125 38.59999847412109375 39 39.299999237060546875 38.90000152587890625 38.09999847412109375 37.200000762939453125 37.5 37.5 37.40000152587890625 37 37.5 38 39 40 40.700000762939453125 41 41.40000152587890625 41.799999237060546875 42.40000152587890625 43.09999847412109375 44.200000762939453125 45.700000762939453125 48 51.90000152587890625 57 60.90000152587890625 64.40000152587890625 63.5 64.59999847412109375 64.5 60.59999847412109375 57.700000762939453125 56.40000152587890625 56.5 57.299999237060546875 58.700000762939453125 61.40000152587890625 63.700000762939453125 67.1999969482421875 75.90000152587890625 85.09999847412109375 90.59999847412109375 89.6999969482421875 90.90000152587890625 90.6999969482421875 94.59999847412109375 94.59999847412109375 93.8000030517578125 96 96.59999847412109375 96.5 95.09999847412109375 91.59999847412109375 89.90000152587890625 89 90.6999969482421875 93.8000030517578125 94.8000030517578125 92.8000030517578125 95 99.59999847412109375 104 108 110.8000030517578125 112.3000030517578125 112.59999847412109375 110.59999847412109375 107.8000030517578125 101.90000152587890625 95.40000152587890625 92 91 90.5 89.1999969482421875 86.1999969482421875 82 79.09999847412109375 75.09999847412109375 71.09999847412109375 67.09999847412109375 68.5 64.40000152587890625 61.200000762939453125 58.700000762939453125 55.799999237060546875 54.700000762939453125 53.799999237060546875 51.299999237060546875 50.5 50 49.09999847412109375 51.59999847412109375 45.799999237060546875 44.59999847412109375 43.09999847412109375 41.90000152587890625 40.5 39.09999847412109375 37.799999237060546875 36.59999847412109375 35.40000152587890625 35.200000762939453125 34.5 33.5 32.90000152587890625 32.299999237060546875 32 32 31.399999618530273438 30.799999237060546875 30.299999237060546875 36.59999847412109375 30.299999237060546875 29.100000381469726562 28.700000762939453125 28.600000381469726562 28.200000762939453125 27.799999237060546875 27.399999618530273438 27.299999237060546875 27 26.600000381469726562 26.100000381469726562 25.899999618530273438 25.799999237060546875 26.700000762939453125 27.299999237060546875 27.899999618530273438 28.299999237060546875 29 29.899999618530273438 30.700000762939453125 31.5 31.899999618530273438 32.299999237060546875 32.700000762939453125 33.700000762939453125 34.90000152587890625 36 36.700000762939453125 36.799999237060546875 36.5 36.90000152587890625 37.799999237060546875 37.799999237060546875 40.299999237060546875 41.700000762939453125 42.799999237060546875 43.40000152587890625 43.90000152587890625 44.299999237060546875 44.200000762939453125 43.40000152587890625 42.5 41.09999847412109375 40.299999237060546875 40.200000762939453125 41.40000152587890625 43.09999847412109375 46.700000762939453125 53.299999237060546875 59.90000152587890625 63.700000762939453125 63.799999237060546875 62.700000762939453125 59.5 53.5 49.200000762939453125 45.299999237060546875 40.40000152587890625 37.299999237060546875 33.700000762939453125 32.700000762939453125 32.200000762939453125 32.200000762939453125 32.299999237060546875 32.40000152587890625 32.5 32.59999847412109375 34.5 37.200000762939453125 40.90000152587890625 45.200000762939453125 56.59999847412109375 64.8000030517578125 66.09999847412109375 66.5 66.59999847412109375 66.59999847412109375 66.3000030517578125 66.1999969482421875 66.09999847412109375 66 65.5 64.8000030517578125 64 
34.40000152587890625 34.90000152587890625 35.40000152587890625 35.799999237060546875 36.700000762939453125 36.90000152587890625 37.200000762939453125 37.200000762939453125 36.40000152587890625 36.299999237060546875 35.90000152587890625 36.40000152587890625 36.5 36.299999237060546875 37.09999847412109375 38.5 39.799999237060546875 40.90000152587890625 41.200000762939453125 41 41.200000762939453125 41.299999237060546875 41.5 42.09999847412109375 44 45.700000762939453125 48.700000762939453125 53.200000762939453125 56.5 59.40000152587890625 59.90000152587890625 58 58 57.90000152587890625 55.90000152587890625 53.90000152587890625 52.700000762939453125 53.299999237060546875 54.700000762939453125 56.40000152587890625 60.299999237060546875 61.90000152587890625 68.1999969482421875 71.6999969482421875 81.6999969482421875 80.6999969482421875 79.3000030517578125 77.8000030517578125 80.59999847412109375 83.8000030517578125 84.6999969482421875 85.90000152587890625 92.59999847412109375 96.3000030517578125 97.1999969482421875 96.6999969482421875 93.09999847412109375 91.1999969482421875 90.3000030517578125 94.1999969482421875 101.59999847412109375 100 96.8000030517578125 97.59999847412109375 102.40000152587890625 106.6999969482421875 109.90000152587890625 112.8000030517578125 113.40000152587890625 111.6999969482421875 110.09999847412109375 102.90000152587890625 95.8000030517578125 91.1999969482421875 88.90000152587890625 87.40000152587890625 87.1999969482421875 86 84.09999847412109375 81.1999969482421875 78.5 74.5 71.09999847412109375 66.40000152587890625 64.3000030517578125 62.59999847412109375 59.59999847412109375 57.5 56.200000762939453125 55.200000762939453125 53.09999847412109375 50.59999847412109375 48.90000152587890625 47.799999237060546875 48.90000152587890625 50.5 43.700000762939453125 42.700000762939453125 41.700000762939453125 40.700000762939453125 39.59999847412109375 38.5 37.40000152587890625 36.200000762939453125 35.5 35.5 34.59999847412109375 33.700000762939453125 32.90000152587890625 32.5 32.200000762939453125 31.899999618530273438 31.100000381469726562 30.600000381469726562 30.600000381469726562 31.399999618530273438 34 29.399999618530273438 29 28.700000762939453125 28.299999237060546875 27.899999618530273438 27.700000762939453125 27.600000381469726562 27.299999237060546875 26.600000381469726562 26 25.899999618530273438 26.100000381469726562 26.5 27.100000381469726562 27.799999237060546875 28.200000762939453125 28.100000381469726562 29.799999237060546875 30.799999237060546875 33.59999847412109375 31.700000762939453125 32.59999847412109375 32.90000152587890625 33.90000152587890625 34.90000152587890625 35.90000152587890625 36.5 36.09999847412109375 36.299999237060546875 36.799999237060546875 37.09999847412109375 37.5 39.299999237060546875 41.59999847412109375 42.799999237060546875 43.5 44.09999847412109375 44.59999847412109375 44.299999237060546875 43.5 42.59999847412109375 40.799999237060546875 40.700000762939453125 40.40000152587890625 41.5 43.40000152587890625 46.5 52.200000762939453125 58.40000152587890625 63.200000762939453125 64.8000030517578125 64.09999847412109375 60.59999847412109375 54.799999237060546875 50.5 46.90000152587890625 39 37.700000762939453125 34.700000762939453125 33 32.59999847412109375 32.40000152587890625 32.5 32.59999847412109375 32.59999847412109375 33 34.5 36 38.90000152587890625 42.90000152587890625 48.799999237060546875 57.90000152587890625 65.59999847412109375 66.6999969482421875 66.8000030517578125 66.09999847412109375 66.09999847412109375 66.5 66.59999847412109375 66.8000030517578125 66.8000030517578125 66 65.3000030517578125 
33.299999237060546875 33.5 33.799999237060546875 33.799999237060546875 34.700000762939453125 34.799999237060546875 35.200000762939453125 35.59999847412109375 36 36 34.799999237060546875 35 35.200000762939453125 36 36.90000152587890625 38.5 39.90000152587890625 40.40000152587890625 40.59999847412109375 40.40000152587890625 40.200000762939453125 40.59999847412109375 40.90000152587890625 41.799999237060546875 43.59999847412109375 45.799999237060546875 50 53.40000152587890625 55.09999847412109375 56.700000762939453125 55 53.200000762939453125 52.90000152587890625 52.700000762939453125 51.90000152587890625 50.5 50.59999847412109375 51.09999847412109375 52.799999237060546875 54.40000152587890625 56.59999847412109375 58.90000152587890625 63.59999847412109375 66.40000152587890625 69.5 69.3000030517578125 71 70.6999969482421875 75.09999847412109375 77.09999847412109375 80.40000152587890625 82.1999969482421875 86.40000152587890625 94.90000152587890625 97.6999969482421875 97.1999969482421875 93.90000152587890625 92.40000152587890625 92.3000030517578125 95 102.1999969482421875 102.40000152587890625 101.8000030517578125 102.09999847412109375 103.6999969482421875 108.6999969482421875 111 113 113.5 111.1999969482421875 107.5 101.59999847412109375 95.40000152587890625 90.90000152587890625 88.90000152587890625 86.09999847412109375 84.40000152587890625 83 81.59999847412109375 79.40000152587890625 77.1999969482421875 74.3000030517578125 72.90000152587890625 66.6999969482421875 66.09999847412109375 64.1999969482421875 62 59.90000152587890625 57.90000152587890625 55.700000762939453125 53 50.200000762939453125 48.09999847412109375 47.5 52.09999847412109375 44.5 43.299999237060546875 42.40000152587890625 41.40000152587890625 40.299999237060546875 39.09999847412109375 38.200000762939453125 37.09999847412109375 36.59999847412109375 35.799999237060546875 35.5 34.700000762939453125 33.799999237060546875 33.200000762939453125 32.799999237060546875 32.40000152587890625 31.899999618530273438 31.700000762939453125 31.600000381469726562 31.299999237060546875 30.799999237060546875 32.40000152587890625 30.600000381469726562 29.299999237060546875 28.700000762939453125 28.399999618530273438 28.100000381469726562 27.899999618530273438 27.899999618530273438 27.5 26.899999618530273438 26.399999618530273438 26 26.200000762939453125 26.5 27.299999237060546875 28.399999618530273438 28.5 28.200000762939453125 28.899999618530273438 29.600000381469726562 32.09999847412109375 32.200000762939453125 32.299999237060546875 33.09999847412109375 34.09999847412109375 35.200000762939453125 36.200000762939453125 36.5 35.90000152587890625 36.40000152587890625 37 37.299999237060546875 38 39.40000152587890625 41.700000762939453125 42.700000762939453125 43.700000762939453125 44.5 44.90000152587890625 44.40000152587890625 43.59999847412109375 42.700000762939453125 41.5 40.799999237060546875 40.5 41.799999237060546875 43.5 46.40000152587890625 50.5 56 61.200000762939453125 64.3000030517578125 65 61.59999847412109375 56.59999847412109375 53.299999237060546875 50.299999237060546875 45.40000152587890625 38.700000762939453125 36.200000762939453125 34 33.200000762939453125 32.799999237060546875 32.700000762939453125 32.90000152587890625 32.799999237060546875 33.09999847412109375 34 35.5 37.700000762939453125 41.09999847412109375 45.59999847412109375 52.09999847412109375 66.40000152587890625 66.8000030517578125 66.40000152587890625 63.700000762939453125 61.299999237060546875 66.90000152587890625 67.90000152587890625 68.3000030517578125 68 67.1999969482421875 66.40000152587890625 
35 32.200000762939453125 32 31.899999618530273438 32.799999237060546875 33.40000152587890625 33.799999237060546875 34.09999847412109375 34.5 34.799999237060546875 34.200000762939453125 34.200000762939453125 34.299999237060546875 35.799999237060546875 37.200000762939453125 38.5 39.200000762939453125 39.40000152587890625 39.59999847412109375 39.90000152587890625 39.59999847412109375 39.5 40.40000152587890625 41.799999237060546875 43.799999237060546875 46 48.799999237060546875 51.299999237060546875 52.700000762939453125 51.799999237060546875 51 50.09999847412109375 49.09999847412109375 48.799999237060546875 48.59999847412109375 48.700000762939453125 48.700000762939453125 49.5 50.700000762939453125 52 53.90000152587890625 55.5 58.299999237060546875 60.59999847412109375 60.5 62.200000762939453125 65.3000030517578125 67.8000030517578125 75.3000030517578125 77 80.1999969482421875 82.09999847412109375 86.5 93.8000030517578125 98 97.1999969482421875 95.3000030517578125 94.6999969482421875 94.6999969482421875 96.1999969482421875 99 102.59999847412109375 103.8000030517578125 107.1999969482421875 108.8000030517578125 110.8000030517578125 112.6999969482421875 113.5 114 110.1999969482421875 103.90000152587890625 97.6999969482421875 93.40000152587890625 95.40000152587890625 92 87.5 84.40000152587890625 81.8000030517578125 79.1999969482421875 77.40000152587890625 75.8000030517578125 74.6999969482421875 70 69.59999847412109375 68 66.5 64.8000030517578125 62.59999847412109375 59.59999847412109375 56 52.59999847412109375 49.799999237060546875 47.59999847412109375 49.799999237060546875 48.59999847412109375 44.40000152587890625 42.90000152587890625 42 41 40 38.700000762939453125 37.90000152587890625 37.200000762939453125 36.799999237060546875 36.40000152587890625 35.799999237060546875 34.90000152587890625 34.299999237060546875 34.299999237060546875 33.90000152587890625 33.5 33 32.59999847412109375 32.59999847412109375 32 31.200000762939453125 30.200000762939453125 33 29 28.5 28.5 28.299999237060546875 28.299999237060546875 27.799999237060546875 27.700000762939453125 27.200000762939453125 26.5 26.100000381469726562 26.299999237060546875 26.799999237060546875 27.299999237060546875 27.700000762939453125 28.299999237060546875 28.399999618530273438 28.600000381469726562 29.899999618530273438 31.299999237060546875 32.299999237060546875 33.40000152587890625 34.09999847412109375 34.90000152587890625 35.700000762939453125 36.09999847412109375 37 37.200000762939453125 37.700000762939453125 38 38.5 39.09999847412109375 40.09999847412109375 41.90000152587890625 43.09999847412109375 44.299999237060546875 44.700000762939453125 45 45 44.200000762939453125 43.09999847412109375 42 41.40000152587890625 41.200000762939453125 42.299999237060546875 43.90000152587890625 46.200000762939453125 49 54.09999847412109375 58.700000762939453125 63.299999237060546875 65.09999847412109375 62.700000762939453125 59.200000762939453125 56.700000762939453125 53.700000762939453125 48.799999237060546875 39.09999847412109375 37.200000762939453125 35.200000762939453125 34.200000762939453125 33.59999847412109375 33.59999847412109375 33.59999847412109375 33 33.200000762939453125 33.90000152587890625 35.200000762939453125 36.799999237060546875 39.40000152587890625 43 46.700000762939453125 49.90000152587890625 53.09999847412109375 58.299999237060546875 59.799999237060546875 58.200000762939453125 66.40000152587890625 68.09999847412109375 69.1999969482421875 68.8000030517578125 68.1999969482421875 67.5 
30.700000762939453125 34.200000762939453125 33.799999237060546875 30.700000762939453125 31.299999237060546875 31.899999618530273438 32.299999237060546875 32.700000762939453125 33.200000762939453125 33.40000152587890625 33.200000762939453125 33.5 33.700000762939453125 34.799999237060546875 35.59999847412109375 36.90000152587890625 37.700000762939453125 37.90000152587890625 38.200000762939453125 38.700000762939453125 39 38.90000152587890625 39.90000152587890625 41.299999237060546875 42.799999237060546875 45 46.59999847412109375 48.200000762939453125 48.5 48.40000152587890625 48.200000762939453125 47.5 47 46.700000762939453125 46.799999237060546875 46.90000152587890625 47.299999237060546875 48.40000152587890625 49.299999237060546875 50.09999847412109375 51.299999237060546875 52.799999237060546875 55.299999237060546875 57.09999847412109375 58.200000762939453125 60.90000152587890625 65.1999969482421875 69 72.59999847412109375 76.6999969482421875 80 83.1999969482421875 88.90000152587890625 94.40000152587890625 97.6999969482421875 98.3000030517578125 98.1999969482421875 98.90000152587890625 99.1999969482421875 101.09999847412109375 102.1999969482421875 103 105.40000152587890625 108.8000030517578125 111.3000030517578125 112.8000030517578125 113.59999847412109375 113 111.3000030517578125 106.09999847412109375 99.8000030517578125 95 91.3000030517578125 91.40000152587890625 94.3000030517578125 88.6999969482421875 84.1999969482421875 81.8000030517578125 79.09999847412109375 76.1999969482421875 73.6999969482421875 71.40000152587890625 64.6999969482421875 69 67.90000152587890625 66.90000152587890625 65.8000030517578125 63.09999847412109375 59.799999237060546875 56 52.09999847412109375 49.5 47.40000152587890625 52.40000152587890625 44.5 43.59999847412109375 42.700000762939453125 41.700000762939453125 40.59999847412109375 39.59999847412109375 38.799999237060546875 38.09999847412109375 37.5 37 36.5 36 35.5 35.200000762939453125 35.09999847412109375 35 34.59999847412109375 34.09999847412109375 33.799999237060546875 33.40000152587890625 32.5 31.700000762939453125 30.700000762939453125 29.799999237060546875 29.600000381469726562 29.200000762939453125 28.799999237060546875 28.600000381469726562 28.700000762939453125 28.200000762939453125 27.799999237060546875 27.299999237060546875 26.600000381469726562 26.200000762939453125 26.5 27.100000381469726562 27.700000762939453125 27.899999618530273438 27.899999618530273438 28.299999237060546875 28.399999618530273438 30 30.899999618530273438 32.59999847412109375 33.90000152587890625 34 35.59999847412109375 35.799999237060546875 36.200000762939453125 37.299999237060546875 38.5 39.299999237060546875 39.200000762939453125 39.299999237060546875 39.799999237060546875 40.700000762939453125 42.200000762939453125 43.5 44.700000762939453125 45 45.09999847412109375 45.09999847412109375 45.09999847412109375 43.5 42 41 41.59999847412109375 42.799999237060546875 44.299999237060546875 46.59999847412109375 48.90000152587890625 52.299999237060546875 55.799999237060546875 60.09999847412109375 64.3000030517578125 64.09999847412109375 62.200000762939453125 60.299999237060546875 56.200000762939453125 49.90000152587890625 42.59999847412109375 38.5 36.700000762939453125 35.40000152587890625 34.200000762939453125 33.799999237060546875 33.5 33.200000762939453125 33.299999237060546875 33.799999237060546875 34.90000152587890625 36.40000152587890625 38.90000152587890625 41.09999847412109375 44 48.5 55.09999847412109375 59.40000152587890625 63.700000762939453125 66.5 68.09999847412109375 69.40000152587890625 69.5 69.59999847412109375 68.90000152587890625 68.09999847412109375 
